MODULE Module1
	CONST robtarget p0:=[[806.29,0.00,1154.00],[0.5,0,0.866025,0],[0,0,0,0],[9E+9,9E+9,9E+9,9E+9,9E+9,9E+9]];
	CONST robtarget p20:=[[806.29,0.00,1154.00],[0.5,0,0.866025,0],[0,0,0,0],[9E+9,9E+9,9E+9,9E+9,9E+9,9E+9]];
	CONST robtarget p10:=[[806.29,0.00,1154.00],[0.5,0,0.866025,0],[0,0,0,0],[9E+9,9E+9,9E+9,9E+9,9E+9,9E+9]];
    !***********************************************************
    !
    ! Module:  Module1
    !
    ! Description:
    !   <Insert description here>
    !
    ! Author: ufabc
    !
    ! Version: 1.0
    !
    !***********************************************************
    
    
    !***********************************************************
    !
    ! Procedure main
    !
    !   This is the entry point of your program
    !
    !***********************************************************
    PROC main()
        !Add your code here
        MoveJ p0, v100, z50, tool0;
        

	MoveL Offs(p0,0.0,0.0,20), v10, z10, tool0;
	MoveL Offs(p0,0.0,0.0,0), v10, z10, tool0;
	MoveL Offs(p0,0.0,0.0,20), v10, z10, tool0;

	MoveL Offs(p0,0.06666666666666667,26.566666666666666,20), v10, z10, tool0;
	MoveL Offs(p0,0.06666666666666667,26.566666666666666,0), v10, z10, tool0;
	MoveL Offs(p0,0.06666666666666667,26.566666666666666,20), v10, z10, tool0;

	MoveL Offs(p0,0.06666666666666667,26.666666666666668,20), v10, z10, tool0;
	MoveL Offs(p0,0.06666666666666667,26.666666666666668,0), v10, z10, tool0;
	MoveL Offs(p0,0.06666666666666667,26.666666666666668,20), v10, z10, tool0;

	MoveL Offs(p0,0.06666666666666667,26.7,20), v10, z10, tool0;
	MoveL Offs(p0,0.06666666666666667,26.7,0), v10, z10, tool0;
	MoveL Offs(p0,0.06666666666666667,26.7,20), v10, z10, tool0;

	MoveL Offs(p0,0.06666666666666667,26.933333333333334,20), v10, z10, tool0;
	MoveL Offs(p0,0.06666666666666667,26.933333333333334,0), v10, z10, tool0;
	MoveL Offs(p0,0.06666666666666667,26.933333333333334,20), v10, z10, tool0;

	MoveL Offs(p0,0.1,26.133333333333333,20), v10, z10, tool0;
	MoveL Offs(p0,0.1,26.133333333333333,0), v10, z10, tool0;
	MoveL Offs(p0,0.1,26.133333333333333,20), v10, z10, tool0;

	MoveL Offs(p0,0.1,26.166666666666668,20), v10, z10, tool0;
	MoveL Offs(p0,0.1,26.166666666666668,0), v10, z10, tool0;
	MoveL Offs(p0,0.1,26.166666666666668,20), v10, z10, tool0;

	MoveL Offs(p0,0.1,26.433333333333334,20), v10, z10, tool0;
	MoveL Offs(p0,0.1,26.433333333333334,0), v10, z10, tool0;
	MoveL Offs(p0,0.1,26.433333333333334,20), v10, z10, tool0;

	MoveL Offs(p0,0.1,26.733333333333334,20), v10, z10, tool0;
	MoveL Offs(p0,0.1,26.733333333333334,0), v10, z10, tool0;
	MoveL Offs(p0,0.1,26.733333333333334,20), v10, z10, tool0;

	MoveL Offs(p0,0.1,26.766666666666666,20), v10, z10, tool0;
	MoveL Offs(p0,0.1,26.766666666666666,0), v10, z10, tool0;
	MoveL Offs(p0,0.1,26.766666666666666,20), v10, z10, tool0;

	MoveL Offs(p0,0.1,27.066666666666666,20), v10, z10, tool0;
	MoveL Offs(p0,0.1,27.066666666666666,0), v10, z10, tool0;
	MoveL Offs(p0,0.1,27.066666666666666,20), v10, z10, tool0;

	MoveL Offs(p0,0.1,27.2,20), v10, z10, tool0;
	MoveL Offs(p0,0.1,27.2,0), v10, z10, tool0;
	MoveL Offs(p0,0.1,27.2,20), v10, z10, tool0;

	MoveL Offs(p0,0.13333333333333333,25.966666666666665,20), v10, z10, tool0;
	MoveL Offs(p0,0.13333333333333333,25.966666666666665,0), v10, z10, tool0;
	MoveL Offs(p0,0.13333333333333333,25.966666666666665,20), v10, z10, tool0;

	MoveL Offs(p0,0.13333333333333333,26.0,20), v10, z10, tool0;
	MoveL Offs(p0,0.13333333333333333,26.0,0), v10, z10, tool0;
	MoveL Offs(p0,0.13333333333333333,26.0,20), v10, z10, tool0;

	MoveL Offs(p0,0.13333333333333333,26.033333333333335,20), v10, z10, tool0;
	MoveL Offs(p0,0.13333333333333333,26.033333333333335,0), v10, z10, tool0;
	MoveL Offs(p0,0.13333333333333333,26.033333333333335,20), v10, z10, tool0;

	MoveL Offs(p0,0.13333333333333333,27.166666666666668,20), v10, z10, tool0;
	MoveL Offs(p0,0.13333333333333333,27.166666666666668,0), v10, z10, tool0;
	MoveL Offs(p0,0.13333333333333333,27.166666666666668,20), v10, z10, tool0;

	MoveL Offs(p0,0.13333333333333333,27.2,20), v10, z10, tool0;
	MoveL Offs(p0,0.13333333333333333,27.2,0), v10, z10, tool0;
	MoveL Offs(p0,0.13333333333333333,27.2,20), v10, z10, tool0;

	MoveL Offs(p0,0.13333333333333333,27.233333333333334,20), v10, z10, tool0;
	MoveL Offs(p0,0.13333333333333333,27.233333333333334,0), v10, z10, tool0;
	MoveL Offs(p0,0.13333333333333333,27.233333333333334,20), v10, z10, tool0;

	MoveL Offs(p0,0.13333333333333333,27.266666666666666,20), v10, z10, tool0;
	MoveL Offs(p0,0.13333333333333333,27.266666666666666,0), v10, z10, tool0;
	MoveL Offs(p0,0.13333333333333333,27.266666666666666,20), v10, z10, tool0;

	MoveL Offs(p0,0.13333333333333333,27.3,20), v10, z10, tool0;
	MoveL Offs(p0,0.13333333333333333,27.3,0), v10, z10, tool0;
	MoveL Offs(p0,0.13333333333333333,27.3,20), v10, z10, tool0;

	MoveL Offs(p0,0.16666666666666666,25.833333333333332,20), v10, z10, tool0;
	MoveL Offs(p0,0.16666666666666666,25.833333333333332,0), v10, z10, tool0;
	MoveL Offs(p0,0.16666666666666666,25.833333333333332,20), v10, z10, tool0;

	MoveL Offs(p0,0.16666666666666666,27.466666666666665,20), v10, z10, tool0;
	MoveL Offs(p0,0.16666666666666666,27.466666666666665,0), v10, z10, tool0;
	MoveL Offs(p0,0.16666666666666666,27.466666666666665,20), v10, z10, tool0;

	MoveL Offs(p0,0.16666666666666666,27.5,20), v10, z10, tool0;
	MoveL Offs(p0,0.16666666666666666,27.5,0), v10, z10, tool0;
	MoveL Offs(p0,0.16666666666666666,27.5,20), v10, z10, tool0;

	MoveL Offs(p0,0.16666666666666666,27.533333333333335,20), v10, z10, tool0;
	MoveL Offs(p0,0.16666666666666666,27.533333333333335,0), v10, z10, tool0;
	MoveL Offs(p0,0.16666666666666666,27.533333333333335,20), v10, z10, tool0;

	MoveL Offs(p0,0.2,25.666666666666668,20), v10, z10, tool0;
	MoveL Offs(p0,0.2,25.666666666666668,0), v10, z10, tool0;
	MoveL Offs(p0,0.2,25.666666666666668,20), v10, z10, tool0;

	MoveL Offs(p0,0.2,25.7,20), v10, z10, tool0;
	MoveL Offs(p0,0.2,25.7,0), v10, z10, tool0;
	MoveL Offs(p0,0.2,25.7,20), v10, z10, tool0;

	MoveL Offs(p0,0.2,27.533333333333335,20), v10, z10, tool0;
	MoveL Offs(p0,0.2,27.533333333333335,0), v10, z10, tool0;
	MoveL Offs(p0,0.2,27.533333333333335,20), v10, z10, tool0;

	MoveL Offs(p0,0.2,27.7,20), v10, z10, tool0;
	MoveL Offs(p0,0.2,27.7,0), v10, z10, tool0;
	MoveL Offs(p0,0.2,27.7,20), v10, z10, tool0;

	MoveL Offs(p0,0.23333333333333334,25.566666666666666,20), v10, z10, tool0;
	MoveL Offs(p0,0.23333333333333334,25.566666666666666,0), v10, z10, tool0;
	MoveL Offs(p0,0.23333333333333334,25.566666666666666,20), v10, z10, tool0;

	MoveL Offs(p0,0.23333333333333334,25.6,20), v10, z10, tool0;
	MoveL Offs(p0,0.23333333333333334,25.6,0), v10, z10, tool0;
	MoveL Offs(p0,0.23333333333333334,25.6,20), v10, z10, tool0;

	MoveL Offs(p0,0.23333333333333334,27.633333333333333,20), v10, z10, tool0;
	MoveL Offs(p0,0.23333333333333334,27.633333333333333,0), v10, z10, tool0;
	MoveL Offs(p0,0.23333333333333334,27.633333333333333,20), v10, z10, tool0;

	MoveL Offs(p0,0.23333333333333334,27.766666666666666,20), v10, z10, tool0;
	MoveL Offs(p0,0.23333333333333334,27.766666666666666,0), v10, z10, tool0;
	MoveL Offs(p0,0.23333333333333334,27.766666666666666,20), v10, z10, tool0;

	MoveL Offs(p0,0.23333333333333334,27.8,20), v10, z10, tool0;
	MoveL Offs(p0,0.23333333333333334,27.8,0), v10, z10, tool0;
	MoveL Offs(p0,0.23333333333333334,27.8,20), v10, z10, tool0;

	MoveL Offs(p0,0.23333333333333334,27.9,20), v10, z10, tool0;
	MoveL Offs(p0,0.23333333333333334,27.9,0), v10, z10, tool0;
	MoveL Offs(p0,0.23333333333333334,27.9,20), v10, z10, tool0;

	MoveL Offs(p0,0.26666666666666666,25.5,20), v10, z10, tool0;
	MoveL Offs(p0,0.26666666666666666,25.5,0), v10, z10, tool0;
	MoveL Offs(p0,0.26666666666666666,25.5,20), v10, z10, tool0;

	MoveL Offs(p0,0.26666666666666666,27.7,20), v10, z10, tool0;
	MoveL Offs(p0,0.26666666666666666,27.7,0), v10, z10, tool0;
	MoveL Offs(p0,0.26666666666666666,27.7,20), v10, z10, tool0;

	MoveL Offs(p0,0.26666666666666666,27.9,20), v10, z10, tool0;
	MoveL Offs(p0,0.26666666666666666,27.9,0), v10, z10, tool0;
	MoveL Offs(p0,0.26666666666666666,27.9,20), v10, z10, tool0;

	MoveL Offs(p0,0.26666666666666666,27.933333333333334,20), v10, z10, tool0;
	MoveL Offs(p0,0.26666666666666666,27.933333333333334,0), v10, z10, tool0;
	MoveL Offs(p0,0.26666666666666666,27.933333333333334,20), v10, z10, tool0;

	MoveL Offs(p0,0.26666666666666666,28.033333333333335,20), v10, z10, tool0;
	MoveL Offs(p0,0.26666666666666666,28.033333333333335,0), v10, z10, tool0;
	MoveL Offs(p0,0.26666666666666666,28.033333333333335,20), v10, z10, tool0;

	MoveL Offs(p0,0.3,25.433333333333334,20), v10, z10, tool0;
	MoveL Offs(p0,0.3,25.433333333333334,0), v10, z10, tool0;
	MoveL Offs(p0,0.3,25.433333333333334,20), v10, z10, tool0;

	MoveL Offs(p0,0.3,27.833333333333332,20), v10, z10, tool0;
	MoveL Offs(p0,0.3,27.833333333333332,0), v10, z10, tool0;
	MoveL Offs(p0,0.3,27.833333333333332,20), v10, z10, tool0;

	MoveL Offs(p0,0.3,27.866666666666667,20), v10, z10, tool0;
	MoveL Offs(p0,0.3,27.866666666666667,0), v10, z10, tool0;
	MoveL Offs(p0,0.3,27.866666666666667,20), v10, z10, tool0;

	MoveL Offs(p0,0.3,27.966666666666665,20), v10, z10, tool0;
	MoveL Offs(p0,0.3,27.966666666666665,0), v10, z10, tool0;
	MoveL Offs(p0,0.3,27.966666666666665,20), v10, z10, tool0;

	MoveL Offs(p0,0.3,28.066666666666666,20), v10, z10, tool0;
	MoveL Offs(p0,0.3,28.066666666666666,0), v10, z10, tool0;
	MoveL Offs(p0,0.3,28.066666666666666,20), v10, z10, tool0;

	MoveL Offs(p0,0.3333333333333333,25.4,20), v10, z10, tool0;
	MoveL Offs(p0,0.3333333333333333,25.4,0), v10, z10, tool0;
	MoveL Offs(p0,0.3333333333333333,25.4,20), v10, z10, tool0;

	MoveL Offs(p0,0.3333333333333333,28.0,20), v10, z10, tool0;
	MoveL Offs(p0,0.3333333333333333,28.0,0), v10, z10, tool0;
	MoveL Offs(p0,0.3333333333333333,28.0,20), v10, z10, tool0;

	MoveL Offs(p0,0.3333333333333333,28.033333333333335,20), v10, z10, tool0;
	MoveL Offs(p0,0.3333333333333333,28.033333333333335,0), v10, z10, tool0;
	MoveL Offs(p0,0.3333333333333333,28.033333333333335,20), v10, z10, tool0;

	MoveL Offs(p0,0.3333333333333333,28.1,20), v10, z10, tool0;
	MoveL Offs(p0,0.3333333333333333,28.1,0), v10, z10, tool0;
	MoveL Offs(p0,0.3333333333333333,28.1,20), v10, z10, tool0;

	MoveL Offs(p0,0.3333333333333333,28.133333333333333,20), v10, z10, tool0;
	MoveL Offs(p0,0.3333333333333333,28.133333333333333,0), v10, z10, tool0;
	MoveL Offs(p0,0.3333333333333333,28.133333333333333,20), v10, z10, tool0;

	MoveL Offs(p0,0.36666666666666664,25.366666666666667,20), v10, z10, tool0;
	MoveL Offs(p0,0.36666666666666664,25.366666666666667,0), v10, z10, tool0;
	MoveL Offs(p0,0.36666666666666664,25.366666666666667,20), v10, z10, tool0;

	MoveL Offs(p0,0.36666666666666664,28.166666666666668,20), v10, z10, tool0;
	MoveL Offs(p0,0.36666666666666664,28.166666666666668,0), v10, z10, tool0;
	MoveL Offs(p0,0.36666666666666664,28.166666666666668,20), v10, z10, tool0;

	MoveL Offs(p0,0.4,25.333333333333332,20), v10, z10, tool0;
	MoveL Offs(p0,0.4,25.333333333333332,0), v10, z10, tool0;
	MoveL Offs(p0,0.4,25.333333333333332,20), v10, z10, tool0;

	MoveL Offs(p0,0.4,28.1,20), v10, z10, tool0;
	MoveL Offs(p0,0.4,28.1,0), v10, z10, tool0;
	MoveL Offs(p0,0.4,28.1,20), v10, z10, tool0;

	MoveL Offs(p0,0.4,28.2,20), v10, z10, tool0;
	MoveL Offs(p0,0.4,28.2,0), v10, z10, tool0;
	MoveL Offs(p0,0.4,28.2,20), v10, z10, tool0;

	MoveL Offs(p0,0.43333333333333335,25.233333333333334,20), v10, z10, tool0;
	MoveL Offs(p0,0.43333333333333335,25.233333333333334,0), v10, z10, tool0;
	MoveL Offs(p0,0.43333333333333335,25.233333333333334,20), v10, z10, tool0;

	MoveL Offs(p0,0.43333333333333335,28.266666666666666,20), v10, z10, tool0;
	MoveL Offs(p0,0.43333333333333335,28.266666666666666,0), v10, z10, tool0;
	MoveL Offs(p0,0.43333333333333335,28.266666666666666,20), v10, z10, tool0;

	MoveL Offs(p0,0.4666666666666667,25.166666666666668,20), v10, z10, tool0;
	MoveL Offs(p0,0.4666666666666667,25.166666666666668,0), v10, z10, tool0;
	MoveL Offs(p0,0.4666666666666667,25.166666666666668,20), v10, z10, tool0;

	MoveL Offs(p0,0.4666666666666667,28.333333333333332,20), v10, z10, tool0;
	MoveL Offs(p0,0.4666666666666667,28.333333333333332,0), v10, z10, tool0;
	MoveL Offs(p0,0.4666666666666667,28.333333333333332,20), v10, z10, tool0;

	MoveL Offs(p0,0.5,28.3,20), v10, z10, tool0;
	MoveL Offs(p0,0.5,28.3,0), v10, z10, tool0;
	MoveL Offs(p0,0.5,28.3,20), v10, z10, tool0;

	MoveL Offs(p0,0.5,28.366666666666667,20), v10, z10, tool0;
	MoveL Offs(p0,0.5,28.366666666666667,0), v10, z10, tool0;
	MoveL Offs(p0,0.5,28.366666666666667,20), v10, z10, tool0;

	MoveL Offs(p0,0.5333333333333333,25.1,20), v10, z10, tool0;
	MoveL Offs(p0,0.5333333333333333,25.1,0), v10, z10, tool0;
	MoveL Offs(p0,0.5333333333333333,25.1,20), v10, z10, tool0;

	MoveL Offs(p0,0.5333333333333333,28.333333333333332,20), v10, z10, tool0;
	MoveL Offs(p0,0.5333333333333333,28.333333333333332,0), v10, z10, tool0;
	MoveL Offs(p0,0.5333333333333333,28.333333333333332,20), v10, z10, tool0;

	MoveL Offs(p0,0.5333333333333333,28.4,20), v10, z10, tool0;
	MoveL Offs(p0,0.5333333333333333,28.4,0), v10, z10, tool0;
	MoveL Offs(p0,0.5333333333333333,28.4,20), v10, z10, tool0;

	MoveL Offs(p0,0.5666666666666667,25.033333333333335,20), v10, z10, tool0;
	MoveL Offs(p0,0.5666666666666667,25.033333333333335,0), v10, z10, tool0;
	MoveL Offs(p0,0.5666666666666667,25.033333333333335,20), v10, z10, tool0;

	MoveL Offs(p0,0.5666666666666667,28.366666666666667,20), v10, z10, tool0;
	MoveL Offs(p0,0.5666666666666667,28.366666666666667,0), v10, z10, tool0;
	MoveL Offs(p0,0.5666666666666667,28.366666666666667,20), v10, z10, tool0;

	MoveL Offs(p0,0.6,28.4,20), v10, z10, tool0;
	MoveL Offs(p0,0.6,28.4,0), v10, z10, tool0;
	MoveL Offs(p0,0.6,28.4,20), v10, z10, tool0;

	MoveL Offs(p0,0.6,28.466666666666665,20), v10, z10, tool0;
	MoveL Offs(p0,0.6,28.466666666666665,0), v10, z10, tool0;
	MoveL Offs(p0,0.6,28.466666666666665,20), v10, z10, tool0;

	MoveL Offs(p0,0.6333333333333333,24.966666666666665,20), v10, z10, tool0;
	MoveL Offs(p0,0.6333333333333333,24.966666666666665,0), v10, z10, tool0;
	MoveL Offs(p0,0.6333333333333333,24.966666666666665,20), v10, z10, tool0;

	MoveL Offs(p0,0.6333333333333333,28.433333333333334,20), v10, z10, tool0;
	MoveL Offs(p0,0.6333333333333333,28.433333333333334,0), v10, z10, tool0;
	MoveL Offs(p0,0.6333333333333333,28.433333333333334,20), v10, z10, tool0;

	MoveL Offs(p0,0.6666666666666666,24.933333333333334,20), v10, z10, tool0;
	MoveL Offs(p0,0.6666666666666666,24.933333333333334,0), v10, z10, tool0;
	MoveL Offs(p0,0.6666666666666666,24.933333333333334,20), v10, z10, tool0;

	MoveL Offs(p0,0.7,24.866666666666667,20), v10, z10, tool0;
	MoveL Offs(p0,0.7,24.866666666666667,0), v10, z10, tool0;
	MoveL Offs(p0,0.7,24.866666666666667,20), v10, z10, tool0;

	MoveL Offs(p0,0.7,28.5,20), v10, z10, tool0;
	MoveL Offs(p0,0.7,28.5,0), v10, z10, tool0;
	MoveL Offs(p0,0.7,28.5,20), v10, z10, tool0;

	MoveL Offs(p0,0.7,28.533333333333335,20), v10, z10, tool0;
	MoveL Offs(p0,0.7,28.533333333333335,0), v10, z10, tool0;
	MoveL Offs(p0,0.7,28.533333333333335,20), v10, z10, tool0;

	MoveL Offs(p0,0.7333333333333333,28.6,20), v10, z10, tool0;
	MoveL Offs(p0,0.7333333333333333,28.6,0), v10, z10, tool0;
	MoveL Offs(p0,0.7333333333333333,28.6,20), v10, z10, tool0;

	MoveL Offs(p0,0.7666666666666667,24.8,20), v10, z10, tool0;
	MoveL Offs(p0,0.7666666666666667,24.8,0), v10, z10, tool0;
	MoveL Offs(p0,0.7666666666666667,24.8,20), v10, z10, tool0;

	MoveL Offs(p0,0.7666666666666667,28.6,20), v10, z10, tool0;
	MoveL Offs(p0,0.7666666666666667,28.6,0), v10, z10, tool0;
	MoveL Offs(p0,0.7666666666666667,28.6,20), v10, z10, tool0;

	MoveL Offs(p0,0.7666666666666667,28.666666666666668,20), v10, z10, tool0;
	MoveL Offs(p0,0.7666666666666667,28.666666666666668,0), v10, z10, tool0;
	MoveL Offs(p0,0.7666666666666667,28.666666666666668,20), v10, z10, tool0;

	MoveL Offs(p0,0.8,27.833333333333332,20), v10, z10, tool0;
	MoveL Offs(p0,0.8,27.833333333333332,0), v10, z10, tool0;
	MoveL Offs(p0,0.8,27.833333333333332,20), v10, z10, tool0;

	MoveL Offs(p0,0.8,27.866666666666667,20), v10, z10, tool0;
	MoveL Offs(p0,0.8,27.866666666666667,0), v10, z10, tool0;
	MoveL Offs(p0,0.8,27.866666666666667,20), v10, z10, tool0;

	MoveL Offs(p0,0.8,27.933333333333334,20), v10, z10, tool0;
	MoveL Offs(p0,0.8,27.933333333333334,0), v10, z10, tool0;
	MoveL Offs(p0,0.8,27.933333333333334,20), v10, z10, tool0;

	MoveL Offs(p0,0.8,27.966666666666665,20), v10, z10, tool0;
	MoveL Offs(p0,0.8,27.966666666666665,0), v10, z10, tool0;
	MoveL Offs(p0,0.8,27.966666666666665,20), v10, z10, tool0;

	MoveL Offs(p0,0.8,28.633333333333333,20), v10, z10, tool0;
	MoveL Offs(p0,0.8,28.633333333333333,0), v10, z10, tool0;
	MoveL Offs(p0,0.8,28.633333333333333,20), v10, z10, tool0;

	MoveL Offs(p0,0.8333333333333334,24.733333333333334,20), v10, z10, tool0;
	MoveL Offs(p0,0.8333333333333334,24.733333333333334,0), v10, z10, tool0;
	MoveL Offs(p0,0.8333333333333334,24.733333333333334,20), v10, z10, tool0;

	MoveL Offs(p0,0.8333333333333334,27.833333333333332,20), v10, z10, tool0;
	MoveL Offs(p0,0.8333333333333334,27.833333333333332,0), v10, z10, tool0;
	MoveL Offs(p0,0.8333333333333334,27.833333333333332,20), v10, z10, tool0;

	MoveL Offs(p0,0.8333333333333334,28.666666666666668,20), v10, z10, tool0;
	MoveL Offs(p0,0.8333333333333334,28.666666666666668,0), v10, z10, tool0;
	MoveL Offs(p0,0.8333333333333334,28.666666666666668,20), v10, z10, tool0;

	MoveL Offs(p0,0.8333333333333334,28.7,20), v10, z10, tool0;
	MoveL Offs(p0,0.8333333333333334,28.7,0), v10, z10, tool0;
	MoveL Offs(p0,0.8333333333333334,28.7,20), v10, z10, tool0;

	MoveL Offs(p0,0.8666666666666667,27.7,20), v10, z10, tool0;
	MoveL Offs(p0,0.8666666666666667,27.7,0), v10, z10, tool0;
	MoveL Offs(p0,0.8666666666666667,27.7,20), v10, z10, tool0;

	MoveL Offs(p0,0.8666666666666667,27.733333333333334,20), v10, z10, tool0;
	MoveL Offs(p0,0.8666666666666667,27.733333333333334,0), v10, z10, tool0;
	MoveL Offs(p0,0.8666666666666667,27.733333333333334,20), v10, z10, tool0;

	MoveL Offs(p0,0.8666666666666667,27.766666666666666,20), v10, z10, tool0;
	MoveL Offs(p0,0.8666666666666667,27.766666666666666,0), v10, z10, tool0;
	MoveL Offs(p0,0.8666666666666667,27.766666666666666,20), v10, z10, tool0;

	MoveL Offs(p0,0.8666666666666667,28.233333333333334,20), v10, z10, tool0;
	MoveL Offs(p0,0.8666666666666667,28.233333333333334,0), v10, z10, tool0;
	MoveL Offs(p0,0.8666666666666667,28.233333333333334,20), v10, z10, tool0;

	MoveL Offs(p0,0.8666666666666667,28.266666666666666,20), v10, z10, tool0;
	MoveL Offs(p0,0.8666666666666667,28.266666666666666,0), v10, z10, tool0;
	MoveL Offs(p0,0.8666666666666667,28.266666666666666,20), v10, z10, tool0;

	MoveL Offs(p0,0.9,24.7,20), v10, z10, tool0;
	MoveL Offs(p0,0.9,24.7,0), v10, z10, tool0;
	MoveL Offs(p0,0.9,24.7,20), v10, z10, tool0;

	MoveL Offs(p0,0.9,27.666666666666668,20), v10, z10, tool0;
	MoveL Offs(p0,0.9,27.666666666666668,0), v10, z10, tool0;
	MoveL Offs(p0,0.9,27.666666666666668,20), v10, z10, tool0;

	MoveL Offs(p0,0.9,28.733333333333334,20), v10, z10, tool0;
	MoveL Offs(p0,0.9,28.733333333333334,0), v10, z10, tool0;
	MoveL Offs(p0,0.9,28.733333333333334,20), v10, z10, tool0;

	MoveL Offs(p0,0.9,28.8,20), v10, z10, tool0;
	MoveL Offs(p0,0.9,28.8,0), v10, z10, tool0;
	MoveL Offs(p0,0.9,28.8,20), v10, z10, tool0;

	MoveL Offs(p0,0.9333333333333333,24.633333333333333,20), v10, z10, tool0;
	MoveL Offs(p0,0.9333333333333333,24.633333333333333,0), v10, z10, tool0;
	MoveL Offs(p0,0.9333333333333333,24.633333333333333,20), v10, z10, tool0;

	MoveL Offs(p0,0.9333333333333333,28.8,20), v10, z10, tool0;
	MoveL Offs(p0,0.9333333333333333,28.8,0), v10, z10, tool0;
	MoveL Offs(p0,0.9333333333333333,28.8,20), v10, z10, tool0;

	MoveL Offs(p0,0.9666666666666667,27.633333333333333,20), v10, z10, tool0;
	MoveL Offs(p0,0.9666666666666667,27.633333333333333,0), v10, z10, tool0;
	MoveL Offs(p0,0.9666666666666667,27.633333333333333,20), v10, z10, tool0;

	MoveL Offs(p0,1.0,24.6,20), v10, z10, tool0;
	MoveL Offs(p0,1.0,24.6,0), v10, z10, tool0;
	MoveL Offs(p0,1.0,24.6,20), v10, z10, tool0;

	MoveL Offs(p0,1.0,27.566666666666666,20), v10, z10, tool0;
	MoveL Offs(p0,1.0,27.566666666666666,0), v10, z10, tool0;
	MoveL Offs(p0,1.0,27.566666666666666,20), v10, z10, tool0;

	MoveL Offs(p0,1.0,28.4,20), v10, z10, tool0;
	MoveL Offs(p0,1.0,28.4,0), v10, z10, tool0;
	MoveL Offs(p0,1.0,28.4,20), v10, z10, tool0;

	MoveL Offs(p0,1.0,28.8,20), v10, z10, tool0;
	MoveL Offs(p0,1.0,28.8,0), v10, z10, tool0;
	MoveL Offs(p0,1.0,28.8,20), v10, z10, tool0;

	MoveL Offs(p0,1.0,28.833333333333332,20), v10, z10, tool0;
	MoveL Offs(p0,1.0,28.833333333333332,0), v10, z10, tool0;
	MoveL Offs(p0,1.0,28.833333333333332,20), v10, z10, tool0;

	MoveL Offs(p0,1.0,28.866666666666667,20), v10, z10, tool0;
	MoveL Offs(p0,1.0,28.866666666666667,0), v10, z10, tool0;
	MoveL Offs(p0,1.0,28.866666666666667,20), v10, z10, tool0;

	MoveL Offs(p0,1.0333333333333334,27.566666666666666,20), v10, z10, tool0;
	MoveL Offs(p0,1.0333333333333334,27.566666666666666,0), v10, z10, tool0;
	MoveL Offs(p0,1.0333333333333334,27.566666666666666,20), v10, z10, tool0;

	MoveL Offs(p0,1.0333333333333334,28.466666666666665,20), v10, z10, tool0;
	MoveL Offs(p0,1.0333333333333334,28.466666666666665,0), v10, z10, tool0;
	MoveL Offs(p0,1.0333333333333334,28.466666666666665,20), v10, z10, tool0;

	MoveL Offs(p0,1.0666666666666667,27.533333333333335,20), v10, z10, tool0;
	MoveL Offs(p0,1.0666666666666667,27.533333333333335,0), v10, z10, tool0;
	MoveL Offs(p0,1.0666666666666667,27.533333333333335,20), v10, z10, tool0;

	MoveL Offs(p0,1.0666666666666667,28.866666666666667,20), v10, z10, tool0;
	MoveL Offs(p0,1.0666666666666667,28.866666666666667,0), v10, z10, tool0;
	MoveL Offs(p0,1.0666666666666667,28.866666666666667,20), v10, z10, tool0;

	MoveL Offs(p0,1.1,28.133333333333333,20), v10, z10, tool0;
	MoveL Offs(p0,1.1,28.133333333333333,0), v10, z10, tool0;
	MoveL Offs(p0,1.1,28.133333333333333,20), v10, z10, tool0;

	MoveL Offs(p0,1.1,28.5,20), v10, z10, tool0;
	MoveL Offs(p0,1.1,28.5,0), v10, z10, tool0;
	MoveL Offs(p0,1.1,28.5,20), v10, z10, tool0;

	MoveL Offs(p0,1.1,28.533333333333335,20), v10, z10, tool0;
	MoveL Offs(p0,1.1,28.533333333333335,0), v10, z10, tool0;
	MoveL Offs(p0,1.1,28.533333333333335,20), v10, z10, tool0;

	MoveL Offs(p0,1.1,28.9,20), v10, z10, tool0;
	MoveL Offs(p0,1.1,28.9,0), v10, z10, tool0;
	MoveL Offs(p0,1.1,28.9,20), v10, z10, tool0;

	MoveL Offs(p0,1.1333333333333333,24.5,20), v10, z10, tool0;
	MoveL Offs(p0,1.1333333333333333,24.5,0), v10, z10, tool0;
	MoveL Offs(p0,1.1333333333333333,24.5,20), v10, z10, tool0;

	MoveL Offs(p0,1.1333333333333333,27.5,20), v10, z10, tool0;
	MoveL Offs(p0,1.1333333333333333,27.5,0), v10, z10, tool0;
	MoveL Offs(p0,1.1333333333333333,27.5,20), v10, z10, tool0;

	MoveL Offs(p0,1.1333333333333333,27.933333333333334,20), v10, z10, tool0;
	MoveL Offs(p0,1.1333333333333333,27.933333333333334,0), v10, z10, tool0;
	MoveL Offs(p0,1.1333333333333333,27.933333333333334,20), v10, z10, tool0;

	MoveL Offs(p0,1.1333333333333333,28.1,20), v10, z10, tool0;
	MoveL Offs(p0,1.1333333333333333,28.1,0), v10, z10, tool0;
	MoveL Offs(p0,1.1333333333333333,28.1,20), v10, z10, tool0;

	MoveL Offs(p0,1.1333333333333333,28.266666666666666,20), v10, z10, tool0;
	MoveL Offs(p0,1.1333333333333333,28.266666666666666,0), v10, z10, tool0;
	MoveL Offs(p0,1.1333333333333333,28.266666666666666,20), v10, z10, tool0;

	MoveL Offs(p0,1.1333333333333333,28.6,20), v10, z10, tool0;
	MoveL Offs(p0,1.1333333333333333,28.6,0), v10, z10, tool0;
	MoveL Offs(p0,1.1333333333333333,28.6,20), v10, z10, tool0;

	MoveL Offs(p0,1.1333333333333333,28.933333333333334,20), v10, z10, tool0;
	MoveL Offs(p0,1.1333333333333333,28.933333333333334,0), v10, z10, tool0;
	MoveL Offs(p0,1.1333333333333333,28.933333333333334,20), v10, z10, tool0;

	MoveL Offs(p0,1.1666666666666667,27.466666666666665,20), v10, z10, tool0;
	MoveL Offs(p0,1.1666666666666667,27.466666666666665,0), v10, z10, tool0;
	MoveL Offs(p0,1.1666666666666667,27.466666666666665,20), v10, z10, tool0;

	MoveL Offs(p0,1.1666666666666667,27.866666666666667,20), v10, z10, tool0;
	MoveL Offs(p0,1.1666666666666667,27.866666666666667,0), v10, z10, tool0;
	MoveL Offs(p0,1.1666666666666667,27.866666666666667,20), v10, z10, tool0;

	MoveL Offs(p0,1.1666666666666667,27.9,20), v10, z10, tool0;
	MoveL Offs(p0,1.1666666666666667,27.9,0), v10, z10, tool0;
	MoveL Offs(p0,1.1666666666666667,27.9,20), v10, z10, tool0;

	MoveL Offs(p0,1.1666666666666667,28.333333333333332,20), v10, z10, tool0;
	MoveL Offs(p0,1.1666666666666667,28.333333333333332,0), v10, z10, tool0;
	MoveL Offs(p0,1.1666666666666667,28.333333333333332,20), v10, z10, tool0;

	MoveL Offs(p0,1.1666666666666667,29.0,20), v10, z10, tool0;
	MoveL Offs(p0,1.1666666666666667,29.0,0), v10, z10, tool0;
	MoveL Offs(p0,1.1666666666666667,29.0,20), v10, z10, tool0;

	MoveL Offs(p0,1.2,27.766666666666666,20), v10, z10, tool0;
	MoveL Offs(p0,1.2,27.766666666666666,0), v10, z10, tool0;
	MoveL Offs(p0,1.2,27.766666666666666,20), v10, z10, tool0;

	MoveL Offs(p0,1.2,28.366666666666667,20), v10, z10, tool0;
	MoveL Offs(p0,1.2,28.366666666666667,0), v10, z10, tool0;
	MoveL Offs(p0,1.2,28.366666666666667,20), v10, z10, tool0;

	MoveL Offs(p0,1.2,28.6,20), v10, z10, tool0;
	MoveL Offs(p0,1.2,28.6,0), v10, z10, tool0;
	MoveL Offs(p0,1.2,28.6,20), v10, z10, tool0;

	MoveL Offs(p0,1.2333333333333334,24.433333333333334,20), v10, z10, tool0;
	MoveL Offs(p0,1.2333333333333334,24.433333333333334,0), v10, z10, tool0;
	MoveL Offs(p0,1.2333333333333334,24.433333333333334,20), v10, z10, tool0;

	MoveL Offs(p0,1.2333333333333334,27.433333333333334,20), v10, z10, tool0;
	MoveL Offs(p0,1.2333333333333334,27.433333333333334,0), v10, z10, tool0;
	MoveL Offs(p0,1.2333333333333334,27.433333333333334,20), v10, z10, tool0;

	MoveL Offs(p0,1.2333333333333334,27.766666666666666,20), v10, z10, tool0;
	MoveL Offs(p0,1.2333333333333334,27.766666666666666,0), v10, z10, tool0;
	MoveL Offs(p0,1.2333333333333334,27.766666666666666,20), v10, z10, tool0;

	MoveL Offs(p0,1.2333333333333334,27.8,20), v10, z10, tool0;
	MoveL Offs(p0,1.2333333333333334,27.8,0), v10, z10, tool0;
	MoveL Offs(p0,1.2333333333333334,27.8,20), v10, z10, tool0;

	MoveL Offs(p0,1.2333333333333334,28.333333333333332,20), v10, z10, tool0;
	MoveL Offs(p0,1.2333333333333334,28.333333333333332,0), v10, z10, tool0;
	MoveL Offs(p0,1.2333333333333334,28.333333333333332,20), v10, z10, tool0;

	MoveL Offs(p0,1.2333333333333334,28.633333333333333,20), v10, z10, tool0;
	MoveL Offs(p0,1.2333333333333334,28.633333333333333,0), v10, z10, tool0;
	MoveL Offs(p0,1.2333333333333334,28.633333333333333,20), v10, z10, tool0;

	MoveL Offs(p0,1.2333333333333334,28.966666666666665,20), v10, z10, tool0;
	MoveL Offs(p0,1.2333333333333334,28.966666666666665,0), v10, z10, tool0;
	MoveL Offs(p0,1.2333333333333334,28.966666666666665,20), v10, z10, tool0;

	MoveL Offs(p0,1.2666666666666666,27.733333333333334,20), v10, z10, tool0;
	MoveL Offs(p0,1.2666666666666666,27.733333333333334,0), v10, z10, tool0;
	MoveL Offs(p0,1.2666666666666666,27.733333333333334,20), v10, z10, tool0;

	MoveL Offs(p0,1.2666666666666666,28.4,20), v10, z10, tool0;
	MoveL Offs(p0,1.2666666666666666,28.4,0), v10, z10, tool0;
	MoveL Offs(p0,1.2666666666666666,28.4,20), v10, z10, tool0;

	MoveL Offs(p0,1.2666666666666666,28.7,20), v10, z10, tool0;
	MoveL Offs(p0,1.2666666666666666,28.7,0), v10, z10, tool0;
	MoveL Offs(p0,1.2666666666666666,28.7,20), v10, z10, tool0;

	MoveL Offs(p0,1.2666666666666666,29.0,20), v10, z10, tool0;
	MoveL Offs(p0,1.2666666666666666,29.0,0), v10, z10, tool0;
	MoveL Offs(p0,1.2666666666666666,29.0,20), v10, z10, tool0;

	MoveL Offs(p0,1.3,27.4,20), v10, z10, tool0;
	MoveL Offs(p0,1.3,27.4,0), v10, z10, tool0;
	MoveL Offs(p0,1.3,27.4,20), v10, z10, tool0;

	MoveL Offs(p0,1.3,27.7,20), v10, z10, tool0;
	MoveL Offs(p0,1.3,27.7,0), v10, z10, tool0;
	MoveL Offs(p0,1.3,27.7,20), v10, z10, tool0;

	MoveL Offs(p0,1.3,27.733333333333334,20), v10, z10, tool0;
	MoveL Offs(p0,1.3,27.733333333333334,0), v10, z10, tool0;
	MoveL Offs(p0,1.3,27.733333333333334,20), v10, z10, tool0;

	MoveL Offs(p0,1.3,28.5,20), v10, z10, tool0;
	MoveL Offs(p0,1.3,28.5,0), v10, z10, tool0;
	MoveL Offs(p0,1.3,28.5,20), v10, z10, tool0;

	MoveL Offs(p0,1.3333333333333333,28.466666666666665,20), v10, z10, tool0;
	MoveL Offs(p0,1.3333333333333333,28.466666666666665,0), v10, z10, tool0;
	MoveL Offs(p0,1.3333333333333333,28.466666666666665,20), v10, z10, tool0;

	MoveL Offs(p0,1.3333333333333333,28.7,20), v10, z10, tool0;
	MoveL Offs(p0,1.3333333333333333,28.7,0), v10, z10, tool0;
	MoveL Offs(p0,1.3333333333333333,28.7,20), v10, z10, tool0;

	MoveL Offs(p0,1.3666666666666667,24.366666666666667,20), v10, z10, tool0;
	MoveL Offs(p0,1.3666666666666667,24.366666666666667,0), v10, z10, tool0;
	MoveL Offs(p0,1.3666666666666667,24.366666666666667,20), v10, z10, tool0;

	MoveL Offs(p0,1.3666666666666667,27.366666666666667,20), v10, z10, tool0;
	MoveL Offs(p0,1.3666666666666667,27.366666666666667,0), v10, z10, tool0;
	MoveL Offs(p0,1.3666666666666667,27.366666666666667,20), v10, z10, tool0;

	MoveL Offs(p0,1.3666666666666667,27.7,20), v10, z10, tool0;
	MoveL Offs(p0,1.3666666666666667,27.7,0), v10, z10, tool0;
	MoveL Offs(p0,1.3666666666666667,27.7,20), v10, z10, tool0;

	MoveL Offs(p0,1.3666666666666667,28.5,20), v10, z10, tool0;
	MoveL Offs(p0,1.3666666666666667,28.5,0), v10, z10, tool0;
	MoveL Offs(p0,1.3666666666666667,28.5,20), v10, z10, tool0;

	MoveL Offs(p0,1.3666666666666667,28.533333333333335,20), v10, z10, tool0;
	MoveL Offs(p0,1.3666666666666667,28.533333333333335,0), v10, z10, tool0;
	MoveL Offs(p0,1.3666666666666667,28.533333333333335,20), v10, z10, tool0;

	MoveL Offs(p0,1.3666666666666667,29.066666666666666,20), v10, z10, tool0;
	MoveL Offs(p0,1.3666666666666667,29.066666666666666,0), v10, z10, tool0;
	MoveL Offs(p0,1.3666666666666667,29.066666666666666,20), v10, z10, tool0;

	MoveL Offs(p0,1.4,27.633333333333333,20), v10, z10, tool0;
	MoveL Offs(p0,1.4,27.633333333333333,0), v10, z10, tool0;
	MoveL Offs(p0,1.4,27.633333333333333,20), v10, z10, tool0;

	MoveL Offs(p0,1.4,28.6,20), v10, z10, tool0;
	MoveL Offs(p0,1.4,28.6,0), v10, z10, tool0;
	MoveL Offs(p0,1.4,28.6,20), v10, z10, tool0;

	MoveL Offs(p0,1.4333333333333333,24.333333333333332,20), v10, z10, tool0;
	MoveL Offs(p0,1.4333333333333333,24.333333333333332,0), v10, z10, tool0;
	MoveL Offs(p0,1.4333333333333333,24.333333333333332,20), v10, z10, tool0;

	MoveL Offs(p0,1.4333333333333333,27.666666666666668,20), v10, z10, tool0;
	MoveL Offs(p0,1.4333333333333333,27.666666666666668,0), v10, z10, tool0;
	MoveL Offs(p0,1.4333333333333333,27.666666666666668,20), v10, z10, tool0;

	MoveL Offs(p0,1.4333333333333333,28.566666666666666,20), v10, z10, tool0;
	MoveL Offs(p0,1.4333333333333333,28.566666666666666,0), v10, z10, tool0;
	MoveL Offs(p0,1.4333333333333333,28.566666666666666,20), v10, z10, tool0;

	MoveL Offs(p0,1.4333333333333333,28.8,20), v10, z10, tool0;
	MoveL Offs(p0,1.4333333333333333,28.8,0), v10, z10, tool0;
	MoveL Offs(p0,1.4333333333333333,28.8,20), v10, z10, tool0;

	MoveL Offs(p0,1.4666666666666666,24.3,20), v10, z10, tool0;
	MoveL Offs(p0,1.4666666666666666,24.3,0), v10, z10, tool0;
	MoveL Offs(p0,1.4666666666666666,24.3,20), v10, z10, tool0;

	MoveL Offs(p0,1.4666666666666666,27.6,20), v10, z10, tool0;
	MoveL Offs(p0,1.4666666666666666,27.6,0), v10, z10, tool0;
	MoveL Offs(p0,1.4666666666666666,27.6,20), v10, z10, tool0;

	MoveL Offs(p0,1.4666666666666666,27.633333333333333,20), v10, z10, tool0;
	MoveL Offs(p0,1.4666666666666666,27.633333333333333,0), v10, z10, tool0;
	MoveL Offs(p0,1.4666666666666666,27.633333333333333,20), v10, z10, tool0;

	MoveL Offs(p0,1.4666666666666666,29.166666666666668,20), v10, z10, tool0;
	MoveL Offs(p0,1.4666666666666666,29.166666666666668,0), v10, z10, tool0;
	MoveL Offs(p0,1.4666666666666666,29.166666666666668,20), v10, z10, tool0;

	MoveL Offs(p0,1.5,27.333333333333332,20), v10, z10, tool0;
	MoveL Offs(p0,1.5,27.333333333333332,0), v10, z10, tool0;
	MoveL Offs(p0,1.5,27.333333333333332,20), v10, z10, tool0;

	MoveL Offs(p0,1.5,28.633333333333333,20), v10, z10, tool0;
	MoveL Offs(p0,1.5,28.633333333333333,0), v10, z10, tool0;
	MoveL Offs(p0,1.5,28.633333333333333,20), v10, z10, tool0;

	MoveL Offs(p0,1.5,28.666666666666668,20), v10, z10, tool0;
	MoveL Offs(p0,1.5,28.666666666666668,0), v10, z10, tool0;
	MoveL Offs(p0,1.5,28.666666666666668,20), v10, z10, tool0;

	MoveL Offs(p0,1.5,28.866666666666667,20), v10, z10, tool0;
	MoveL Offs(p0,1.5,28.866666666666667,0), v10, z10, tool0;
	MoveL Offs(p0,1.5,28.866666666666667,20), v10, z10, tool0;

	MoveL Offs(p0,1.5333333333333334,27.566666666666666,20), v10, z10, tool0;
	MoveL Offs(p0,1.5333333333333334,27.566666666666666,0), v10, z10, tool0;
	MoveL Offs(p0,1.5333333333333334,27.566666666666666,20), v10, z10, tool0;

	MoveL Offs(p0,1.5333333333333334,28.7,20), v10, z10, tool0;
	MoveL Offs(p0,1.5333333333333334,28.7,0), v10, z10, tool0;
	MoveL Offs(p0,1.5333333333333334,28.7,20), v10, z10, tool0;

	MoveL Offs(p0,1.5333333333333334,28.9,20), v10, z10, tool0;
	MoveL Offs(p0,1.5333333333333334,28.9,0), v10, z10, tool0;
	MoveL Offs(p0,1.5333333333333334,28.9,20), v10, z10, tool0;

	MoveL Offs(p0,1.5333333333333334,29.166666666666668,20), v10, z10, tool0;
	MoveL Offs(p0,1.5333333333333334,29.166666666666668,0), v10, z10, tool0;
	MoveL Offs(p0,1.5333333333333334,29.166666666666668,20), v10, z10, tool0;

	MoveL Offs(p0,1.5333333333333334,29.2,20), v10, z10, tool0;
	MoveL Offs(p0,1.5333333333333334,29.2,0), v10, z10, tool0;
	MoveL Offs(p0,1.5333333333333334,29.2,20), v10, z10, tool0;

	MoveL Offs(p0,1.5666666666666667,24.266666666666666,20), v10, z10, tool0;
	MoveL Offs(p0,1.5666666666666667,24.266666666666666,0), v10, z10, tool0;
	MoveL Offs(p0,1.5666666666666667,24.266666666666666,20), v10, z10, tool0;

	MoveL Offs(p0,1.5666666666666667,27.3,20), v10, z10, tool0;
	MoveL Offs(p0,1.5666666666666667,27.3,0), v10, z10, tool0;
	MoveL Offs(p0,1.5666666666666667,27.3,20), v10, z10, tool0;

	MoveL Offs(p0,1.5666666666666667,28.666666666666668,20), v10, z10, tool0;
	MoveL Offs(p0,1.5666666666666667,28.666666666666668,0), v10, z10, tool0;
	MoveL Offs(p0,1.5666666666666667,28.666666666666668,20), v10, z10, tool0;

	MoveL Offs(p0,1.5666666666666667,29.266666666666666,20), v10, z10, tool0;
	MoveL Offs(p0,1.5666666666666667,29.266666666666666,0), v10, z10, tool0;
	MoveL Offs(p0,1.5666666666666667,29.266666666666666,20), v10, z10, tool0;

	MoveL Offs(p0,1.6,27.3,20), v10, z10, tool0;
	MoveL Offs(p0,1.6,27.3,0), v10, z10, tool0;
	MoveL Offs(p0,1.6,27.3,20), v10, z10, tool0;

	MoveL Offs(p0,1.6,27.533333333333335,20), v10, z10, tool0;
	MoveL Offs(p0,1.6,27.533333333333335,0), v10, z10, tool0;
	MoveL Offs(p0,1.6,27.533333333333335,20), v10, z10, tool0;

	MoveL Offs(p0,1.6,28.3,20), v10, z10, tool0;
	MoveL Offs(p0,1.6,28.3,0), v10, z10, tool0;
	MoveL Offs(p0,1.6,28.3,20), v10, z10, tool0;

	MoveL Offs(p0,1.6,28.7,20), v10, z10, tool0;
	MoveL Offs(p0,1.6,28.7,0), v10, z10, tool0;
	MoveL Offs(p0,1.6,28.7,20), v10, z10, tool0;

	MoveL Offs(p0,1.6,28.766666666666666,20), v10, z10, tool0;
	MoveL Offs(p0,1.6,28.766666666666666,0), v10, z10, tool0;
	MoveL Offs(p0,1.6,28.766666666666666,20), v10, z10, tool0;

	MoveL Offs(p0,1.6,29.266666666666666,20), v10, z10, tool0;
	MoveL Offs(p0,1.6,29.266666666666666,0), v10, z10, tool0;
	MoveL Offs(p0,1.6,29.266666666666666,20), v10, z10, tool0;

	MoveL Offs(p0,1.6333333333333333,27.3,20), v10, z10, tool0;
	MoveL Offs(p0,1.6333333333333333,27.3,0), v10, z10, tool0;
	MoveL Offs(p0,1.6333333333333333,27.3,20), v10, z10, tool0;

	MoveL Offs(p0,1.6333333333333333,27.566666666666666,20), v10, z10, tool0;
	MoveL Offs(p0,1.6333333333333333,27.566666666666666,0), v10, z10, tool0;
	MoveL Offs(p0,1.6333333333333333,27.566666666666666,20), v10, z10, tool0;

	MoveL Offs(p0,1.6333333333333333,28.266666666666666,20), v10, z10, tool0;
	MoveL Offs(p0,1.6333333333333333,28.266666666666666,0), v10, z10, tool0;
	MoveL Offs(p0,1.6333333333333333,28.266666666666666,20), v10, z10, tool0;

	MoveL Offs(p0,1.6333333333333333,28.3,20), v10, z10, tool0;
	MoveL Offs(p0,1.6333333333333333,28.3,0), v10, z10, tool0;
	MoveL Offs(p0,1.6333333333333333,28.3,20), v10, z10, tool0;

	MoveL Offs(p0,1.6333333333333333,28.933333333333334,20), v10, z10, tool0;
	MoveL Offs(p0,1.6333333333333333,28.933333333333334,0), v10, z10, tool0;
	MoveL Offs(p0,1.6333333333333333,28.933333333333334,20), v10, z10, tool0;

	MoveL Offs(p0,1.6333333333333333,29.233333333333334,20), v10, z10, tool0;
	MoveL Offs(p0,1.6333333333333333,29.233333333333334,0), v10, z10, tool0;
	MoveL Offs(p0,1.6333333333333333,29.233333333333334,20), v10, z10, tool0;

	MoveL Offs(p0,1.6333333333333333,29.3,20), v10, z10, tool0;
	MoveL Offs(p0,1.6333333333333333,29.3,0), v10, z10, tool0;
	MoveL Offs(p0,1.6333333333333333,29.3,20), v10, z10, tool0;

	MoveL Offs(p0,1.6666666666666667,27.5,20), v10, z10, tool0;
	MoveL Offs(p0,1.6666666666666667,27.5,0), v10, z10, tool0;
	MoveL Offs(p0,1.6666666666666667,27.5,20), v10, z10, tool0;

	MoveL Offs(p0,1.6666666666666667,28.8,20), v10, z10, tool0;
	MoveL Offs(p0,1.6666666666666667,28.8,0), v10, z10, tool0;
	MoveL Offs(p0,1.6666666666666667,28.8,20), v10, z10, tool0;

	MoveL Offs(p0,1.6666666666666667,28.933333333333334,20), v10, z10, tool0;
	MoveL Offs(p0,1.6666666666666667,28.933333333333334,0), v10, z10, tool0;
	MoveL Offs(p0,1.6666666666666667,28.933333333333334,20), v10, z10, tool0;

	MoveL Offs(p0,1.6666666666666667,29.266666666666666,20), v10, z10, tool0;
	MoveL Offs(p0,1.6666666666666667,29.266666666666666,0), v10, z10, tool0;
	MoveL Offs(p0,1.6666666666666667,29.266666666666666,20), v10, z10, tool0;

	MoveL Offs(p0,1.6666666666666667,29.333333333333332,20), v10, z10, tool0;
	MoveL Offs(p0,1.6666666666666667,29.333333333333332,0), v10, z10, tool0;
	MoveL Offs(p0,1.6666666666666667,29.333333333333332,20), v10, z10, tool0;

	MoveL Offs(p0,1.7,27.266666666666666,20), v10, z10, tool0;
	MoveL Offs(p0,1.7,27.266666666666666,0), v10, z10, tool0;
	MoveL Offs(p0,1.7,27.266666666666666,20), v10, z10, tool0;

	MoveL Offs(p0,1.7,28.066666666666666,20), v10, z10, tool0;
	MoveL Offs(p0,1.7,28.066666666666666,0), v10, z10, tool0;
	MoveL Offs(p0,1.7,28.066666666666666,20), v10, z10, tool0;

	MoveL Offs(p0,1.7,28.833333333333332,20), v10, z10, tool0;
	MoveL Offs(p0,1.7,28.833333333333332,0), v10, z10, tool0;
	MoveL Offs(p0,1.7,28.833333333333332,20), v10, z10, tool0;

	MoveL Offs(p0,1.7,29.266666666666666,20), v10, z10, tool0;
	MoveL Offs(p0,1.7,29.266666666666666,0), v10, z10, tool0;
	MoveL Offs(p0,1.7,29.266666666666666,20), v10, z10, tool0;

	MoveL Offs(p0,1.7333333333333334,24.133333333333333,20), v10, z10, tool0;
	MoveL Offs(p0,1.7333333333333334,24.133333333333333,0), v10, z10, tool0;
	MoveL Offs(p0,1.7333333333333334,24.133333333333333,20), v10, z10, tool0;

	MoveL Offs(p0,1.7333333333333334,28.066666666666666,20), v10, z10, tool0;
	MoveL Offs(p0,1.7333333333333334,28.066666666666666,0), v10, z10, tool0;
	MoveL Offs(p0,1.7333333333333334,28.066666666666666,20), v10, z10, tool0;

	MoveL Offs(p0,1.7333333333333334,29.3,20), v10, z10, tool0;
	MoveL Offs(p0,1.7333333333333334,29.3,0), v10, z10, tool0;
	MoveL Offs(p0,1.7333333333333334,29.3,20), v10, z10, tool0;

	MoveL Offs(p0,1.7666666666666666,24.133333333333333,20), v10, z10, tool0;
	MoveL Offs(p0,1.7666666666666666,24.133333333333333,0), v10, z10, tool0;
	MoveL Offs(p0,1.7666666666666666,24.133333333333333,20), v10, z10, tool0;

	MoveL Offs(p0,1.7666666666666666,28.2,20), v10, z10, tool0;
	MoveL Offs(p0,1.7666666666666666,28.2,0), v10, z10, tool0;
	MoveL Offs(p0,1.7666666666666666,28.2,20), v10, z10, tool0;

	MoveL Offs(p0,1.7666666666666666,28.466666666666665,20), v10, z10, tool0;
	MoveL Offs(p0,1.7666666666666666,28.466666666666665,0), v10, z10, tool0;
	MoveL Offs(p0,1.7666666666666666,28.466666666666665,20), v10, z10, tool0;

	MoveL Offs(p0,1.7666666666666666,28.833333333333332,20), v10, z10, tool0;
	MoveL Offs(p0,1.7666666666666666,28.833333333333332,0), v10, z10, tool0;
	MoveL Offs(p0,1.7666666666666666,28.833333333333332,20), v10, z10, tool0;

	MoveL Offs(p0,1.7666666666666666,29.333333333333332,20), v10, z10, tool0;
	MoveL Offs(p0,1.7666666666666666,29.333333333333332,0), v10, z10, tool0;
	MoveL Offs(p0,1.7666666666666666,29.333333333333332,20), v10, z10, tool0;

	MoveL Offs(p0,1.8,24.133333333333333,20), v10, z10, tool0;
	MoveL Offs(p0,1.8,24.133333333333333,0), v10, z10, tool0;
	MoveL Offs(p0,1.8,24.133333333333333,20), v10, z10, tool0;

	MoveL Offs(p0,1.8,27.466666666666665,20), v10, z10, tool0;
	MoveL Offs(p0,1.8,27.466666666666665,0), v10, z10, tool0;
	MoveL Offs(p0,1.8,27.466666666666665,20), v10, z10, tool0;

	MoveL Offs(p0,1.8,28.5,20), v10, z10, tool0;
	MoveL Offs(p0,1.8,28.5,0), v10, z10, tool0;
	MoveL Offs(p0,1.8,28.5,20), v10, z10, tool0;

	MoveL Offs(p0,1.8,29.0,20), v10, z10, tool0;
	MoveL Offs(p0,1.8,29.0,0), v10, z10, tool0;
	MoveL Offs(p0,1.8,29.0,20), v10, z10, tool0;

	MoveL Offs(p0,1.8,29.3,20), v10, z10, tool0;
	MoveL Offs(p0,1.8,29.3,0), v10, z10, tool0;
	MoveL Offs(p0,1.8,29.3,20), v10, z10, tool0;

	MoveL Offs(p0,1.8,29.333333333333332,20), v10, z10, tool0;
	MoveL Offs(p0,1.8,29.333333333333332,0), v10, z10, tool0;
	MoveL Offs(p0,1.8,29.333333333333332,20), v10, z10, tool0;

	MoveL Offs(p0,1.8333333333333333,24.1,20), v10, z10, tool0;
	MoveL Offs(p0,1.8333333333333333,24.1,0), v10, z10, tool0;
	MoveL Offs(p0,1.8333333333333333,24.1,20), v10, z10, tool0;

	MoveL Offs(p0,1.8333333333333333,27.5,20), v10, z10, tool0;
	MoveL Offs(p0,1.8333333333333333,27.5,0), v10, z10, tool0;
	MoveL Offs(p0,1.8333333333333333,27.5,20), v10, z10, tool0;

	MoveL Offs(p0,1.8333333333333333,28.266666666666666,20), v10, z10, tool0;
	MoveL Offs(p0,1.8333333333333333,28.266666666666666,0), v10, z10, tool0;
	MoveL Offs(p0,1.8333333333333333,28.266666666666666,20), v10, z10, tool0;

	MoveL Offs(p0,1.8333333333333333,28.333333333333332,20), v10, z10, tool0;
	MoveL Offs(p0,1.8333333333333333,28.333333333333332,0), v10, z10, tool0;
	MoveL Offs(p0,1.8333333333333333,28.333333333333332,20), v10, z10, tool0;

	MoveL Offs(p0,1.8333333333333333,28.866666666666667,20), v10, z10, tool0;
	MoveL Offs(p0,1.8333333333333333,28.866666666666667,0), v10, z10, tool0;
	MoveL Offs(p0,1.8333333333333333,28.866666666666667,20), v10, z10, tool0;

	MoveL Offs(p0,1.8333333333333333,29.066666666666666,20), v10, z10, tool0;
	MoveL Offs(p0,1.8333333333333333,29.066666666666666,0), v10, z10, tool0;
	MoveL Offs(p0,1.8333333333333333,29.066666666666666,20), v10, z10, tool0;

	MoveL Offs(p0,1.8666666666666667,28.933333333333334,20), v10, z10, tool0;
	MoveL Offs(p0,1.8666666666666667,28.933333333333334,0), v10, z10, tool0;
	MoveL Offs(p0,1.8666666666666667,28.933333333333334,20), v10, z10, tool0;

	MoveL Offs(p0,1.8666666666666667,29.366666666666667,20), v10, z10, tool0;
	MoveL Offs(p0,1.8666666666666667,29.366666666666667,0), v10, z10, tool0;
	MoveL Offs(p0,1.8666666666666667,29.366666666666667,20), v10, z10, tool0;

	MoveL Offs(p0,1.9,27.433333333333334,20), v10, z10, tool0;
	MoveL Offs(p0,1.9,27.433333333333334,0), v10, z10, tool0;
	MoveL Offs(p0,1.9,27.433333333333334,20), v10, z10, tool0;

	MoveL Offs(p0,1.9,27.8,20), v10, z10, tool0;
	MoveL Offs(p0,1.9,27.8,0), v10, z10, tool0;
	MoveL Offs(p0,1.9,27.8,20), v10, z10, tool0;

	MoveL Offs(p0,1.9,28.4,20), v10, z10, tool0;
	MoveL Offs(p0,1.9,28.4,0), v10, z10, tool0;
	MoveL Offs(p0,1.9,28.4,20), v10, z10, tool0;

	MoveL Offs(p0,1.9,28.933333333333334,20), v10, z10, tool0;
	MoveL Offs(p0,1.9,28.933333333333334,0), v10, z10, tool0;
	MoveL Offs(p0,1.9,28.933333333333334,20), v10, z10, tool0;

	MoveL Offs(p0,1.9,29.066666666666666,20), v10, z10, tool0;
	MoveL Offs(p0,1.9,29.066666666666666,0), v10, z10, tool0;
	MoveL Offs(p0,1.9,29.066666666666666,20), v10, z10, tool0;

	MoveL Offs(p0,1.9,29.366666666666667,20), v10, z10, tool0;
	MoveL Offs(p0,1.9,29.366666666666667,0), v10, z10, tool0;
	MoveL Offs(p0,1.9,29.366666666666667,20), v10, z10, tool0;

	MoveL Offs(p0,1.9333333333333333,24.066666666666666,20), v10, z10, tool0;
	MoveL Offs(p0,1.9333333333333333,24.066666666666666,0), v10, z10, tool0;
	MoveL Offs(p0,1.9333333333333333,24.066666666666666,20), v10, z10, tool0;

	MoveL Offs(p0,1.9333333333333333,27.233333333333334,20), v10, z10, tool0;
	MoveL Offs(p0,1.9333333333333333,27.233333333333334,0), v10, z10, tool0;
	MoveL Offs(p0,1.9333333333333333,27.233333333333334,20), v10, z10, tool0;

	MoveL Offs(p0,1.9333333333333333,27.433333333333334,20), v10, z10, tool0;
	MoveL Offs(p0,1.9333333333333333,27.433333333333334,0), v10, z10, tool0;
	MoveL Offs(p0,1.9333333333333333,27.433333333333334,20), v10, z10, tool0;

	MoveL Offs(p0,1.9333333333333333,27.466666666666665,20), v10, z10, tool0;
	MoveL Offs(p0,1.9333333333333333,27.466666666666665,0), v10, z10, tool0;
	MoveL Offs(p0,1.9333333333333333,27.466666666666665,20), v10, z10, tool0;

	MoveL Offs(p0,1.9666666666666666,27.733333333333334,20), v10, z10, tool0;
	MoveL Offs(p0,1.9666666666666666,27.733333333333334,0), v10, z10, tool0;
	MoveL Offs(p0,1.9666666666666666,27.733333333333334,20), v10, z10, tool0;

	MoveL Offs(p0,1.9666666666666666,27.8,20), v10, z10, tool0;
	MoveL Offs(p0,1.9666666666666666,27.8,0), v10, z10, tool0;
	MoveL Offs(p0,1.9666666666666666,27.8,20), v10, z10, tool0;

	MoveL Offs(p0,1.9666666666666666,29.4,20), v10, z10, tool0;
	MoveL Offs(p0,1.9666666666666666,29.4,0), v10, z10, tool0;
	MoveL Offs(p0,1.9666666666666666,29.4,20), v10, z10, tool0;

	MoveL Offs(p0,2.0,24.033333333333335,20), v10, z10, tool0;
	MoveL Offs(p0,2.0,24.033333333333335,0), v10, z10, tool0;
	MoveL Offs(p0,2.0,24.033333333333335,20), v10, z10, tool0;

	MoveL Offs(p0,2.0,27.2,20), v10, z10, tool0;
	MoveL Offs(p0,2.0,27.2,0), v10, z10, tool0;
	MoveL Offs(p0,2.0,27.2,20), v10, z10, tool0;

	MoveL Offs(p0,2.0,27.766666666666666,20), v10, z10, tool0;
	MoveL Offs(p0,2.0,27.766666666666666,0), v10, z10, tool0;
	MoveL Offs(p0,2.0,27.766666666666666,20), v10, z10, tool0;

	MoveL Offs(p0,2.0,28.466666666666665,20), v10, z10, tool0;
	MoveL Offs(p0,2.0,28.466666666666665,0), v10, z10, tool0;
	MoveL Offs(p0,2.0,28.466666666666665,20), v10, z10, tool0;

	MoveL Offs(p0,2.0,28.966666666666665,20), v10, z10, tool0;
	MoveL Offs(p0,2.0,28.966666666666665,0), v10, z10, tool0;
	MoveL Offs(p0,2.0,28.966666666666665,20), v10, z10, tool0;

	MoveL Offs(p0,2.0,29.1,20), v10, z10, tool0;
	MoveL Offs(p0,2.0,29.1,0), v10, z10, tool0;
	MoveL Offs(p0,2.0,29.1,20), v10, z10, tool0;

	MoveL Offs(p0,2.0,29.4,20), v10, z10, tool0;
	MoveL Offs(p0,2.0,29.4,0), v10, z10, tool0;
	MoveL Offs(p0,2.0,29.4,20), v10, z10, tool0;

	MoveL Offs(p0,2.033333333333333,27.4,20), v10, z10, tool0;
	MoveL Offs(p0,2.033333333333333,27.4,0), v10, z10, tool0;
	MoveL Offs(p0,2.033333333333333,27.4,20), v10, z10, tool0;

	MoveL Offs(p0,2.033333333333333,28.7,20), v10, z10, tool0;
	MoveL Offs(p0,2.033333333333333,28.7,0), v10, z10, tool0;
	MoveL Offs(p0,2.033333333333333,28.7,20), v10, z10, tool0;

	MoveL Offs(p0,2.033333333333333,28.966666666666665,20), v10, z10, tool0;
	MoveL Offs(p0,2.033333333333333,28.966666666666665,0), v10, z10, tool0;
	MoveL Offs(p0,2.033333333333333,28.966666666666665,20), v10, z10, tool0;

	MoveL Offs(p0,2.033333333333333,29.433333333333334,20), v10, z10, tool0;
	MoveL Offs(p0,2.033333333333333,29.433333333333334,0), v10, z10, tool0;
	MoveL Offs(p0,2.033333333333333,29.433333333333334,20), v10, z10, tool0;

	MoveL Offs(p0,2.066666666666667,27.7,20), v10, z10, tool0;
	MoveL Offs(p0,2.066666666666667,27.7,0), v10, z10, tool0;
	MoveL Offs(p0,2.066666666666667,27.7,20), v10, z10, tool0;

	MoveL Offs(p0,2.066666666666667,28.533333333333335,20), v10, z10, tool0;
	MoveL Offs(p0,2.066666666666667,28.533333333333335,0), v10, z10, tool0;
	MoveL Offs(p0,2.066666666666667,28.533333333333335,20), v10, z10, tool0;

	MoveL Offs(p0,2.066666666666667,28.566666666666666,20), v10, z10, tool0;
	MoveL Offs(p0,2.066666666666667,28.566666666666666,0), v10, z10, tool0;
	MoveL Offs(p0,2.066666666666667,28.566666666666666,20), v10, z10, tool0;

	MoveL Offs(p0,2.066666666666667,28.766666666666666,20), v10, z10, tool0;
	MoveL Offs(p0,2.066666666666667,28.766666666666666,0), v10, z10, tool0;
	MoveL Offs(p0,2.066666666666667,28.766666666666666,20), v10, z10, tool0;

	MoveL Offs(p0,2.066666666666667,29.033333333333335,20), v10, z10, tool0;
	MoveL Offs(p0,2.066666666666667,29.033333333333335,0), v10, z10, tool0;
	MoveL Offs(p0,2.066666666666667,29.033333333333335,20), v10, z10, tool0;

	MoveL Offs(p0,2.066666666666667,29.166666666666668,20), v10, z10, tool0;
	MoveL Offs(p0,2.066666666666667,29.166666666666668,0), v10, z10, tool0;
	MoveL Offs(p0,2.066666666666667,29.166666666666668,20), v10, z10, tool0;

	MoveL Offs(p0,2.066666666666667,29.4,20), v10, z10, tool0;
	MoveL Offs(p0,2.066666666666667,29.4,0), v10, z10, tool0;
	MoveL Offs(p0,2.066666666666667,29.4,20), v10, z10, tool0;

	MoveL Offs(p0,2.066666666666667,29.466666666666665,20), v10, z10, tool0;
	MoveL Offs(p0,2.066666666666667,29.466666666666665,0), v10, z10, tool0;
	MoveL Offs(p0,2.066666666666667,29.466666666666665,20), v10, z10, tool0;

	MoveL Offs(p0,2.1,28.0,20), v10, z10, tool0;
	MoveL Offs(p0,2.1,28.0,0), v10, z10, tool0;
	MoveL Offs(p0,2.1,28.0,20), v10, z10, tool0;

	MoveL Offs(p0,2.1,29.466666666666665,20), v10, z10, tool0;
	MoveL Offs(p0,2.1,29.466666666666665,0), v10, z10, tool0;
	MoveL Offs(p0,2.1,29.466666666666665,20), v10, z10, tool0;

	MoveL Offs(p0,2.1333333333333333,27.433333333333334,20), v10, z10, tool0;
	MoveL Offs(p0,2.1333333333333333,27.433333333333334,0), v10, z10, tool0;
	MoveL Offs(p0,2.1333333333333333,27.433333333333334,20), v10, z10, tool0;

	MoveL Offs(p0,2.1333333333333333,27.7,20), v10, z10, tool0;
	MoveL Offs(p0,2.1333333333333333,27.7,0), v10, z10, tool0;
	MoveL Offs(p0,2.1333333333333333,27.7,20), v10, z10, tool0;

	MoveL Offs(p0,2.1333333333333333,28.6,20), v10, z10, tool0;
	MoveL Offs(p0,2.1333333333333333,28.6,0), v10, z10, tool0;
	MoveL Offs(p0,2.1333333333333333,28.6,20), v10, z10, tool0;

	MoveL Offs(p0,2.1333333333333333,29.033333333333335,20), v10, z10, tool0;
	MoveL Offs(p0,2.1333333333333333,29.033333333333335,0), v10, z10, tool0;
	MoveL Offs(p0,2.1333333333333333,29.033333333333335,20), v10, z10, tool0;

	MoveL Offs(p0,2.1333333333333333,29.066666666666666,20), v10, z10, tool0;
	MoveL Offs(p0,2.1333333333333333,29.066666666666666,0), v10, z10, tool0;
	MoveL Offs(p0,2.1333333333333333,29.066666666666666,20), v10, z10, tool0;

	MoveL Offs(p0,2.1333333333333333,29.2,20), v10, z10, tool0;
	MoveL Offs(p0,2.1333333333333333,29.2,0), v10, z10, tool0;
	MoveL Offs(p0,2.1333333333333333,29.2,20), v10, z10, tool0;

	MoveL Offs(p0,2.1666666666666665,27.4,20), v10, z10, tool0;
	MoveL Offs(p0,2.1666666666666665,27.4,0), v10, z10, tool0;
	MoveL Offs(p0,2.1666666666666665,27.4,20), v10, z10, tool0;

	MoveL Offs(p0,2.1666666666666665,27.666666666666668,20), v10, z10, tool0;
	MoveL Offs(p0,2.1666666666666665,27.666666666666668,0), v10, z10, tool0;
	MoveL Offs(p0,2.1666666666666665,27.666666666666668,20), v10, z10, tool0;

	MoveL Offs(p0,2.1666666666666665,28.566666666666666,20), v10, z10, tool0;
	MoveL Offs(p0,2.1666666666666665,28.566666666666666,0), v10, z10, tool0;
	MoveL Offs(p0,2.1666666666666665,28.566666666666666,20), v10, z10, tool0;

	MoveL Offs(p0,2.1666666666666665,29.2,20), v10, z10, tool0;
	MoveL Offs(p0,2.1666666666666665,29.2,0), v10, z10, tool0;
	MoveL Offs(p0,2.1666666666666665,29.2,20), v10, z10, tool0;

	MoveL Offs(p0,2.1666666666666665,29.433333333333334,20), v10, z10, tool0;
	MoveL Offs(p0,2.1666666666666665,29.433333333333334,0), v10, z10, tool0;
	MoveL Offs(p0,2.1666666666666665,29.433333333333334,20), v10, z10, tool0;

	MoveL Offs(p0,2.2,27.4,20), v10, z10, tool0;
	MoveL Offs(p0,2.2,27.4,0), v10, z10, tool0;
	MoveL Offs(p0,2.2,27.4,20), v10, z10, tool0;

	MoveL Offs(p0,2.2,27.633333333333333,20), v10, z10, tool0;
	MoveL Offs(p0,2.2,27.633333333333333,0), v10, z10, tool0;
	MoveL Offs(p0,2.2,27.633333333333333,20), v10, z10, tool0;

	MoveL Offs(p0,2.2,28.1,20), v10, z10, tool0;
	MoveL Offs(p0,2.2,28.1,0), v10, z10, tool0;
	MoveL Offs(p0,2.2,28.1,20), v10, z10, tool0;

	MoveL Offs(p0,2.2,28.6,20), v10, z10, tool0;
	MoveL Offs(p0,2.2,28.6,0), v10, z10, tool0;
	MoveL Offs(p0,2.2,28.6,20), v10, z10, tool0;

	MoveL Offs(p0,2.2,29.5,20), v10, z10, tool0;
	MoveL Offs(p0,2.2,29.5,0), v10, z10, tool0;
	MoveL Offs(p0,2.2,29.5,20), v10, z10, tool0;

	MoveL Offs(p0,2.2333333333333334,27.166666666666668,20), v10, z10, tool0;
	MoveL Offs(p0,2.2333333333333334,27.166666666666668,0), v10, z10, tool0;
	MoveL Offs(p0,2.2333333333333334,27.166666666666668,20), v10, z10, tool0;

	MoveL Offs(p0,2.2333333333333334,28.666666666666668,20), v10, z10, tool0;
	MoveL Offs(p0,2.2333333333333334,28.666666666666668,0), v10, z10, tool0;
	MoveL Offs(p0,2.2333333333333334,28.666666666666668,20), v10, z10, tool0;

	MoveL Offs(p0,2.2333333333333334,29.233333333333334,20), v10, z10, tool0;
	MoveL Offs(p0,2.2333333333333334,29.233333333333334,0), v10, z10, tool0;
	MoveL Offs(p0,2.2333333333333334,29.233333333333334,20), v10, z10, tool0;

	MoveL Offs(p0,2.2333333333333334,29.5,20), v10, z10, tool0;
	MoveL Offs(p0,2.2333333333333334,29.5,0), v10, z10, tool0;
	MoveL Offs(p0,2.2333333333333334,29.5,20), v10, z10, tool0;

	MoveL Offs(p0,2.2666666666666666,27.166666666666668,20), v10, z10, tool0;
	MoveL Offs(p0,2.2666666666666666,27.166666666666668,0), v10, z10, tool0;
	MoveL Offs(p0,2.2666666666666666,27.166666666666668,20), v10, z10, tool0;

	MoveL Offs(p0,2.2666666666666666,27.633333333333333,20), v10, z10, tool0;
	MoveL Offs(p0,2.2666666666666666,27.633333333333333,0), v10, z10, tool0;
	MoveL Offs(p0,2.2666666666666666,27.633333333333333,20), v10, z10, tool0;

	MoveL Offs(p0,2.2666666666666666,29.1,20), v10, z10, tool0;
	MoveL Offs(p0,2.2666666666666666,29.1,0), v10, z10, tool0;
	MoveL Offs(p0,2.2666666666666666,29.1,20), v10, z10, tool0;

	MoveL Offs(p0,2.2666666666666666,29.5,20), v10, z10, tool0;
	MoveL Offs(p0,2.2666666666666666,29.5,0), v10, z10, tool0;
	MoveL Offs(p0,2.2666666666666666,29.5,20), v10, z10, tool0;

	MoveL Offs(p0,2.3,27.366666666666667,20), v10, z10, tool0;
	MoveL Offs(p0,2.3,27.366666666666667,0), v10, z10, tool0;
	MoveL Offs(p0,2.3,27.366666666666667,20), v10, z10, tool0;

	MoveL Offs(p0,2.3,28.166666666666668,20), v10, z10, tool0;
	MoveL Offs(p0,2.3,28.166666666666668,0), v10, z10, tool0;
	MoveL Offs(p0,2.3,28.166666666666668,20), v10, z10, tool0;

	MoveL Offs(p0,2.3,28.7,20), v10, z10, tool0;
	MoveL Offs(p0,2.3,28.7,0), v10, z10, tool0;
	MoveL Offs(p0,2.3,28.7,20), v10, z10, tool0;

	MoveL Offs(p0,2.3,29.1,20), v10, z10, tool0;
	MoveL Offs(p0,2.3,29.1,0), v10, z10, tool0;
	MoveL Offs(p0,2.3,29.1,20), v10, z10, tool0;

	MoveL Offs(p0,2.3,29.233333333333334,20), v10, z10, tool0;
	MoveL Offs(p0,2.3,29.233333333333334,0), v10, z10, tool0;
	MoveL Offs(p0,2.3,29.233333333333334,20), v10, z10, tool0;

	MoveL Offs(p0,2.3,29.266666666666666,20), v10, z10, tool0;
	MoveL Offs(p0,2.3,29.266666666666666,0), v10, z10, tool0;
	MoveL Offs(p0,2.3,29.266666666666666,20), v10, z10, tool0;

	MoveL Offs(p0,2.3333333333333335,18.233333333333334,20), v10, z10, tool0;
	MoveL Offs(p0,2.3333333333333335,18.233333333333334,0), v10, z10, tool0;
	MoveL Offs(p0,2.3333333333333335,18.233333333333334,20), v10, z10, tool0;

	MoveL Offs(p0,2.3333333333333335,18.666666666666668,20), v10, z10, tool0;
	MoveL Offs(p0,2.3333333333333335,18.666666666666668,0), v10, z10, tool0;
	MoveL Offs(p0,2.3333333333333335,18.666666666666668,20), v10, z10, tool0;

	MoveL Offs(p0,2.3333333333333335,27.366666666666667,20), v10, z10, tool0;
	MoveL Offs(p0,2.3333333333333335,27.366666666666667,0), v10, z10, tool0;
	MoveL Offs(p0,2.3333333333333335,27.366666666666667,20), v10, z10, tool0;

	MoveL Offs(p0,2.3333333333333335,27.6,20), v10, z10, tool0;
	MoveL Offs(p0,2.3333333333333335,27.6,0), v10, z10, tool0;
	MoveL Offs(p0,2.3333333333333335,27.6,20), v10, z10, tool0;

	MoveL Offs(p0,2.3333333333333335,27.866666666666667,20), v10, z10, tool0;
	MoveL Offs(p0,2.3333333333333335,27.866666666666667,0), v10, z10, tool0;
	MoveL Offs(p0,2.3333333333333335,27.866666666666667,20), v10, z10, tool0;

	MoveL Offs(p0,2.3333333333333335,28.7,20), v10, z10, tool0;
	MoveL Offs(p0,2.3333333333333335,28.7,0), v10, z10, tool0;
	MoveL Offs(p0,2.3333333333333335,28.7,20), v10, z10, tool0;

	MoveL Offs(p0,2.3333333333333335,29.166666666666668,20), v10, z10, tool0;
	MoveL Offs(p0,2.3333333333333335,29.166666666666668,0), v10, z10, tool0;
	MoveL Offs(p0,2.3333333333333335,29.166666666666668,20), v10, z10, tool0;

	MoveL Offs(p0,2.3333333333333335,29.5,20), v10, z10, tool0;
	MoveL Offs(p0,2.3333333333333335,29.5,0), v10, z10, tool0;
	MoveL Offs(p0,2.3333333333333335,29.5,20), v10, z10, tool0;

	MoveL Offs(p0,2.3333333333333335,29.566666666666666,20), v10, z10, tool0;
	MoveL Offs(p0,2.3333333333333335,29.566666666666666,0), v10, z10, tool0;
	MoveL Offs(p0,2.3333333333333335,29.566666666666666,20), v10, z10, tool0;

	MoveL Offs(p0,2.3666666666666667,18.066666666666666,20), v10, z10, tool0;
	MoveL Offs(p0,2.3666666666666667,18.066666666666666,0), v10, z10, tool0;
	MoveL Offs(p0,2.3666666666666667,18.066666666666666,20), v10, z10, tool0;

	MoveL Offs(p0,2.3666666666666667,18.4,20), v10, z10, tool0;
	MoveL Offs(p0,2.3666666666666667,18.4,0), v10, z10, tool0;
	MoveL Offs(p0,2.3666666666666667,18.4,20), v10, z10, tool0;

	MoveL Offs(p0,2.3666666666666667,18.433333333333334,20), v10, z10, tool0;
	MoveL Offs(p0,2.3666666666666667,18.433333333333334,0), v10, z10, tool0;
	MoveL Offs(p0,2.3666666666666667,18.433333333333334,20), v10, z10, tool0;

	MoveL Offs(p0,2.3666666666666667,18.466666666666665,20), v10, z10, tool0;
	MoveL Offs(p0,2.3666666666666667,18.466666666666665,0), v10, z10, tool0;
	MoveL Offs(p0,2.3666666666666667,18.466666666666665,20), v10, z10, tool0;

	MoveL Offs(p0,2.3666666666666667,18.5,20), v10, z10, tool0;
	MoveL Offs(p0,2.3666666666666667,18.5,0), v10, z10, tool0;
	MoveL Offs(p0,2.3666666666666667,18.5,20), v10, z10, tool0;

	MoveL Offs(p0,2.3666666666666667,18.533333333333335,20), v10, z10, tool0;
	MoveL Offs(p0,2.3666666666666667,18.533333333333335,0), v10, z10, tool0;
	MoveL Offs(p0,2.3666666666666667,18.533333333333335,20), v10, z10, tool0;

	MoveL Offs(p0,2.3666666666666667,18.766666666666666,20), v10, z10, tool0;
	MoveL Offs(p0,2.3666666666666667,18.766666666666666,0), v10, z10, tool0;
	MoveL Offs(p0,2.3666666666666667,18.766666666666666,20), v10, z10, tool0;

	MoveL Offs(p0,2.3666666666666667,18.8,20), v10, z10, tool0;
	MoveL Offs(p0,2.3666666666666667,18.8,0), v10, z10, tool0;
	MoveL Offs(p0,2.3666666666666667,18.8,20), v10, z10, tool0;

	MoveL Offs(p0,2.3666666666666667,18.833333333333332,20), v10, z10, tool0;
	MoveL Offs(p0,2.3666666666666667,18.833333333333332,0), v10, z10, tool0;
	MoveL Offs(p0,2.3666666666666667,18.833333333333332,20), v10, z10, tool0;

	MoveL Offs(p0,2.3666666666666667,27.366666666666667,20), v10, z10, tool0;
	MoveL Offs(p0,2.3666666666666667,27.366666666666667,0), v10, z10, tool0;
	MoveL Offs(p0,2.3666666666666667,27.366666666666667,20), v10, z10, tool0;

	MoveL Offs(p0,2.3666666666666667,29.266666666666666,20), v10, z10, tool0;
	MoveL Offs(p0,2.3666666666666667,29.266666666666666,0), v10, z10, tool0;
	MoveL Offs(p0,2.3666666666666667,29.266666666666666,20), v10, z10, tool0;

	MoveL Offs(p0,2.4,17.933333333333334,20), v10, z10, tool0;
	MoveL Offs(p0,2.4,17.933333333333334,0), v10, z10, tool0;
	MoveL Offs(p0,2.4,17.933333333333334,20), v10, z10, tool0;

	MoveL Offs(p0,2.4,18.066666666666666,20), v10, z10, tool0;
	MoveL Offs(p0,2.4,18.066666666666666,0), v10, z10, tool0;
	MoveL Offs(p0,2.4,18.066666666666666,20), v10, z10, tool0;

	MoveL Offs(p0,2.4,18.133333333333333,20), v10, z10, tool0;
	MoveL Offs(p0,2.4,18.133333333333333,0), v10, z10, tool0;
	MoveL Offs(p0,2.4,18.133333333333333,20), v10, z10, tool0;

	MoveL Offs(p0,2.4,18.666666666666668,20), v10, z10, tool0;
	MoveL Offs(p0,2.4,18.666666666666668,0), v10, z10, tool0;
	MoveL Offs(p0,2.4,18.666666666666668,20), v10, z10, tool0;

	MoveL Offs(p0,2.4,18.7,20), v10, z10, tool0;
	MoveL Offs(p0,2.4,18.7,0), v10, z10, tool0;
	MoveL Offs(p0,2.4,18.7,20), v10, z10, tool0;

	MoveL Offs(p0,2.4,18.733333333333334,20), v10, z10, tool0;
	MoveL Offs(p0,2.4,18.733333333333334,0), v10, z10, tool0;
	MoveL Offs(p0,2.4,18.733333333333334,20), v10, z10, tool0;

	MoveL Offs(p0,2.4,18.9,20), v10, z10, tool0;
	MoveL Offs(p0,2.4,18.9,0), v10, z10, tool0;
	MoveL Offs(p0,2.4,18.9,20), v10, z10, tool0;

	MoveL Offs(p0,2.4,19.066666666666666,20), v10, z10, tool0;
	MoveL Offs(p0,2.4,19.066666666666666,0), v10, z10, tool0;
	MoveL Offs(p0,2.4,19.066666666666666,20), v10, z10, tool0;

	MoveL Offs(p0,2.4,27.366666666666667,20), v10, z10, tool0;
	MoveL Offs(p0,2.4,27.366666666666667,0), v10, z10, tool0;
	MoveL Offs(p0,2.4,27.366666666666667,20), v10, z10, tool0;

	MoveL Offs(p0,2.4,27.566666666666666,20), v10, z10, tool0;
	MoveL Offs(p0,2.4,27.566666666666666,0), v10, z10, tool0;
	MoveL Offs(p0,2.4,27.566666666666666,20), v10, z10, tool0;

	MoveL Offs(p0,2.4,29.2,20), v10, z10, tool0;
	MoveL Offs(p0,2.4,29.2,0), v10, z10, tool0;
	MoveL Offs(p0,2.4,29.2,20), v10, z10, tool0;

	MoveL Offs(p0,2.4,29.566666666666666,20), v10, z10, tool0;
	MoveL Offs(p0,2.4,29.566666666666666,0), v10, z10, tool0;
	MoveL Offs(p0,2.4,29.566666666666666,20), v10, z10, tool0;

	MoveL Offs(p0,2.433333333333333,17.8,20), v10, z10, tool0;
	MoveL Offs(p0,2.433333333333333,17.8,0), v10, z10, tool0;
	MoveL Offs(p0,2.433333333333333,17.8,20), v10, z10, tool0;

	MoveL Offs(p0,2.433333333333333,17.833333333333332,20), v10, z10, tool0;
	MoveL Offs(p0,2.433333333333333,17.833333333333332,0), v10, z10, tool0;
	MoveL Offs(p0,2.433333333333333,17.833333333333332,20), v10, z10, tool0;

	MoveL Offs(p0,2.433333333333333,17.866666666666667,20), v10, z10, tool0;
	MoveL Offs(p0,2.433333333333333,17.866666666666667,0), v10, z10, tool0;
	MoveL Offs(p0,2.433333333333333,17.866666666666667,20), v10, z10, tool0;

	MoveL Offs(p0,2.433333333333333,18.033333333333335,20), v10, z10, tool0;
	MoveL Offs(p0,2.433333333333333,18.033333333333335,0), v10, z10, tool0;
	MoveL Offs(p0,2.433333333333333,18.033333333333335,20), v10, z10, tool0;

	MoveL Offs(p0,2.433333333333333,18.933333333333334,20), v10, z10, tool0;
	MoveL Offs(p0,2.433333333333333,18.933333333333334,0), v10, z10, tool0;
	MoveL Offs(p0,2.433333333333333,18.933333333333334,20), v10, z10, tool0;

	MoveL Offs(p0,2.433333333333333,19.166666666666668,20), v10, z10, tool0;
	MoveL Offs(p0,2.433333333333333,19.166666666666668,0), v10, z10, tool0;
	MoveL Offs(p0,2.433333333333333,19.166666666666668,20), v10, z10, tool0;

	MoveL Offs(p0,2.433333333333333,19.266666666666666,20), v10, z10, tool0;
	MoveL Offs(p0,2.433333333333333,19.266666666666666,0), v10, z10, tool0;
	MoveL Offs(p0,2.433333333333333,19.266666666666666,20), v10, z10, tool0;

	MoveL Offs(p0,2.433333333333333,23.9,20), v10, z10, tool0;
	MoveL Offs(p0,2.433333333333333,23.9,0), v10, z10, tool0;
	MoveL Offs(p0,2.433333333333333,23.9,20), v10, z10, tool0;

	MoveL Offs(p0,2.433333333333333,27.6,20), v10, z10, tool0;
	MoveL Offs(p0,2.433333333333333,27.6,0), v10, z10, tool0;
	MoveL Offs(p0,2.433333333333333,27.6,20), v10, z10, tool0;

	MoveL Offs(p0,2.433333333333333,28.733333333333334,20), v10, z10, tool0;
	MoveL Offs(p0,2.433333333333333,28.733333333333334,0), v10, z10, tool0;
	MoveL Offs(p0,2.433333333333333,28.733333333333334,20), v10, z10, tool0;

	MoveL Offs(p0,2.433333333333333,29.166666666666668,20), v10, z10, tool0;
	MoveL Offs(p0,2.433333333333333,29.166666666666668,0), v10, z10, tool0;
	MoveL Offs(p0,2.433333333333333,29.166666666666668,20), v10, z10, tool0;

	MoveL Offs(p0,2.433333333333333,29.533333333333335,20), v10, z10, tool0;
	MoveL Offs(p0,2.433333333333333,29.533333333333335,0), v10, z10, tool0;
	MoveL Offs(p0,2.433333333333333,29.533333333333335,20), v10, z10, tool0;

	MoveL Offs(p0,2.466666666666667,19.033333333333335,20), v10, z10, tool0;
	MoveL Offs(p0,2.466666666666667,19.033333333333335,0), v10, z10, tool0;
	MoveL Offs(p0,2.466666666666667,19.033333333333335,20), v10, z10, tool0;

	MoveL Offs(p0,2.466666666666667,19.166666666666668,20), v10, z10, tool0;
	MoveL Offs(p0,2.466666666666667,19.166666666666668,0), v10, z10, tool0;
	MoveL Offs(p0,2.466666666666667,19.166666666666668,20), v10, z10, tool0;

	MoveL Offs(p0,2.466666666666667,28.0,20), v10, z10, tool0;
	MoveL Offs(p0,2.466666666666667,28.0,0), v10, z10, tool0;
	MoveL Offs(p0,2.466666666666667,28.0,20), v10, z10, tool0;

	MoveL Offs(p0,2.466666666666667,28.3,20), v10, z10, tool0;
	MoveL Offs(p0,2.466666666666667,28.3,0), v10, z10, tool0;
	MoveL Offs(p0,2.466666666666667,28.3,20), v10, z10, tool0;

	MoveL Offs(p0,2.466666666666667,29.166666666666668,20), v10, z10, tool0;
	MoveL Offs(p0,2.466666666666667,29.166666666666668,0), v10, z10, tool0;
	MoveL Offs(p0,2.466666666666667,29.166666666666668,20), v10, z10, tool0;

	MoveL Offs(p0,2.466666666666667,29.633333333333333,20), v10, z10, tool0;
	MoveL Offs(p0,2.466666666666667,29.633333333333333,0), v10, z10, tool0;
	MoveL Offs(p0,2.466666666666667,29.633333333333333,20), v10, z10, tool0;

	MoveL Offs(p0,2.5,17.666666666666668,20), v10, z10, tool0;
	MoveL Offs(p0,2.5,17.666666666666668,0), v10, z10, tool0;
	MoveL Offs(p0,2.5,17.666666666666668,20), v10, z10, tool0;

	MoveL Offs(p0,2.5,17.766666666666666,20), v10, z10, tool0;
	MoveL Offs(p0,2.5,17.766666666666666,0), v10, z10, tool0;
	MoveL Offs(p0,2.5,17.766666666666666,20), v10, z10, tool0;

	MoveL Offs(p0,2.5,19.433333333333334,20), v10, z10, tool0;
	MoveL Offs(p0,2.5,19.433333333333334,0), v10, z10, tool0;
	MoveL Offs(p0,2.5,19.433333333333334,20), v10, z10, tool0;

	MoveL Offs(p0,2.5,19.466666666666665,20), v10, z10, tool0;
	MoveL Offs(p0,2.5,19.466666666666665,0), v10, z10, tool0;
	MoveL Offs(p0,2.5,19.466666666666665,20), v10, z10, tool0;

	MoveL Offs(p0,2.5,27.166666666666668,20), v10, z10, tool0;
	MoveL Offs(p0,2.5,27.166666666666668,0), v10, z10, tool0;
	MoveL Offs(p0,2.5,27.166666666666668,20), v10, z10, tool0;

	MoveL Offs(p0,2.5,28.033333333333335,20), v10, z10, tool0;
	MoveL Offs(p0,2.5,28.033333333333335,0), v10, z10, tool0;
	MoveL Offs(p0,2.5,28.033333333333335,20), v10, z10, tool0;

	MoveL Offs(p0,2.5,28.3,20), v10, z10, tool0;
	MoveL Offs(p0,2.5,28.3,0), v10, z10, tool0;
	MoveL Offs(p0,2.5,28.3,20), v10, z10, tool0;

	MoveL Offs(p0,2.5,29.566666666666666,20), v10, z10, tool0;
	MoveL Offs(p0,2.5,29.566666666666666,0), v10, z10, tool0;
	MoveL Offs(p0,2.5,29.566666666666666,20), v10, z10, tool0;

	MoveL Offs(p0,2.5,29.6,20), v10, z10, tool0;
	MoveL Offs(p0,2.5,29.6,0), v10, z10, tool0;
	MoveL Offs(p0,2.5,29.6,20), v10, z10, tool0;

	MoveL Offs(p0,2.533333333333333,17.666666666666668,20), v10, z10, tool0;
	MoveL Offs(p0,2.533333333333333,17.666666666666668,0), v10, z10, tool0;
	MoveL Offs(p0,2.533333333333333,17.666666666666668,20), v10, z10, tool0;

	MoveL Offs(p0,2.533333333333333,23.866666666666667,20), v10, z10, tool0;
	MoveL Offs(p0,2.533333333333333,23.866666666666667,0), v10, z10, tool0;
	MoveL Offs(p0,2.533333333333333,23.866666666666667,20), v10, z10, tool0;

	MoveL Offs(p0,2.566666666666667,17.533333333333335,20), v10, z10, tool0;
	MoveL Offs(p0,2.566666666666667,17.533333333333335,0), v10, z10, tool0;
	MoveL Offs(p0,2.566666666666667,17.533333333333335,20), v10, z10, tool0;

	MoveL Offs(p0,2.566666666666667,17.633333333333333,20), v10, z10, tool0;
	MoveL Offs(p0,2.566666666666667,17.633333333333333,0), v10, z10, tool0;
	MoveL Offs(p0,2.566666666666667,17.633333333333333,20), v10, z10, tool0;

	MoveL Offs(p0,2.566666666666667,19.566666666666666,20), v10, z10, tool0;
	MoveL Offs(p0,2.566666666666667,19.566666666666666,0), v10, z10, tool0;
	MoveL Offs(p0,2.566666666666667,19.566666666666666,20), v10, z10, tool0;

	MoveL Offs(p0,2.566666666666667,19.766666666666666,20), v10, z10, tool0;
	MoveL Offs(p0,2.566666666666667,19.766666666666666,0), v10, z10, tool0;
	MoveL Offs(p0,2.566666666666667,19.766666666666666,20), v10, z10, tool0;

	MoveL Offs(p0,2.566666666666667,23.866666666666667,20), v10, z10, tool0;
	MoveL Offs(p0,2.566666666666667,23.866666666666667,0), v10, z10, tool0;
	MoveL Offs(p0,2.566666666666667,23.866666666666667,20), v10, z10, tool0;

	MoveL Offs(p0,2.566666666666667,27.133333333333333,20), v10, z10, tool0;
	MoveL Offs(p0,2.566666666666667,27.133333333333333,0), v10, z10, tool0;
	MoveL Offs(p0,2.566666666666667,27.133333333333333,20), v10, z10, tool0;

	MoveL Offs(p0,2.566666666666667,27.366666666666667,20), v10, z10, tool0;
	MoveL Offs(p0,2.566666666666667,27.366666666666667,0), v10, z10, tool0;
	MoveL Offs(p0,2.566666666666667,27.366666666666667,20), v10, z10, tool0;

	MoveL Offs(p0,2.566666666666667,29.6,20), v10, z10, tool0;
	MoveL Offs(p0,2.566666666666667,29.6,0), v10, z10, tool0;
	MoveL Offs(p0,2.566666666666667,29.6,20), v10, z10, tool0;

	MoveL Offs(p0,2.566666666666667,29.633333333333333,20), v10, z10, tool0;
	MoveL Offs(p0,2.566666666666667,29.633333333333333,0), v10, z10, tool0;
	MoveL Offs(p0,2.566666666666667,29.633333333333333,20), v10, z10, tool0;

	MoveL Offs(p0,2.566666666666667,29.666666666666668,20), v10, z10, tool0;
	MoveL Offs(p0,2.566666666666667,29.666666666666668,0), v10, z10, tool0;
	MoveL Offs(p0,2.566666666666667,29.666666666666668,20), v10, z10, tool0;

	MoveL Offs(p0,2.6,17.5,20), v10, z10, tool0;
	MoveL Offs(p0,2.6,17.5,0), v10, z10, tool0;
	MoveL Offs(p0,2.6,17.5,20), v10, z10, tool0;

	MoveL Offs(p0,2.6,17.6,20), v10, z10, tool0;
	MoveL Offs(p0,2.6,17.6,0), v10, z10, tool0;
	MoveL Offs(p0,2.6,17.6,20), v10, z10, tool0;

	MoveL Offs(p0,2.6,19.666666666666668,20), v10, z10, tool0;
	MoveL Offs(p0,2.6,19.666666666666668,0), v10, z10, tool0;
	MoveL Offs(p0,2.6,19.666666666666668,20), v10, z10, tool0;

	MoveL Offs(p0,2.6,19.7,20), v10, z10, tool0;
	MoveL Offs(p0,2.6,19.7,0), v10, z10, tool0;
	MoveL Offs(p0,2.6,19.7,20), v10, z10, tool0;

	MoveL Offs(p0,2.6,19.833333333333332,20), v10, z10, tool0;
	MoveL Offs(p0,2.6,19.833333333333332,0), v10, z10, tool0;
	MoveL Offs(p0,2.6,19.833333333333332,20), v10, z10, tool0;

	MoveL Offs(p0,2.6,19.866666666666667,20), v10, z10, tool0;
	MoveL Offs(p0,2.6,19.866666666666667,0), v10, z10, tool0;
	MoveL Offs(p0,2.6,19.866666666666667,20), v10, z10, tool0;

	MoveL Offs(p0,2.6,27.133333333333333,20), v10, z10, tool0;
	MoveL Offs(p0,2.6,27.133333333333333,0), v10, z10, tool0;
	MoveL Offs(p0,2.6,27.133333333333333,20), v10, z10, tool0;

	MoveL Offs(p0,2.6,28.1,20), v10, z10, tool0;
	MoveL Offs(p0,2.6,28.1,0), v10, z10, tool0;
	MoveL Offs(p0,2.6,28.1,20), v10, z10, tool0;

	MoveL Offs(p0,2.6,28.366666666666667,20), v10, z10, tool0;
	MoveL Offs(p0,2.6,28.366666666666667,0), v10, z10, tool0;
	MoveL Offs(p0,2.6,28.366666666666667,20), v10, z10, tool0;

	MoveL Offs(p0,2.6,28.866666666666667,20), v10, z10, tool0;
	MoveL Offs(p0,2.6,28.866666666666667,0), v10, z10, tool0;
	MoveL Offs(p0,2.6,28.866666666666667,20), v10, z10, tool0;

	MoveL Offs(p0,2.6,29.266666666666666,20), v10, z10, tool0;
	MoveL Offs(p0,2.6,29.266666666666666,0), v10, z10, tool0;
	MoveL Offs(p0,2.6,29.266666666666666,20), v10, z10, tool0;

	MoveL Offs(p0,2.6333333333333333,19.933333333333334,20), v10, z10, tool0;
	MoveL Offs(p0,2.6333333333333333,19.933333333333334,0), v10, z10, tool0;
	MoveL Offs(p0,2.6333333333333333,19.933333333333334,20), v10, z10, tool0;

	MoveL Offs(p0,2.6333333333333333,27.533333333333335,20), v10, z10, tool0;
	MoveL Offs(p0,2.6333333333333333,27.533333333333335,0), v10, z10, tool0;
	MoveL Offs(p0,2.6333333333333333,27.533333333333335,20), v10, z10, tool0;

	MoveL Offs(p0,2.6333333333333333,29.266666666666666,20), v10, z10, tool0;
	MoveL Offs(p0,2.6333333333333333,29.266666666666666,0), v10, z10, tool0;
	MoveL Offs(p0,2.6333333333333333,29.266666666666666,20), v10, z10, tool0;

	MoveL Offs(p0,2.6333333333333333,29.4,20), v10, z10, tool0;
	MoveL Offs(p0,2.6333333333333333,29.4,0), v10, z10, tool0;
	MoveL Offs(p0,2.6333333333333333,29.4,20), v10, z10, tool0;

	MoveL Offs(p0,2.6333333333333333,29.7,20), v10, z10, tool0;
	MoveL Offs(p0,2.6333333333333333,29.7,0), v10, z10, tool0;
	MoveL Offs(p0,2.6333333333333333,29.7,20), v10, z10, tool0;

	MoveL Offs(p0,2.6666666666666665,19.833333333333332,20), v10, z10, tool0;
	MoveL Offs(p0,2.6666666666666665,19.833333333333332,0), v10, z10, tool0;
	MoveL Offs(p0,2.6666666666666665,19.833333333333332,20), v10, z10, tool0;

	MoveL Offs(p0,2.6666666666666665,19.966666666666665,20), v10, z10, tool0;
	MoveL Offs(p0,2.6666666666666665,19.966666666666665,0), v10, z10, tool0;
	MoveL Offs(p0,2.6666666666666665,19.966666666666665,20), v10, z10, tool0;

	MoveL Offs(p0,2.6666666666666665,23.833333333333332,20), v10, z10, tool0;
	MoveL Offs(p0,2.6666666666666665,23.833333333333332,0), v10, z10, tool0;
	MoveL Offs(p0,2.6666666666666665,23.833333333333332,20), v10, z10, tool0;

	MoveL Offs(p0,2.6666666666666665,27.533333333333335,20), v10, z10, tool0;
	MoveL Offs(p0,2.6666666666666665,27.533333333333335,0), v10, z10, tool0;
	MoveL Offs(p0,2.6666666666666665,27.533333333333335,20), v10, z10, tool0;

	MoveL Offs(p0,2.6666666666666665,28.1,20), v10, z10, tool0;
	MoveL Offs(p0,2.6666666666666665,28.1,0), v10, z10, tool0;
	MoveL Offs(p0,2.6666666666666665,28.1,20), v10, z10, tool0;

	MoveL Offs(p0,2.6666666666666665,28.366666666666667,20), v10, z10, tool0;
	MoveL Offs(p0,2.6666666666666665,28.366666666666667,0), v10, z10, tool0;
	MoveL Offs(p0,2.6666666666666665,28.366666666666667,20), v10, z10, tool0;

	MoveL Offs(p0,2.6666666666666665,29.3,20), v10, z10, tool0;
	MoveL Offs(p0,2.6666666666666665,29.3,0), v10, z10, tool0;
	MoveL Offs(p0,2.6666666666666665,29.3,20), v10, z10, tool0;

	MoveL Offs(p0,2.6666666666666665,29.433333333333334,20), v10, z10, tool0;
	MoveL Offs(p0,2.6666666666666665,29.433333333333334,0), v10, z10, tool0;
	MoveL Offs(p0,2.6666666666666665,29.433333333333334,20), v10, z10, tool0;

	MoveL Offs(p0,2.6666666666666665,29.666666666666668,20), v10, z10, tool0;
	MoveL Offs(p0,2.6666666666666665,29.666666666666668,0), v10, z10, tool0;
	MoveL Offs(p0,2.6666666666666665,29.666666666666668,20), v10, z10, tool0;

	MoveL Offs(p0,2.7,17.366666666666667,20), v10, z10, tool0;
	MoveL Offs(p0,2.7,17.366666666666667,0), v10, z10, tool0;
	MoveL Offs(p0,2.7,17.366666666666667,20), v10, z10, tool0;

	MoveL Offs(p0,2.7,17.466666666666665,20), v10, z10, tool0;
	MoveL Offs(p0,2.7,17.466666666666665,0), v10, z10, tool0;
	MoveL Offs(p0,2.7,17.466666666666665,20), v10, z10, tool0;

	MoveL Offs(p0,2.7,20.0,20), v10, z10, tool0;
	MoveL Offs(p0,2.7,20.0,0), v10, z10, tool0;
	MoveL Offs(p0,2.7,20.0,20), v10, z10, tool0;

	MoveL Offs(p0,2.7,20.033333333333335,20), v10, z10, tool0;
	MoveL Offs(p0,2.7,20.033333333333335,0), v10, z10, tool0;
	MoveL Offs(p0,2.7,20.033333333333335,20), v10, z10, tool0;

	MoveL Offs(p0,2.7,20.166666666666668,20), v10, z10, tool0;
	MoveL Offs(p0,2.7,20.166666666666668,0), v10, z10, tool0;
	MoveL Offs(p0,2.7,20.166666666666668,20), v10, z10, tool0;

	MoveL Offs(p0,2.7,28.4,20), v10, z10, tool0;
	MoveL Offs(p0,2.7,28.4,0), v10, z10, tool0;
	MoveL Offs(p0,2.7,28.4,20), v10, z10, tool0;

	MoveL Offs(p0,2.7,29.433333333333334,20), v10, z10, tool0;
	MoveL Offs(p0,2.7,29.433333333333334,0), v10, z10, tool0;
	MoveL Offs(p0,2.7,29.433333333333334,20), v10, z10, tool0;

	MoveL Offs(p0,2.7,29.666666666666668,20), v10, z10, tool0;
	MoveL Offs(p0,2.7,29.666666666666668,0), v10, z10, tool0;
	MoveL Offs(p0,2.7,29.666666666666668,20), v10, z10, tool0;

	MoveL Offs(p0,2.7333333333333334,20.066666666666666,20), v10, z10, tool0;
	MoveL Offs(p0,2.7333333333333334,20.066666666666666,0), v10, z10, tool0;
	MoveL Offs(p0,2.7333333333333334,20.066666666666666,20), v10, z10, tool0;

	MoveL Offs(p0,2.7333333333333334,20.1,20), v10, z10, tool0;
	MoveL Offs(p0,2.7333333333333334,20.1,0), v10, z10, tool0;
	MoveL Offs(p0,2.7333333333333334,20.1,20), v10, z10, tool0;

	MoveL Offs(p0,2.7333333333333334,27.133333333333333,20), v10, z10, tool0;
	MoveL Offs(p0,2.7333333333333334,27.133333333333333,0), v10, z10, tool0;
	MoveL Offs(p0,2.7333333333333334,27.133333333333333,20), v10, z10, tool0;

	MoveL Offs(p0,2.7333333333333334,27.333333333333332,20), v10, z10, tool0;
	MoveL Offs(p0,2.7333333333333334,27.333333333333332,0), v10, z10, tool0;
	MoveL Offs(p0,2.7333333333333334,27.333333333333332,20), v10, z10, tool0;

	MoveL Offs(p0,2.7333333333333334,27.566666666666666,20), v10, z10, tool0;
	MoveL Offs(p0,2.7333333333333334,27.566666666666666,0), v10, z10, tool0;
	MoveL Offs(p0,2.7333333333333334,27.566666666666666,20), v10, z10, tool0;

	MoveL Offs(p0,2.7666666666666666,17.366666666666667,20), v10, z10, tool0;
	MoveL Offs(p0,2.7666666666666666,17.366666666666667,0), v10, z10, tool0;
	MoveL Offs(p0,2.7666666666666666,17.366666666666667,20), v10, z10, tool0;

	MoveL Offs(p0,2.7666666666666666,17.4,20), v10, z10, tool0;
	MoveL Offs(p0,2.7666666666666666,17.4,0), v10, z10, tool0;
	MoveL Offs(p0,2.7666666666666666,17.4,20), v10, z10, tool0;

	MoveL Offs(p0,2.7666666666666666,20.2,20), v10, z10, tool0;
	MoveL Offs(p0,2.7666666666666666,20.2,0), v10, z10, tool0;
	MoveL Offs(p0,2.7666666666666666,20.2,20), v10, z10, tool0;

	MoveL Offs(p0,2.7666666666666666,20.233333333333334,20), v10, z10, tool0;
	MoveL Offs(p0,2.7666666666666666,20.233333333333334,0), v10, z10, tool0;
	MoveL Offs(p0,2.7666666666666666,20.233333333333334,20), v10, z10, tool0;

	MoveL Offs(p0,2.7666666666666666,20.266666666666666,20), v10, z10, tool0;
	MoveL Offs(p0,2.7666666666666666,20.266666666666666,0), v10, z10, tool0;
	MoveL Offs(p0,2.7666666666666666,20.266666666666666,20), v10, z10, tool0;

	MoveL Offs(p0,2.7666666666666666,20.366666666666667,20), v10, z10, tool0;
	MoveL Offs(p0,2.7666666666666666,20.366666666666667,0), v10, z10, tool0;
	MoveL Offs(p0,2.7666666666666666,20.366666666666667,20), v10, z10, tool0;

	MoveL Offs(p0,2.7666666666666666,27.133333333333333,20), v10, z10, tool0;
	MoveL Offs(p0,2.7666666666666666,27.133333333333333,0), v10, z10, tool0;
	MoveL Offs(p0,2.7666666666666666,27.133333333333333,20), v10, z10, tool0;

	MoveL Offs(p0,2.7666666666666666,27.333333333333332,20), v10, z10, tool0;
	MoveL Offs(p0,2.7666666666666666,27.333333333333332,0), v10, z10, tool0;
	MoveL Offs(p0,2.7666666666666666,27.333333333333332,20), v10, z10, tool0;

	MoveL Offs(p0,2.7666666666666666,27.5,20), v10, z10, tool0;
	MoveL Offs(p0,2.7666666666666666,27.5,0), v10, z10, tool0;
	MoveL Offs(p0,2.7666666666666666,27.5,20), v10, z10, tool0;

	MoveL Offs(p0,2.7666666666666666,27.566666666666666,20), v10, z10, tool0;
	MoveL Offs(p0,2.7666666666666666,27.566666666666666,0), v10, z10, tool0;
	MoveL Offs(p0,2.7666666666666666,27.566666666666666,20), v10, z10, tool0;

	MoveL Offs(p0,2.7666666666666666,28.433333333333334,20), v10, z10, tool0;
	MoveL Offs(p0,2.7666666666666666,28.433333333333334,0), v10, z10, tool0;
	MoveL Offs(p0,2.7666666666666666,28.433333333333334,20), v10, z10, tool0;

	MoveL Offs(p0,2.7666666666666666,29.3,20), v10, z10, tool0;
	MoveL Offs(p0,2.7666666666666666,29.3,0), v10, z10, tool0;
	MoveL Offs(p0,2.7666666666666666,29.3,20), v10, z10, tool0;

	MoveL Offs(p0,2.8,20.333333333333332,20), v10, z10, tool0;
	MoveL Offs(p0,2.8,20.333333333333332,0), v10, z10, tool0;
	MoveL Offs(p0,2.8,20.333333333333332,20), v10, z10, tool0;

	MoveL Offs(p0,2.8,20.4,20), v10, z10, tool0;
	MoveL Offs(p0,2.8,20.4,0), v10, z10, tool0;
	MoveL Offs(p0,2.8,20.4,20), v10, z10, tool0;

	MoveL Offs(p0,2.8,20.433333333333334,20), v10, z10, tool0;
	MoveL Offs(p0,2.8,20.433333333333334,0), v10, z10, tool0;
	MoveL Offs(p0,2.8,20.433333333333334,20), v10, z10, tool0;

	MoveL Offs(p0,2.8,27.5,20), v10, z10, tool0;
	MoveL Offs(p0,2.8,27.5,0), v10, z10, tool0;
	MoveL Offs(p0,2.8,27.5,20), v10, z10, tool0;

	MoveL Offs(p0,2.8,27.633333333333333,20), v10, z10, tool0;
	MoveL Offs(p0,2.8,27.633333333333333,0), v10, z10, tool0;
	MoveL Offs(p0,2.8,27.633333333333333,20), v10, z10, tool0;

	MoveL Offs(p0,2.8,28.466666666666665,20), v10, z10, tool0;
	MoveL Offs(p0,2.8,28.466666666666665,0), v10, z10, tool0;
	MoveL Offs(p0,2.8,28.466666666666665,20), v10, z10, tool0;

	MoveL Offs(p0,2.8,29.333333333333332,20), v10, z10, tool0;
	MoveL Offs(p0,2.8,29.333333333333332,0), v10, z10, tool0;
	MoveL Offs(p0,2.8,29.333333333333332,20), v10, z10, tool0;

	MoveL Offs(p0,2.8,29.433333333333334,20), v10, z10, tool0;
	MoveL Offs(p0,2.8,29.433333333333334,0), v10, z10, tool0;
	MoveL Offs(p0,2.8,29.433333333333334,20), v10, z10, tool0;

	MoveL Offs(p0,2.8,29.7,20), v10, z10, tool0;
	MoveL Offs(p0,2.8,29.7,0), v10, z10, tool0;
	MoveL Offs(p0,2.8,29.7,20), v10, z10, tool0;

	MoveL Offs(p0,2.8,29.733333333333334,20), v10, z10, tool0;
	MoveL Offs(p0,2.8,29.733333333333334,0), v10, z10, tool0;
	MoveL Offs(p0,2.8,29.733333333333334,20), v10, z10, tool0;

	MoveL Offs(p0,2.8333333333333335,17.333333333333332,20), v10, z10, tool0;
	MoveL Offs(p0,2.8333333333333335,17.333333333333332,0), v10, z10, tool0;
	MoveL Offs(p0,2.8333333333333335,17.333333333333332,20), v10, z10, tool0;

	MoveL Offs(p0,2.8333333333333335,23.8,20), v10, z10, tool0;
	MoveL Offs(p0,2.8333333333333335,23.8,0), v10, z10, tool0;
	MoveL Offs(p0,2.8333333333333335,23.8,20), v10, z10, tool0;

	MoveL Offs(p0,2.8333333333333335,27.533333333333335,20), v10, z10, tool0;
	MoveL Offs(p0,2.8333333333333335,27.533333333333335,0), v10, z10, tool0;
	MoveL Offs(p0,2.8333333333333335,27.533333333333335,20), v10, z10, tool0;

	MoveL Offs(p0,2.8333333333333335,29.3,20), v10, z10, tool0;
	MoveL Offs(p0,2.8333333333333335,29.3,0), v10, z10, tool0;
	MoveL Offs(p0,2.8333333333333335,29.3,20), v10, z10, tool0;

	MoveL Offs(p0,2.8666666666666667,20.6,20), v10, z10, tool0;
	MoveL Offs(p0,2.8666666666666667,20.6,0), v10, z10, tool0;
	MoveL Offs(p0,2.8666666666666667,20.6,20), v10, z10, tool0;

	MoveL Offs(p0,2.8666666666666667,27.7,20), v10, z10, tool0;
	MoveL Offs(p0,2.8666666666666667,27.7,0), v10, z10, tool0;
	MoveL Offs(p0,2.8666666666666667,27.7,20), v10, z10, tool0;

	MoveL Offs(p0,2.8666666666666667,28.266666666666666,20), v10, z10, tool0;
	MoveL Offs(p0,2.8666666666666667,28.266666666666666,0), v10, z10, tool0;
	MoveL Offs(p0,2.8666666666666667,28.266666666666666,20), v10, z10, tool0;

	MoveL Offs(p0,2.8666666666666667,29.5,20), v10, z10, tool0;
	MoveL Offs(p0,2.8666666666666667,29.5,0), v10, z10, tool0;
	MoveL Offs(p0,2.8666666666666667,29.5,20), v10, z10, tool0;

	MoveL Offs(p0,2.9,17.233333333333334,20), v10, z10, tool0;
	MoveL Offs(p0,2.9,17.233333333333334,0), v10, z10, tool0;
	MoveL Offs(p0,2.9,17.233333333333334,20), v10, z10, tool0;

	MoveL Offs(p0,2.9,17.3,20), v10, z10, tool0;
	MoveL Offs(p0,2.9,17.3,0), v10, z10, tool0;
	MoveL Offs(p0,2.9,17.3,20), v10, z10, tool0;

	MoveL Offs(p0,2.9,20.533333333333335,20), v10, z10, tool0;
	MoveL Offs(p0,2.9,20.533333333333335,0), v10, z10, tool0;
	MoveL Offs(p0,2.9,20.533333333333335,20), v10, z10, tool0;

	MoveL Offs(p0,2.9,20.666666666666668,20), v10, z10, tool0;
	MoveL Offs(p0,2.9,20.666666666666668,0), v10, z10, tool0;
	MoveL Offs(p0,2.9,20.666666666666668,20), v10, z10, tool0;

	MoveL Offs(p0,2.9,27.133333333333333,20), v10, z10, tool0;
	MoveL Offs(p0,2.9,27.133333333333333,0), v10, z10, tool0;
	MoveL Offs(p0,2.9,27.133333333333333,20), v10, z10, tool0;

	MoveL Offs(p0,2.9,27.3,20), v10, z10, tool0;
	MoveL Offs(p0,2.9,27.3,0), v10, z10, tool0;
	MoveL Offs(p0,2.9,27.3,20), v10, z10, tool0;

	MoveL Offs(p0,2.9,28.266666666666666,20), v10, z10, tool0;
	MoveL Offs(p0,2.9,28.266666666666666,0), v10, z10, tool0;
	MoveL Offs(p0,2.9,28.266666666666666,20), v10, z10, tool0;

	MoveL Offs(p0,2.9,28.5,20), v10, z10, tool0;
	MoveL Offs(p0,2.9,28.5,0), v10, z10, tool0;
	MoveL Offs(p0,2.9,28.5,20), v10, z10, tool0;

	MoveL Offs(p0,2.9,29.366666666666667,20), v10, z10, tool0;
	MoveL Offs(p0,2.9,29.366666666666667,0), v10, z10, tool0;
	MoveL Offs(p0,2.9,29.366666666666667,20), v10, z10, tool0;

	MoveL Offs(p0,2.933333333333333,17.233333333333334,20), v10, z10, tool0;
	MoveL Offs(p0,2.933333333333333,17.233333333333334,0), v10, z10, tool0;
	MoveL Offs(p0,2.933333333333333,17.233333333333334,20), v10, z10, tool0;

	MoveL Offs(p0,2.933333333333333,17.266666666666666,20), v10, z10, tool0;
	MoveL Offs(p0,2.933333333333333,17.266666666666666,0), v10, z10, tool0;
	MoveL Offs(p0,2.933333333333333,17.266666666666666,20), v10, z10, tool0;

	MoveL Offs(p0,2.933333333333333,20.6,20), v10, z10, tool0;
	MoveL Offs(p0,2.933333333333333,20.6,0), v10, z10, tool0;
	MoveL Offs(p0,2.933333333333333,20.6,20), v10, z10, tool0;

	MoveL Offs(p0,2.933333333333333,20.766666666666666,20), v10, z10, tool0;
	MoveL Offs(p0,2.933333333333333,20.766666666666666,0), v10, z10, tool0;
	MoveL Offs(p0,2.933333333333333,20.766666666666666,20), v10, z10, tool0;

	MoveL Offs(p0,2.933333333333333,27.133333333333333,20), v10, z10, tool0;
	MoveL Offs(p0,2.933333333333333,27.133333333333333,0), v10, z10, tool0;
	MoveL Offs(p0,2.933333333333333,27.133333333333333,20), v10, z10, tool0;

	MoveL Offs(p0,2.933333333333333,27.333333333333332,20), v10, z10, tool0;
	MoveL Offs(p0,2.933333333333333,27.333333333333332,0), v10, z10, tool0;
	MoveL Offs(p0,2.933333333333333,27.333333333333332,20), v10, z10, tool0;

	MoveL Offs(p0,2.933333333333333,27.5,20), v10, z10, tool0;
	MoveL Offs(p0,2.933333333333333,27.5,0), v10, z10, tool0;
	MoveL Offs(p0,2.933333333333333,27.5,20), v10, z10, tool0;

	MoveL Offs(p0,2.933333333333333,27.733333333333334,20), v10, z10, tool0;
	MoveL Offs(p0,2.933333333333333,27.733333333333334,0), v10, z10, tool0;
	MoveL Offs(p0,2.933333333333333,27.733333333333334,20), v10, z10, tool0;

	MoveL Offs(p0,2.933333333333333,28.266666666666666,20), v10, z10, tool0;
	MoveL Offs(p0,2.933333333333333,28.266666666666666,0), v10, z10, tool0;
	MoveL Offs(p0,2.933333333333333,28.266666666666666,20), v10, z10, tool0;

	MoveL Offs(p0,2.933333333333333,29.333333333333332,20), v10, z10, tool0;
	MoveL Offs(p0,2.933333333333333,29.333333333333332,0), v10, z10, tool0;
	MoveL Offs(p0,2.933333333333333,29.333333333333332,20), v10, z10, tool0;

	MoveL Offs(p0,2.933333333333333,29.4,20), v10, z10, tool0;
	MoveL Offs(p0,2.933333333333333,29.4,0), v10, z10, tool0;
	MoveL Offs(p0,2.933333333333333,29.4,20), v10, z10, tool0;

	MoveL Offs(p0,2.933333333333333,29.733333333333334,20), v10, z10, tool0;
	MoveL Offs(p0,2.933333333333333,29.733333333333334,0), v10, z10, tool0;
	MoveL Offs(p0,2.933333333333333,29.733333333333334,20), v10, z10, tool0;

	MoveL Offs(p0,2.933333333333333,29.8,20), v10, z10, tool0;
	MoveL Offs(p0,2.933333333333333,29.8,0), v10, z10, tool0;
	MoveL Offs(p0,2.933333333333333,29.8,20), v10, z10, tool0;

	MoveL Offs(p0,2.966666666666667,17.166666666666668,20), v10, z10, tool0;
	MoveL Offs(p0,2.966666666666667,17.166666666666668,0), v10, z10, tool0;
	MoveL Offs(p0,2.966666666666667,17.166666666666668,20), v10, z10, tool0;

	MoveL Offs(p0,2.966666666666667,20.666666666666668,20), v10, z10, tool0;
	MoveL Offs(p0,2.966666666666667,20.666666666666668,0), v10, z10, tool0;
	MoveL Offs(p0,2.966666666666667,20.666666666666668,20), v10, z10, tool0;

	MoveL Offs(p0,2.966666666666667,20.7,20), v10, z10, tool0;
	MoveL Offs(p0,2.966666666666667,20.7,0), v10, z10, tool0;
	MoveL Offs(p0,2.966666666666667,20.7,20), v10, z10, tool0;

	MoveL Offs(p0,2.966666666666667,27.133333333333333,20), v10, z10, tool0;
	MoveL Offs(p0,2.966666666666667,27.133333333333333,0), v10, z10, tool0;
	MoveL Offs(p0,2.966666666666667,27.133333333333333,20), v10, z10, tool0;

	MoveL Offs(p0,2.966666666666667,27.3,20), v10, z10, tool0;
	MoveL Offs(p0,2.966666666666667,27.3,0), v10, z10, tool0;
	MoveL Offs(p0,2.966666666666667,27.3,20), v10, z10, tool0;

	MoveL Offs(p0,2.966666666666667,28.3,20), v10, z10, tool0;
	MoveL Offs(p0,2.966666666666667,28.3,0), v10, z10, tool0;
	MoveL Offs(p0,2.966666666666667,28.3,20), v10, z10, tool0;

	MoveL Offs(p0,2.966666666666667,29.4,20), v10, z10, tool0;
	MoveL Offs(p0,2.966666666666667,29.4,0), v10, z10, tool0;
	MoveL Offs(p0,2.966666666666667,29.4,20), v10, z10, tool0;

	MoveL Offs(p0,2.966666666666667,29.5,20), v10, z10, tool0;
	MoveL Offs(p0,2.966666666666667,29.5,0), v10, z10, tool0;
	MoveL Offs(p0,2.966666666666667,29.5,20), v10, z10, tool0;

	MoveL Offs(p0,2.966666666666667,29.766666666666666,20), v10, z10, tool0;
	MoveL Offs(p0,2.966666666666667,29.766666666666666,0), v10, z10, tool0;
	MoveL Offs(p0,2.966666666666667,29.766666666666666,20), v10, z10, tool0;

	MoveL Offs(p0,3.0,17.166666666666668,20), v10, z10, tool0;
	MoveL Offs(p0,3.0,17.166666666666668,0), v10, z10, tool0;
	MoveL Offs(p0,3.0,17.166666666666668,20), v10, z10, tool0;

	MoveL Offs(p0,3.0,17.233333333333334,20), v10, z10, tool0;
	MoveL Offs(p0,3.0,17.233333333333334,0), v10, z10, tool0;
	MoveL Offs(p0,3.0,17.233333333333334,20), v10, z10, tool0;

	MoveL Offs(p0,3.0,20.8,20), v10, z10, tool0;
	MoveL Offs(p0,3.0,20.8,0), v10, z10, tool0;
	MoveL Offs(p0,3.0,20.8,20), v10, z10, tool0;

	MoveL Offs(p0,3.0,27.133333333333333,20), v10, z10, tool0;
	MoveL Offs(p0,3.0,27.133333333333333,0), v10, z10, tool0;
	MoveL Offs(p0,3.0,27.133333333333333,20), v10, z10, tool0;

	MoveL Offs(p0,3.0,27.8,20), v10, z10, tool0;
	MoveL Offs(p0,3.0,27.8,0), v10, z10, tool0;
	MoveL Offs(p0,3.0,27.8,20), v10, z10, tool0;

	MoveL Offs(p0,3.0,28.6,20), v10, z10, tool0;
	MoveL Offs(p0,3.0,28.6,0), v10, z10, tool0;
	MoveL Offs(p0,3.0,28.6,20), v10, z10, tool0;

	MoveL Offs(p0,3.0,29.366666666666667,20), v10, z10, tool0;
	MoveL Offs(p0,3.0,29.366666666666667,0), v10, z10, tool0;
	MoveL Offs(p0,3.0,29.366666666666667,20), v10, z10, tool0;

	MoveL Offs(p0,3.033333333333333,17.166666666666668,20), v10, z10, tool0;
	MoveL Offs(p0,3.033333333333333,17.166666666666668,0), v10, z10, tool0;
	MoveL Offs(p0,3.033333333333333,17.166666666666668,20), v10, z10, tool0;

	MoveL Offs(p0,3.033333333333333,17.233333333333334,20), v10, z10, tool0;
	MoveL Offs(p0,3.033333333333333,17.233333333333334,0), v10, z10, tool0;
	MoveL Offs(p0,3.033333333333333,17.233333333333334,20), v10, z10, tool0;

	MoveL Offs(p0,3.066666666666667,17.033333333333335,20), v10, z10, tool0;
	MoveL Offs(p0,3.066666666666667,17.033333333333335,0), v10, z10, tool0;
	MoveL Offs(p0,3.066666666666667,17.033333333333335,20), v10, z10, tool0;

	MoveL Offs(p0,3.066666666666667,17.233333333333334,20), v10, z10, tool0;
	MoveL Offs(p0,3.066666666666667,17.233333333333334,0), v10, z10, tool0;
	MoveL Offs(p0,3.066666666666667,17.233333333333334,20), v10, z10, tool0;

	MoveL Offs(p0,3.066666666666667,20.833333333333332,20), v10, z10, tool0;
	MoveL Offs(p0,3.066666666666667,20.833333333333332,0), v10, z10, tool0;
	MoveL Offs(p0,3.066666666666667,20.833333333333332,20), v10, z10, tool0;

	MoveL Offs(p0,3.066666666666667,20.933333333333334,20), v10, z10, tool0;
	MoveL Offs(p0,3.066666666666667,20.933333333333334,0), v10, z10, tool0;
	MoveL Offs(p0,3.066666666666667,20.933333333333334,20), v10, z10, tool0;

	MoveL Offs(p0,3.066666666666667,21.0,20), v10, z10, tool0;
	MoveL Offs(p0,3.066666666666667,21.0,0), v10, z10, tool0;
	MoveL Offs(p0,3.066666666666667,21.0,20), v10, z10, tool0;

	MoveL Offs(p0,3.066666666666667,27.8,20), v10, z10, tool0;
	MoveL Offs(p0,3.066666666666667,27.8,0), v10, z10, tool0;
	MoveL Offs(p0,3.066666666666667,27.8,20), v10, z10, tool0;

	MoveL Offs(p0,3.066666666666667,28.366666666666667,20), v10, z10, tool0;
	MoveL Offs(p0,3.066666666666667,28.366666666666667,0), v10, z10, tool0;
	MoveL Offs(p0,3.066666666666667,28.366666666666667,20), v10, z10, tool0;

	MoveL Offs(p0,3.066666666666667,29.766666666666666,20), v10, z10, tool0;
	MoveL Offs(p0,3.066666666666667,29.766666666666666,0), v10, z10, tool0;
	MoveL Offs(p0,3.066666666666667,29.766666666666666,20), v10, z10, tool0;

	MoveL Offs(p0,3.066666666666667,29.8,20), v10, z10, tool0;
	MoveL Offs(p0,3.066666666666667,29.8,0), v10, z10, tool0;
	MoveL Offs(p0,3.066666666666667,29.8,20), v10, z10, tool0;

	MoveL Offs(p0,3.1,16.966666666666665,20), v10, z10, tool0;
	MoveL Offs(p0,3.1,16.966666666666665,0), v10, z10, tool0;
	MoveL Offs(p0,3.1,16.966666666666665,20), v10, z10, tool0;

	MoveL Offs(p0,3.1,17.0,20), v10, z10, tool0;
	MoveL Offs(p0,3.1,17.0,0), v10, z10, tool0;
	MoveL Offs(p0,3.1,17.0,20), v10, z10, tool0;

	MoveL Offs(p0,3.1,17.066666666666666,20), v10, z10, tool0;
	MoveL Offs(p0,3.1,17.066666666666666,0), v10, z10, tool0;
	MoveL Offs(p0,3.1,17.066666666666666,20), v10, z10, tool0;

	MoveL Offs(p0,3.1,17.166666666666668,20), v10, z10, tool0;
	MoveL Offs(p0,3.1,17.166666666666668,0), v10, z10, tool0;
	MoveL Offs(p0,3.1,17.166666666666668,20), v10, z10, tool0;

	MoveL Offs(p0,3.1,20.833333333333332,20), v10, z10, tool0;
	MoveL Offs(p0,3.1,20.833333333333332,0), v10, z10, tool0;
	MoveL Offs(p0,3.1,20.833333333333332,20), v10, z10, tool0;

	MoveL Offs(p0,3.1,20.866666666666667,20), v10, z10, tool0;
	MoveL Offs(p0,3.1,20.866666666666667,0), v10, z10, tool0;
	MoveL Offs(p0,3.1,20.866666666666667,20), v10, z10, tool0;

	MoveL Offs(p0,3.1,20.966666666666665,20), v10, z10, tool0;
	MoveL Offs(p0,3.1,20.966666666666665,0), v10, z10, tool0;
	MoveL Offs(p0,3.1,20.966666666666665,20), v10, z10, tool0;

	MoveL Offs(p0,3.1,21.1,20), v10, z10, tool0;
	MoveL Offs(p0,3.1,21.1,0), v10, z10, tool0;
	MoveL Offs(p0,3.1,21.1,20), v10, z10, tool0;

	MoveL Offs(p0,3.1,21.166666666666668,20), v10, z10, tool0;
	MoveL Offs(p0,3.1,21.166666666666668,0), v10, z10, tool0;
	MoveL Offs(p0,3.1,21.166666666666668,20), v10, z10, tool0;

	MoveL Offs(p0,3.1,21.233333333333334,20), v10, z10, tool0;
	MoveL Offs(p0,3.1,21.233333333333334,0), v10, z10, tool0;
	MoveL Offs(p0,3.1,21.233333333333334,20), v10, z10, tool0;

	MoveL Offs(p0,3.1,21.266666666666666,20), v10, z10, tool0;
	MoveL Offs(p0,3.1,21.266666666666666,0), v10, z10, tool0;
	MoveL Offs(p0,3.1,21.266666666666666,20), v10, z10, tool0;

	MoveL Offs(p0,3.1,21.333333333333332,20), v10, z10, tool0;
	MoveL Offs(p0,3.1,21.333333333333332,0), v10, z10, tool0;
	MoveL Offs(p0,3.1,21.333333333333332,20), v10, z10, tool0;

	MoveL Offs(p0,3.1,27.333333333333332,20), v10, z10, tool0;
	MoveL Offs(p0,3.1,27.333333333333332,0), v10, z10, tool0;
	MoveL Offs(p0,3.1,27.333333333333332,20), v10, z10, tool0;

	MoveL Offs(p0,3.1,27.5,20), v10, z10, tool0;
	MoveL Offs(p0,3.1,27.5,0), v10, z10, tool0;
	MoveL Offs(p0,3.1,27.5,20), v10, z10, tool0;

	MoveL Offs(p0,3.1,27.866666666666667,20), v10, z10, tool0;
	MoveL Offs(p0,3.1,27.866666666666667,0), v10, z10, tool0;
	MoveL Offs(p0,3.1,27.866666666666667,20), v10, z10, tool0;

	MoveL Offs(p0,3.1,29.433333333333334,20), v10, z10, tool0;
	MoveL Offs(p0,3.1,29.433333333333334,0), v10, z10, tool0;
	MoveL Offs(p0,3.1,29.433333333333334,20), v10, z10, tool0;

	MoveL Offs(p0,3.1,29.566666666666666,20), v10, z10, tool0;
	MoveL Offs(p0,3.1,29.566666666666666,0), v10, z10, tool0;
	MoveL Offs(p0,3.1,29.566666666666666,20), v10, z10, tool0;

	MoveL Offs(p0,3.1333333333333333,16.9,20), v10, z10, tool0;
	MoveL Offs(p0,3.1333333333333333,16.9,0), v10, z10, tool0;
	MoveL Offs(p0,3.1333333333333333,16.9,20), v10, z10, tool0;

	MoveL Offs(p0,3.1333333333333333,20.866666666666667,20), v10, z10, tool0;
	MoveL Offs(p0,3.1333333333333333,20.866666666666667,0), v10, z10, tool0;
	MoveL Offs(p0,3.1333333333333333,20.866666666666667,20), v10, z10, tool0;

	MoveL Offs(p0,3.1333333333333333,21.3,20), v10, z10, tool0;
	MoveL Offs(p0,3.1333333333333333,21.3,0), v10, z10, tool0;
	MoveL Offs(p0,3.1333333333333333,21.3,20), v10, z10, tool0;

	MoveL Offs(p0,3.1333333333333333,21.466666666666665,20), v10, z10, tool0;
	MoveL Offs(p0,3.1333333333333333,21.466666666666665,0), v10, z10, tool0;
	MoveL Offs(p0,3.1333333333333333,21.466666666666665,20), v10, z10, tool0;

	MoveL Offs(p0,3.1333333333333333,27.3,20), v10, z10, tool0;
	MoveL Offs(p0,3.1333333333333333,27.3,0), v10, z10, tool0;
	MoveL Offs(p0,3.1333333333333333,27.3,20), v10, z10, tool0;

	MoveL Offs(p0,3.1333333333333333,27.5,20), v10, z10, tool0;
	MoveL Offs(p0,3.1333333333333333,27.5,0), v10, z10, tool0;
	MoveL Offs(p0,3.1333333333333333,27.5,20), v10, z10, tool0;

	MoveL Offs(p0,3.1333333333333333,27.833333333333332,20), v10, z10, tool0;
	MoveL Offs(p0,3.1333333333333333,27.833333333333332,0), v10, z10, tool0;
	MoveL Offs(p0,3.1333333333333333,27.833333333333332,20), v10, z10, tool0;

	MoveL Offs(p0,3.1333333333333333,28.633333333333333,20), v10, z10, tool0;
	MoveL Offs(p0,3.1333333333333333,28.633333333333333,0), v10, z10, tool0;
	MoveL Offs(p0,3.1333333333333333,28.633333333333333,20), v10, z10, tool0;

	MoveL Offs(p0,3.1333333333333333,29.433333333333334,20), v10, z10, tool0;
	MoveL Offs(p0,3.1333333333333333,29.433333333333334,0), v10, z10, tool0;
	MoveL Offs(p0,3.1333333333333333,29.433333333333334,20), v10, z10, tool0;

	MoveL Offs(p0,3.1666666666666665,16.833333333333332,20), v10, z10, tool0;
	MoveL Offs(p0,3.1666666666666665,16.833333333333332,0), v10, z10, tool0;
	MoveL Offs(p0,3.1666666666666665,16.833333333333332,20), v10, z10, tool0;

	MoveL Offs(p0,3.1666666666666665,21.3,20), v10, z10, tool0;
	MoveL Offs(p0,3.1666666666666665,21.3,0), v10, z10, tool0;
	MoveL Offs(p0,3.1666666666666665,21.3,20), v10, z10, tool0;

	MoveL Offs(p0,3.1666666666666665,21.433333333333334,20), v10, z10, tool0;
	MoveL Offs(p0,3.1666666666666665,21.433333333333334,0), v10, z10, tool0;
	MoveL Offs(p0,3.1666666666666665,21.433333333333334,20), v10, z10, tool0;

	MoveL Offs(p0,3.1666666666666665,21.533333333333335,20), v10, z10, tool0;
	MoveL Offs(p0,3.1666666666666665,21.533333333333335,0), v10, z10, tool0;
	MoveL Offs(p0,3.1666666666666665,21.533333333333335,20), v10, z10, tool0;

	MoveL Offs(p0,3.1666666666666665,27.3,20), v10, z10, tool0;
	MoveL Offs(p0,3.1666666666666665,27.3,0), v10, z10, tool0;
	MoveL Offs(p0,3.1666666666666665,27.3,20), v10, z10, tool0;

	MoveL Offs(p0,3.1666666666666665,27.9,20), v10, z10, tool0;
	MoveL Offs(p0,3.1666666666666665,27.9,0), v10, z10, tool0;
