MODULE Module1
	CONST robtarget p0:=[[806.29,0.00,1154.00],[0.5,0,0.866025,0],[0,0,0,0],[9E+9,9E+9,9E+9,9E+9,9E+9,9E+9]];
	CONST robtarget p20:=[[806.29,0.00,1154.00],[0.5,0,0.866025,0],[0,0,0,0],[9E+9,9E+9,9E+9,9E+9,9E+9,9E+9]];
	CONST robtarget p10:=[[806.29,0.00,1154.00],[0.5,0,0.866025,0],[0,0,0,0],[9E+9,9E+9,9E+9,9E+9,9E+9,9E+9]];
    !***********************************************************
    !
    ! Module:  Module1
    !
    ! Description:
    !   <Insert description here>
    !
    ! Author: ufabc
    !
    ! Version: 1.0
    !
    !***********************************************************
    
    
    !***********************************************************
    !
    ! Procedure main
    !
    !   This is the entry point of your program
    !
    !***********************************************************
    PROC main()
        !Add your code here
        MoveJ p0, v100, z50, tool0;
        

	MoveL Offs(p0,0.0,0.0,20), v10, z10, tool0;
	MoveL Offs(p0,0.0,0.0,0), v10, z10, tool0;
	MoveL Offs(p0,0.0,0.0,20), v10, z10, tool0;

	MoveL Offs(p0,0.6666666666666666,265.6666666666667,20), v10, z10, tool0;
	MoveL Offs(p0,0.6666666666666666,265.6666666666667,0), v10, z10, tool0;
	MoveL Offs(p0,0.6666666666666666,265.6666666666667,20), v10, z10, tool0;

	MoveL Offs(p0,0.6666666666666666,266.6666666666667,20), v10, z10, tool0;
	MoveL Offs(p0,0.6666666666666666,266.6666666666667,0), v10, z10, tool0;
	MoveL Offs(p0,0.6666666666666666,266.6666666666667,20), v10, z10, tool0;

	MoveL Offs(p0,0.6666666666666666,267.0,20), v10, z10, tool0;
	MoveL Offs(p0,0.6666666666666666,267.0,0), v10, z10, tool0;
	MoveL Offs(p0,0.6666666666666666,267.0,20), v10, z10, tool0;

	MoveL Offs(p0,0.6666666666666666,269.3333333333333,20), v10, z10, tool0;
	MoveL Offs(p0,0.6666666666666666,269.3333333333333,0), v10, z10, tool0;
	MoveL Offs(p0,0.6666666666666666,269.3333333333333,20), v10, z10, tool0;

	MoveL Offs(p0,1.0,261.3333333333333,20), v10, z10, tool0;
	MoveL Offs(p0,1.0,261.3333333333333,0), v10, z10, tool0;
	MoveL Offs(p0,1.0,261.3333333333333,20), v10, z10, tool0;

	MoveL Offs(p0,1.0,261.6666666666667,20), v10, z10, tool0;
	MoveL Offs(p0,1.0,261.6666666666667,0), v10, z10, tool0;
	MoveL Offs(p0,1.0,261.6666666666667,20), v10, z10, tool0;

	MoveL Offs(p0,1.0,264.3333333333333,20), v10, z10, tool0;
	MoveL Offs(p0,1.0,264.3333333333333,0), v10, z10, tool0;
	MoveL Offs(p0,1.0,264.3333333333333,20), v10, z10, tool0;

	MoveL Offs(p0,1.0,267.3333333333333,20), v10, z10, tool0;
	MoveL Offs(p0,1.0,267.3333333333333,0), v10, z10, tool0;
	MoveL Offs(p0,1.0,267.3333333333333,20), v10, z10, tool0;

	MoveL Offs(p0,1.0,267.6666666666667,20), v10, z10, tool0;
	MoveL Offs(p0,1.0,267.6666666666667,0), v10, z10, tool0;
	MoveL Offs(p0,1.0,267.6666666666667,20), v10, z10, tool0;

	MoveL Offs(p0,1.0,270.6666666666667,20), v10, z10, tool0;
	MoveL Offs(p0,1.0,270.6666666666667,0), v10, z10, tool0;
	MoveL Offs(p0,1.0,270.6666666666667,20), v10, z10, tool0;

	MoveL Offs(p0,1.0,272.0,20), v10, z10, tool0;
	MoveL Offs(p0,1.0,272.0,0), v10, z10, tool0;
	MoveL Offs(p0,1.0,272.0,20), v10, z10, tool0;

	MoveL Offs(p0,1.3333333333333333,259.6666666666667,20), v10, z10, tool0;
	MoveL Offs(p0,1.3333333333333333,259.6666666666667,0), v10, z10, tool0;
	MoveL Offs(p0,1.3333333333333333,259.6666666666667,20), v10, z10, tool0;

	MoveL Offs(p0,1.3333333333333333,260.0,20), v10, z10, tool0;
	MoveL Offs(p0,1.3333333333333333,260.0,0), v10, z10, tool0;
	MoveL Offs(p0,1.3333333333333333,260.0,20), v10, z10, tool0;

	MoveL Offs(p0,1.3333333333333333,260.3333333333333,20), v10, z10, tool0;
	MoveL Offs(p0,1.3333333333333333,260.3333333333333,0), v10, z10, tool0;
	MoveL Offs(p0,1.3333333333333333,260.3333333333333,20), v10, z10, tool0;

	MoveL Offs(p0,1.3333333333333333,271.6666666666667,20), v10, z10, tool0;
	MoveL Offs(p0,1.3333333333333333,271.6666666666667,0), v10, z10, tool0;
	MoveL Offs(p0,1.3333333333333333,271.6666666666667,20), v10, z10, tool0;

	MoveL Offs(p0,1.3333333333333333,272.0,20), v10, z10, tool0;
	MoveL Offs(p0,1.3333333333333333,272.0,0), v10, z10, tool0;
	MoveL Offs(p0,1.3333333333333333,272.0,20), v10, z10, tool0;

	MoveL Offs(p0,1.3333333333333333,272.3333333333333,20), v10, z10, tool0;
	MoveL Offs(p0,1.3333333333333333,272.3333333333333,0), v10, z10, tool0;
	MoveL Offs(p0,1.3333333333333333,272.3333333333333,20), v10, z10, tool0;

	MoveL Offs(p0,1.3333333333333333,272.6666666666667,20), v10, z10, tool0;
	MoveL Offs(p0,1.3333333333333333,272.6666666666667,0), v10, z10, tool0;
	MoveL Offs(p0,1.3333333333333333,272.6666666666667,20), v10, z10, tool0;

	MoveL Offs(p0,1.3333333333333333,273.0,20), v10, z10, tool0;
	MoveL Offs(p0,1.3333333333333333,273.0,0), v10, z10, tool0;
	MoveL Offs(p0,1.3333333333333333,273.0,20), v10, z10, tool0;

	MoveL Offs(p0,1.6666666666666667,258.3333333333333,20), v10, z10, tool0;
	MoveL Offs(p0,1.6666666666666667,258.3333333333333,0), v10, z10, tool0;
	MoveL Offs(p0,1.6666666666666667,258.3333333333333,20), v10, z10, tool0;

	MoveL Offs(p0,1.6666666666666667,274.6666666666667,20), v10, z10, tool0;
	MoveL Offs(p0,1.6666666666666667,274.6666666666667,0), v10, z10, tool0;
	MoveL Offs(p0,1.6666666666666667,274.6666666666667,20), v10, z10, tool0;

	MoveL Offs(p0,1.6666666666666667,275.0,20), v10, z10, tool0;
	MoveL Offs(p0,1.6666666666666667,275.0,0), v10, z10, tool0;
	MoveL Offs(p0,1.6666666666666667,275.0,20), v10, z10, tool0;

	MoveL Offs(p0,1.6666666666666667,275.3333333333333,20), v10, z10, tool0;
	MoveL Offs(p0,1.6666666666666667,275.3333333333333,0), v10, z10, tool0;
	MoveL Offs(p0,1.6666666666666667,275.3333333333333,20), v10, z10, tool0;

	MoveL Offs(p0,2.0,256.6666666666667,20), v10, z10, tool0;
	MoveL Offs(p0,2.0,256.6666666666667,0), v10, z10, tool0;
	MoveL Offs(p0,2.0,256.6666666666667,20), v10, z10, tool0;

	MoveL Offs(p0,2.0,257.0,20), v10, z10, tool0;
	MoveL Offs(p0,2.0,257.0,0), v10, z10, tool0;
	MoveL Offs(p0,2.0,257.0,20), v10, z10, tool0;

	MoveL Offs(p0,2.0,275.3333333333333,20), v10, z10, tool0;
	MoveL Offs(p0,2.0,275.3333333333333,0), v10, z10, tool0;
	MoveL Offs(p0,2.0,275.3333333333333,20), v10, z10, tool0;

	MoveL Offs(p0,2.0,277.0,20), v10, z10, tool0;
	MoveL Offs(p0,2.0,277.0,0), v10, z10, tool0;
	MoveL Offs(p0,2.0,277.0,20), v10, z10, tool0;

	MoveL Offs(p0,2.3333333333333335,255.66666666666666,20), v10, z10, tool0;
	MoveL Offs(p0,2.3333333333333335,255.66666666666666,0), v10, z10, tool0;
	MoveL Offs(p0,2.3333333333333335,255.66666666666666,20), v10, z10, tool0;

	MoveL Offs(p0,2.3333333333333335,256.0,20), v10, z10, tool0;
	MoveL Offs(p0,2.3333333333333335,256.0,0), v10, z10, tool0;
	MoveL Offs(p0,2.3333333333333335,256.0,20), v10, z10, tool0;

	MoveL Offs(p0,2.3333333333333335,276.3333333333333,20), v10, z10, tool0;
	MoveL Offs(p0,2.3333333333333335,276.3333333333333,0), v10, z10, tool0;
	MoveL Offs(p0,2.3333333333333335,276.3333333333333,20), v10, z10, tool0;

	MoveL Offs(p0,2.3333333333333335,277.6666666666667,20), v10, z10, tool0;
	MoveL Offs(p0,2.3333333333333335,277.6666666666667,0), v10, z10, tool0;
	MoveL Offs(p0,2.3333333333333335,277.6666666666667,20), v10, z10, tool0;

	MoveL Offs(p0,2.3333333333333335,278.0,20), v10, z10, tool0;
	MoveL Offs(p0,2.3333333333333335,278.0,0), v10, z10, tool0;
	MoveL Offs(p0,2.3333333333333335,278.0,20), v10, z10, tool0;

	MoveL Offs(p0,2.3333333333333335,279.0,20), v10, z10, tool0;
	MoveL Offs(p0,2.3333333333333335,279.0,0), v10, z10, tool0;
	MoveL Offs(p0,2.3333333333333335,279.0,20), v10, z10, tool0;

	MoveL Offs(p0,2.6666666666666665,255.0,20), v10, z10, tool0;
	MoveL Offs(p0,2.6666666666666665,255.0,0), v10, z10, tool0;
	MoveL Offs(p0,2.6666666666666665,255.0,20), v10, z10, tool0;

	MoveL Offs(p0,2.6666666666666665,277.0,20), v10, z10, tool0;
	MoveL Offs(p0,2.6666666666666665,277.0,0), v10, z10, tool0;
	MoveL Offs(p0,2.6666666666666665,277.0,20), v10, z10, tool0;

	MoveL Offs(p0,2.6666666666666665,279.0,20), v10, z10, tool0;
	MoveL Offs(p0,2.6666666666666665,279.0,0), v10, z10, tool0;
	MoveL Offs(p0,2.6666666666666665,279.0,20), v10, z10, tool0;

	MoveL Offs(p0,2.6666666666666665,279.3333333333333,20), v10, z10, tool0;
	MoveL Offs(p0,2.6666666666666665,279.3333333333333,0), v10, z10, tool0;
	MoveL Offs(p0,2.6666666666666665,279.3333333333333,20), v10, z10, tool0;

	MoveL Offs(p0,2.6666666666666665,280.3333333333333,20), v10, z10, tool0;
	MoveL Offs(p0,2.6666666666666665,280.3333333333333,0), v10, z10, tool0;
	MoveL Offs(p0,2.6666666666666665,280.3333333333333,20), v10, z10, tool0;

	MoveL Offs(p0,3.0,254.33333333333334,20), v10, z10, tool0;
	MoveL Offs(p0,3.0,254.33333333333334,0), v10, z10, tool0;
	MoveL Offs(p0,3.0,254.33333333333334,20), v10, z10, tool0;

	MoveL Offs(p0,3.0,278.3333333333333,20), v10, z10, tool0;
	MoveL Offs(p0,3.0,278.3333333333333,0), v10, z10, tool0;
	MoveL Offs(p0,3.0,278.3333333333333,20), v10, z10, tool0;

	MoveL Offs(p0,3.0,278.6666666666667,20), v10, z10, tool0;
	MoveL Offs(p0,3.0,278.6666666666667,0), v10, z10, tool0;
	MoveL Offs(p0,3.0,278.6666666666667,20), v10, z10, tool0;

	MoveL Offs(p0,3.0,279.6666666666667,20), v10, z10, tool0;
	MoveL Offs(p0,3.0,279.6666666666667,0), v10, z10, tool0;
	MoveL Offs(p0,3.0,279.6666666666667,20), v10, z10, tool0;

	MoveL Offs(p0,3.0,280.6666666666667,20), v10, z10, tool0;
	MoveL Offs(p0,3.0,280.6666666666667,0), v10, z10, tool0;
	MoveL Offs(p0,3.0,280.6666666666667,20), v10, z10, tool0;

	MoveL Offs(p0,3.3333333333333335,254.0,20), v10, z10, tool0;
	MoveL Offs(p0,3.3333333333333335,254.0,0), v10, z10, tool0;
	MoveL Offs(p0,3.3333333333333335,254.0,20), v10, z10, tool0;

	MoveL Offs(p0,3.3333333333333335,280.0,20), v10, z10, tool0;
	MoveL Offs(p0,3.3333333333333335,280.0,0), v10, z10, tool0;
	MoveL Offs(p0,3.3333333333333335,280.0,20), v10, z10, tool0;

	MoveL Offs(p0,3.3333333333333335,280.3333333333333,20), v10, z10, tool0;
	MoveL Offs(p0,3.3333333333333335,280.3333333333333,0), v10, z10, tool0;
	MoveL Offs(p0,3.3333333333333335,280.3333333333333,20), v10, z10, tool0;

	MoveL Offs(p0,3.3333333333333335,281.0,20), v10, z10, tool0;
	MoveL Offs(p0,3.3333333333333335,281.0,0), v10, z10, tool0;
	MoveL Offs(p0,3.3333333333333335,281.0,20), v10, z10, tool0;

	MoveL Offs(p0,3.3333333333333335,281.3333333333333,20), v10, z10, tool0;
	MoveL Offs(p0,3.3333333333333335,281.3333333333333,0), v10, z10, tool0;
	MoveL Offs(p0,3.3333333333333335,281.3333333333333,20), v10, z10, tool0;

	MoveL Offs(p0,3.6666666666666665,253.66666666666666,20), v10, z10, tool0;
	MoveL Offs(p0,3.6666666666666665,253.66666666666666,0), v10, z10, tool0;
	MoveL Offs(p0,3.6666666666666665,253.66666666666666,20), v10, z10, tool0;

	MoveL Offs(p0,3.6666666666666665,281.6666666666667,20), v10, z10, tool0;
	MoveL Offs(p0,3.6666666666666665,281.6666666666667,0), v10, z10, tool0;
	MoveL Offs(p0,3.6666666666666665,281.6666666666667,20), v10, z10, tool0;

	MoveL Offs(p0,4.0,253.33333333333334,20), v10, z10, tool0;
	MoveL Offs(p0,4.0,253.33333333333334,0), v10, z10, tool0;
	MoveL Offs(p0,4.0,253.33333333333334,20), v10, z10, tool0;

	MoveL Offs(p0,4.0,281.0,20), v10, z10, tool0;
	MoveL Offs(p0,4.0,281.0,0), v10, z10, tool0;
	MoveL Offs(p0,4.0,281.0,20), v10, z10, tool0;

	MoveL Offs(p0,4.0,282.0,20), v10, z10, tool0;
	MoveL Offs(p0,4.0,282.0,0), v10, z10, tool0;
	MoveL Offs(p0,4.0,282.0,20), v10, z10, tool0;

	MoveL Offs(p0,4.333333333333333,252.33333333333334,20), v10, z10, tool0;
	MoveL Offs(p0,4.333333333333333,252.33333333333334,0), v10, z10, tool0;
	MoveL Offs(p0,4.333333333333333,252.33333333333334,20), v10, z10, tool0;

	MoveL Offs(p0,4.333333333333333,282.6666666666667,20), v10, z10, tool0;
	MoveL Offs(p0,4.333333333333333,282.6666666666667,0), v10, z10, tool0;
	MoveL Offs(p0,4.333333333333333,282.6666666666667,20), v10, z10, tool0;

	MoveL Offs(p0,4.666666666666667,251.66666666666666,20), v10, z10, tool0;
	MoveL Offs(p0,4.666666666666667,251.66666666666666,0), v10, z10, tool0;
	MoveL Offs(p0,4.666666666666667,251.66666666666666,20), v10, z10, tool0;

	MoveL Offs(p0,4.666666666666667,283.3333333333333,20), v10, z10, tool0;
	MoveL Offs(p0,4.666666666666667,283.3333333333333,0), v10, z10, tool0;
	MoveL Offs(p0,4.666666666666667,283.3333333333333,20), v10, z10, tool0;

	MoveL Offs(p0,5.0,283.0,20), v10, z10, tool0;
	MoveL Offs(p0,5.0,283.0,0), v10, z10, tool0;
	MoveL Offs(p0,5.0,283.0,20), v10, z10, tool0;

	MoveL Offs(p0,5.0,283.6666666666667,20), v10, z10, tool0;
	MoveL Offs(p0,5.0,283.6666666666667,0), v10, z10, tool0;
	MoveL Offs(p0,5.0,283.6666666666667,20), v10, z10, tool0;

	MoveL Offs(p0,5.333333333333333,251.0,20), v10, z10, tool0;
	MoveL Offs(p0,5.333333333333333,251.0,0), v10, z10, tool0;
	MoveL Offs(p0,5.333333333333333,251.0,20), v10, z10, tool0;

	MoveL Offs(p0,5.333333333333333,283.3333333333333,20), v10, z10, tool0;
	MoveL Offs(p0,5.333333333333333,283.3333333333333,0), v10, z10, tool0;
	MoveL Offs(p0,5.333333333333333,283.3333333333333,20), v10, z10, tool0;

	MoveL Offs(p0,5.333333333333333,284.0,20), v10, z10, tool0;
	MoveL Offs(p0,5.333333333333333,284.0,0), v10, z10, tool0;
	MoveL Offs(p0,5.333333333333333,284.0,20), v10, z10, tool0;

	MoveL Offs(p0,5.666666666666667,250.33333333333334,20), v10, z10, tool0;
	MoveL Offs(p0,5.666666666666667,250.33333333333334,0), v10, z10, tool0;
	MoveL Offs(p0,5.666666666666667,250.33333333333334,20), v10, z10, tool0;

	MoveL Offs(p0,5.666666666666667,283.6666666666667,20), v10, z10, tool0;
	MoveL Offs(p0,5.666666666666667,283.6666666666667,0), v10, z10, tool0;
	MoveL Offs(p0,5.666666666666667,283.6666666666667,20), v10, z10, tool0;

	MoveL Offs(p0,6.0,284.0,20), v10, z10, tool0;
	MoveL Offs(p0,6.0,284.0,0), v10, z10, tool0;
	MoveL Offs(p0,6.0,284.0,20), v10, z10, tool0;

	MoveL Offs(p0,6.0,284.6666666666667,20), v10, z10, tool0;
	MoveL Offs(p0,6.0,284.6666666666667,0), v10, z10, tool0;
	MoveL Offs(p0,6.0,284.6666666666667,20), v10, z10, tool0;

	MoveL Offs(p0,6.333333333333333,249.66666666666666,20), v10, z10, tool0;
	MoveL Offs(p0,6.333333333333333,249.66666666666666,0), v10, z10, tool0;
	MoveL Offs(p0,6.333333333333333,249.66666666666666,20), v10, z10, tool0;

	MoveL Offs(p0,6.333333333333333,284.3333333333333,20), v10, z10, tool0;
	MoveL Offs(p0,6.333333333333333,284.3333333333333,0), v10, z10, tool0;
	MoveL Offs(p0,6.333333333333333,284.3333333333333,20), v10, z10, tool0;

	MoveL Offs(p0,6.666666666666667,249.33333333333334,20), v10, z10, tool0;
	MoveL Offs(p0,6.666666666666667,249.33333333333334,0), v10, z10, tool0;
	MoveL Offs(p0,6.666666666666667,249.33333333333334,20), v10, z10, tool0;

	MoveL Offs(p0,7.0,248.66666666666666,20), v10, z10, tool0;
	MoveL Offs(p0,7.0,248.66666666666666,0), v10, z10, tool0;
	MoveL Offs(p0,7.0,248.66666666666666,20), v10, z10, tool0;

	MoveL Offs(p0,7.0,285.0,20), v10, z10, tool0;
	MoveL Offs(p0,7.0,285.0,0), v10, z10, tool0;
	MoveL Offs(p0,7.0,285.0,20), v10, z10, tool0;

	MoveL Offs(p0,7.0,285.3333333333333,20), v10, z10, tool0;
	MoveL Offs(p0,7.0,285.3333333333333,0), v10, z10, tool0;
	MoveL Offs(p0,7.0,285.3333333333333,20), v10, z10, tool0;

	MoveL Offs(p0,7.333333333333333,286.0,20), v10, z10, tool0;
	MoveL Offs(p0,7.333333333333333,286.0,0), v10, z10, tool0;
	MoveL Offs(p0,7.333333333333333,286.0,20), v10, z10, tool0;

	MoveL Offs(p0,7.666666666666667,248.0,20), v10, z10, tool0;
	MoveL Offs(p0,7.666666666666667,248.0,0), v10, z10, tool0;
	MoveL Offs(p0,7.666666666666667,248.0,20), v10, z10, tool0;

	MoveL Offs(p0,7.666666666666667,286.0,20), v10, z10, tool0;
	MoveL Offs(p0,7.666666666666667,286.0,0), v10, z10, tool0;
	MoveL Offs(p0,7.666666666666667,286.0,20), v10, z10, tool0;

	MoveL Offs(p0,7.666666666666667,286.6666666666667,20), v10, z10, tool0;
	MoveL Offs(p0,7.666666666666667,286.6666666666667,0), v10, z10, tool0;
	MoveL Offs(p0,7.666666666666667,286.6666666666667,20), v10, z10, tool0;

	MoveL Offs(p0,8.0,278.3333333333333,20), v10, z10, tool0;
	MoveL Offs(p0,8.0,278.3333333333333,0), v10, z10, tool0;
	MoveL Offs(p0,8.0,278.3333333333333,20), v10, z10, tool0;

	MoveL Offs(p0,8.0,278.6666666666667,20), v10, z10, tool0;
	MoveL Offs(p0,8.0,278.6666666666667,0), v10, z10, tool0;
	MoveL Offs(p0,8.0,278.6666666666667,20), v10, z10, tool0;

	MoveL Offs(p0,8.0,279.3333333333333,20), v10, z10, tool0;
	MoveL Offs(p0,8.0,279.3333333333333,0), v10, z10, tool0;
	MoveL Offs(p0,8.0,279.3333333333333,20), v10, z10, tool0;

	MoveL Offs(p0,8.0,279.6666666666667,20), v10, z10, tool0;
	MoveL Offs(p0,8.0,279.6666666666667,0), v10, z10, tool0;
	MoveL Offs(p0,8.0,279.6666666666667,20), v10, z10, tool0;

	MoveL Offs(p0,8.0,286.3333333333333,20), v10, z10, tool0;
	MoveL Offs(p0,8.0,286.3333333333333,0), v10, z10, tool0;
	MoveL Offs(p0,8.0,286.3333333333333,20), v10, z10, tool0;

	MoveL Offs(p0,8.333333333333334,247.33333333333334,20), v10, z10, tool0;
	MoveL Offs(p0,8.333333333333334,247.33333333333334,0), v10, z10, tool0;
	MoveL Offs(p0,8.333333333333334,247.33333333333334,20), v10, z10, tool0;

	MoveL Offs(p0,8.333333333333334,278.3333333333333,20), v10, z10, tool0;
	MoveL Offs(p0,8.333333333333334,278.3333333333333,0), v10, z10, tool0;
	MoveL Offs(p0,8.333333333333334,278.3333333333333,20), v10, z10, tool0;

	MoveL Offs(p0,8.333333333333334,286.6666666666667,20), v10, z10, tool0;
	MoveL Offs(p0,8.333333333333334,286.6666666666667,0), v10, z10, tool0;
	MoveL Offs(p0,8.333333333333334,286.6666666666667,20), v10, z10, tool0;

	MoveL Offs(p0,8.333333333333334,287.0,20), v10, z10, tool0;
	MoveL Offs(p0,8.333333333333334,287.0,0), v10, z10, tool0;
	MoveL Offs(p0,8.333333333333334,287.0,20), v10, z10, tool0;

	MoveL Offs(p0,8.666666666666666,277.0,20), v10, z10, tool0;
	MoveL Offs(p0,8.666666666666666,277.0,0), v10, z10, tool0;
	MoveL Offs(p0,8.666666666666666,277.0,20), v10, z10, tool0;

	MoveL Offs(p0,8.666666666666666,277.3333333333333,20), v10, z10, tool0;
	MoveL Offs(p0,8.666666666666666,277.3333333333333,0), v10, z10, tool0;
	MoveL Offs(p0,8.666666666666666,277.3333333333333,20), v10, z10, tool0;

	MoveL Offs(p0,8.666666666666666,277.6666666666667,20), v10, z10, tool0;
	MoveL Offs(p0,8.666666666666666,277.6666666666667,0), v10, z10, tool0;
	MoveL Offs(p0,8.666666666666666,277.6666666666667,20), v10, z10, tool0;

	MoveL Offs(p0,8.666666666666666,282.3333333333333,20), v10, z10, tool0;
	MoveL Offs(p0,8.666666666666666,282.3333333333333,0), v10, z10, tool0;
	MoveL Offs(p0,8.666666666666666,282.3333333333333,20), v10, z10, tool0;

	MoveL Offs(p0,8.666666666666666,282.6666666666667,20), v10, z10, tool0;
	MoveL Offs(p0,8.666666666666666,282.6666666666667,0), v10, z10, tool0;
	MoveL Offs(p0,8.666666666666666,282.6666666666667,20), v10, z10, tool0;

	MoveL Offs(p0,9.0,247.0,20), v10, z10, tool0;
	MoveL Offs(p0,9.0,247.0,0), v10, z10, tool0;
	MoveL Offs(p0,9.0,247.0,20), v10, z10, tool0;

	MoveL Offs(p0,9.0,276.6666666666667,20), v10, z10, tool0;
	MoveL Offs(p0,9.0,276.6666666666667,0), v10, z10, tool0;
	MoveL Offs(p0,9.0,276.6666666666667,20), v10, z10, tool0;

	MoveL Offs(p0,9.0,287.3333333333333,20), v10, z10, tool0;
	MoveL Offs(p0,9.0,287.3333333333333,0), v10, z10, tool0;
	MoveL Offs(p0,9.0,287.3333333333333,20), v10, z10, tool0;

	MoveL Offs(p0,9.0,288.0,20), v10, z10, tool0;
	MoveL Offs(p0,9.0,288.0,0), v10, z10, tool0;
	MoveL Offs(p0,9.0,288.0,20), v10, z10, tool0;

	MoveL Offs(p0,9.333333333333334,246.33333333333334,20), v10, z10, tool0;
	MoveL Offs(p0,9.333333333333334,246.33333333333334,0), v10, z10, tool0;
	MoveL Offs(p0,9.333333333333334,246.33333333333334,20), v10, z10, tool0;

	MoveL Offs(p0,9.333333333333334,288.0,20), v10, z10, tool0;
	MoveL Offs(p0,9.333333333333334,288.0,0), v10, z10, tool0;
	MoveL Offs(p0,9.333333333333334,288.0,20), v10, z10, tool0;

	MoveL Offs(p0,9.666666666666666,276.3333333333333,20), v10, z10, tool0;
	MoveL Offs(p0,9.666666666666666,276.3333333333333,0), v10, z10, tool0;
	MoveL Offs(p0,9.666666666666666,276.3333333333333,20), v10, z10, tool0;

	MoveL Offs(p0,10.0,246.0,20), v10, z10, tool0;
	MoveL Offs(p0,10.0,246.0,0), v10, z10, tool0;
	MoveL Offs(p0,10.0,246.0,20), v10, z10, tool0;

	MoveL Offs(p0,10.0,275.6666666666667,20), v10, z10, tool0;
	MoveL Offs(p0,10.0,275.6666666666667,0), v10, z10, tool0;
	MoveL Offs(p0,10.0,275.6666666666667,20), v10, z10, tool0;

	MoveL Offs(p0,10.0,284.0,20), v10, z10, tool0;
	MoveL Offs(p0,10.0,284.0,0), v10, z10, tool0;
	MoveL Offs(p0,10.0,284.0,20), v10, z10, tool0;

	MoveL Offs(p0,10.0,288.0,20), v10, z10, tool0;
	MoveL Offs(p0,10.0,288.0,0), v10, z10, tool0;
	MoveL Offs(p0,10.0,288.0,20), v10, z10, tool0;

	MoveL Offs(p0,10.0,288.3333333333333,20), v10, z10, tool0;
	MoveL Offs(p0,10.0,288.3333333333333,0), v10, z10, tool0;
	MoveL Offs(p0,10.0,288.3333333333333,20), v10, z10, tool0;

	MoveL Offs(p0,10.0,288.6666666666667,20), v10, z10, tool0;
	MoveL Offs(p0,10.0,288.6666666666667,0), v10, z10, tool0;
	MoveL Offs(p0,10.0,288.6666666666667,20), v10, z10, tool0;

	MoveL Offs(p0,10.333333333333334,275.6666666666667,20), v10, z10, tool0;
	MoveL Offs(p0,10.333333333333334,275.6666666666667,0), v10, z10, tool0;
	MoveL Offs(p0,10.333333333333334,275.6666666666667,20), v10, z10, tool0;

	MoveL Offs(p0,10.333333333333334,284.6666666666667,20), v10, z10, tool0;
	MoveL Offs(p0,10.333333333333334,284.6666666666667,0), v10, z10, tool0;
	MoveL Offs(p0,10.333333333333334,284.6666666666667,20), v10, z10, tool0;

	MoveL Offs(p0,10.666666666666666,275.3333333333333,20), v10, z10, tool0;
	MoveL Offs(p0,10.666666666666666,275.3333333333333,0), v10, z10, tool0;
	MoveL Offs(p0,10.666666666666666,275.3333333333333,20), v10, z10, tool0;

	MoveL Offs(p0,10.666666666666666,288.6666666666667,20), v10, z10, tool0;
	MoveL Offs(p0,10.666666666666666,288.6666666666667,0), v10, z10, tool0;
	MoveL Offs(p0,10.666666666666666,288.6666666666667,20), v10, z10, tool0;

	MoveL Offs(p0,11.0,281.3333333333333,20), v10, z10, tool0;
	MoveL Offs(p0,11.0,281.3333333333333,0), v10, z10, tool0;
	MoveL Offs(p0,11.0,281.3333333333333,20), v10, z10, tool0;

	MoveL Offs(p0,11.0,285.0,20), v10, z10, tool0;
	MoveL Offs(p0,11.0,285.0,0), v10, z10, tool0;
	MoveL Offs(p0,11.0,285.0,20), v10, z10, tool0;

	MoveL Offs(p0,11.0,285.3333333333333,20), v10, z10, tool0;
	MoveL Offs(p0,11.0,285.3333333333333,0), v10, z10, tool0;
	MoveL Offs(p0,11.0,285.3333333333333,20), v10, z10, tool0;

	MoveL Offs(p0,11.0,289.0,20), v10, z10, tool0;
	MoveL Offs(p0,11.0,289.0,0), v10, z10, tool0;
	MoveL Offs(p0,11.0,289.0,20), v10, z10, tool0;

	MoveL Offs(p0,11.333333333333334,245.0,20), v10, z10, tool0;
	MoveL Offs(p0,11.333333333333334,245.0,0), v10, z10, tool0;
	MoveL Offs(p0,11.333333333333334,245.0,20), v10, z10, tool0;

	MoveL Offs(p0,11.333333333333334,275.0,20), v10, z10, tool0;
	MoveL Offs(p0,11.333333333333334,275.0,0), v10, z10, tool0;
	MoveL Offs(p0,11.333333333333334,275.0,20), v10, z10, tool0;

	MoveL Offs(p0,11.333333333333334,279.3333333333333,20), v10, z10, tool0;
	MoveL Offs(p0,11.333333333333334,279.3333333333333,0), v10, z10, tool0;
	MoveL Offs(p0,11.333333333333334,279.3333333333333,20), v10, z10, tool0;

	MoveL Offs(p0,11.333333333333334,281.0,20), v10, z10, tool0;
	MoveL Offs(p0,11.333333333333334,281.0,0), v10, z10, tool0;
	MoveL Offs(p0,11.333333333333334,281.0,20), v10, z10, tool0;

	MoveL Offs(p0,11.333333333333334,282.6666666666667,20), v10, z10, tool0;
	MoveL Offs(p0,11.333333333333334,282.6666666666667,0), v10, z10, tool0;
	MoveL Offs(p0,11.333333333333334,282.6666666666667,20), v10, z10, tool0;

	MoveL Offs(p0,11.333333333333334,286.0,20), v10, z10, tool0;
	MoveL Offs(p0,11.333333333333334,286.0,0), v10, z10, tool0;
	MoveL Offs(p0,11.333333333333334,286.0,20), v10, z10, tool0;

	MoveL Offs(p0,11.333333333333334,289.3333333333333,20), v10, z10, tool0;
	MoveL Offs(p0,11.333333333333334,289.3333333333333,0), v10, z10, tool0;
	MoveL Offs(p0,11.333333333333334,289.3333333333333,20), v10, z10, tool0;

	MoveL Offs(p0,11.666666666666666,274.6666666666667,20), v10, z10, tool0;
	MoveL Offs(p0,11.666666666666666,274.6666666666667,0), v10, z10, tool0;
	MoveL Offs(p0,11.666666666666666,274.6666666666667,20), v10, z10, tool0;

	MoveL Offs(p0,11.666666666666666,278.6666666666667,20), v10, z10, tool0;
	MoveL Offs(p0,11.666666666666666,278.6666666666667,0), v10, z10, tool0;
	MoveL Offs(p0,11.666666666666666,278.6666666666667,20), v10, z10, tool0;

	MoveL Offs(p0,11.666666666666666,279.0,20), v10, z10, tool0;
	MoveL Offs(p0,11.666666666666666,279.0,0), v10, z10, tool0;
	MoveL Offs(p0,11.666666666666666,279.0,20), v10, z10, tool0;

	MoveL Offs(p0,11.666666666666666,283.3333333333333,20), v10, z10, tool0;
	MoveL Offs(p0,11.666666666666666,283.3333333333333,0), v10, z10, tool0;
	MoveL Offs(p0,11.666666666666666,283.3333333333333,20), v10, z10, tool0;

	MoveL Offs(p0,11.666666666666666,290.0,20), v10, z10, tool0;
	MoveL Offs(p0,11.666666666666666,290.0,0), v10, z10, tool0;
	MoveL Offs(p0,11.666666666666666,290.0,20), v10, z10, tool0;

	MoveL Offs(p0,12.0,277.6666666666667,20), v10, z10, tool0;
	MoveL Offs(p0,12.0,277.6666666666667,0), v10, z10, tool0;
	MoveL Offs(p0,12.0,277.6666666666667,20), v10, z10, tool0;

	MoveL Offs(p0,12.0,283.6666666666667,20), v10, z10, tool0;
	MoveL Offs(p0,12.0,283.6666666666667,0), v10, z10, tool0;
	MoveL Offs(p0,12.0,283.6666666666667,20), v10, z10, tool0;

	MoveL Offs(p0,12.0,286.0,20), v10, z10, tool0;
	MoveL Offs(p0,12.0,286.0,0), v10, z10, tool0;
	MoveL Offs(p0,12.0,286.0,20), v10, z10, tool0;

	MoveL Offs(p0,12.333333333333334,244.33333333333334,20), v10, z10, tool0;
	MoveL Offs(p0,12.333333333333334,244.33333333333334,0), v10, z10, tool0;
	MoveL Offs(p0,12.333333333333334,244.33333333333334,20), v10, z10, tool0;

	MoveL Offs(p0,12.333333333333334,274.3333333333333,20), v10, z10, tool0;
	MoveL Offs(p0,12.333333333333334,274.3333333333333,0), v10, z10, tool0;
	MoveL Offs(p0,12.333333333333334,274.3333333333333,20), v10, z10, tool0;

	MoveL Offs(p0,12.333333333333334,277.6666666666667,20), v10, z10, tool0;
	MoveL Offs(p0,12.333333333333334,277.6666666666667,0), v10, z10, tool0;
	MoveL Offs(p0,12.333333333333334,277.6666666666667,20), v10, z10, tool0;

	MoveL Offs(p0,12.333333333333334,278.0,20), v10, z10, tool0;
	MoveL Offs(p0,12.333333333333334,278.0,0), v10, z10, tool0;
	MoveL Offs(p0,12.333333333333334,278.0,20), v10, z10, tool0;

	MoveL Offs(p0,12.333333333333334,283.3333333333333,20), v10, z10, tool0;
	MoveL Offs(p0,12.333333333333334,283.3333333333333,0), v10, z10, tool0;
	MoveL Offs(p0,12.333333333333334,283.3333333333333,20), v10, z10, tool0;

	MoveL Offs(p0,12.333333333333334,286.3333333333333,20), v10, z10, tool0;
	MoveL Offs(p0,12.333333333333334,286.3333333333333,0), v10, z10, tool0;
	MoveL Offs(p0,12.333333333333334,286.3333333333333,20), v10, z10, tool0;

	MoveL Offs(p0,12.333333333333334,289.6666666666667,20), v10, z10, tool0;
	MoveL Offs(p0,12.333333333333334,289.6666666666667,0), v10, z10, tool0;
	MoveL Offs(p0,12.333333333333334,289.6666666666667,20), v10, z10, tool0;

	MoveL Offs(p0,12.666666666666666,277.3333333333333,20), v10, z10, tool0;
	MoveL Offs(p0,12.666666666666666,277.3333333333333,0), v10, z10, tool0;
	MoveL Offs(p0,12.666666666666666,277.3333333333333,20), v10, z10, tool0;

	MoveL Offs(p0,12.666666666666666,284.0,20), v10, z10, tool0;
	MoveL Offs(p0,12.666666666666666,284.0,0), v10, z10, tool0;
	MoveL Offs(p0,12.666666666666666,284.0,20), v10, z10, tool0;

	MoveL Offs(p0,12.666666666666666,287.0,20), v10, z10, tool0;
	MoveL Offs(p0,12.666666666666666,287.0,0), v10, z10, tool0;
	MoveL Offs(p0,12.666666666666666,287.0,20), v10, z10, tool0;

	MoveL Offs(p0,12.666666666666666,290.0,20), v10, z10, tool0;
	MoveL Offs(p0,12.666666666666666,290.0,0), v10, z10, tool0;
	MoveL Offs(p0,12.666666666666666,290.0,20), v10, z10, tool0;

	MoveL Offs(p0,13.0,274.0,20), v10, z10, tool0;
	MoveL Offs(p0,13.0,274.0,0), v10, z10, tool0;
	MoveL Offs(p0,13.0,274.0,20), v10, z10, tool0;

	MoveL Offs(p0,13.0,277.0,20), v10, z10, tool0;
	MoveL Offs(p0,13.0,277.0,0), v10, z10, tool0;
	MoveL Offs(p0,13.0,277.0,20), v10, z10, tool0;

	MoveL Offs(p0,13.0,277.3333333333333,20), v10, z10, tool0;
	MoveL Offs(p0,13.0,277.3333333333333,0), v10, z10, tool0;
	MoveL Offs(p0,13.0,277.3333333333333,20), v10, z10, tool0;

	MoveL Offs(p0,13.0,285.0,20), v10, z10, tool0;
	MoveL Offs(p0,13.0,285.0,0), v10, z10, tool0;
	MoveL Offs(p0,13.0,285.0,20), v10, z10, tool0;

	MoveL Offs(p0,13.333333333333334,284.6666666666667,20), v10, z10, tool0;
	MoveL Offs(p0,13.333333333333334,284.6666666666667,0), v10, z10, tool0;
	MoveL Offs(p0,13.333333333333334,284.6666666666667,20), v10, z10, tool0;

	MoveL Offs(p0,13.333333333333334,287.0,20), v10, z10, tool0;
	MoveL Offs(p0,13.333333333333334,287.0,0), v10, z10, tool0;
	MoveL Offs(p0,13.333333333333334,287.0,20), v10, z10, tool0;

	MoveL Offs(p0,13.666666666666666,243.66666666666666,20), v10, z10, tool0;
	MoveL Offs(p0,13.666666666666666,243.66666666666666,0), v10, z10, tool0;
	MoveL Offs(p0,13.666666666666666,243.66666666666666,20), v10, z10, tool0;

	MoveL Offs(p0,13.666666666666666,273.6666666666667,20), v10, z10, tool0;
	MoveL Offs(p0,13.666666666666666,273.6666666666667,0), v10, z10, tool0;
	MoveL Offs(p0,13.666666666666666,273.6666666666667,20), v10, z10, tool0;

	MoveL Offs(p0,13.666666666666666,277.0,20), v10, z10, tool0;
	MoveL Offs(p0,13.666666666666666,277.0,0), v10, z10, tool0;
	MoveL Offs(p0,13.666666666666666,277.0,20), v10, z10, tool0;

	MoveL Offs(p0,13.666666666666666,285.0,20), v10, z10, tool0;
	MoveL Offs(p0,13.666666666666666,285.0,0), v10, z10, tool0;
	MoveL Offs(p0,13.666666666666666,285.0,20), v10, z10, tool0;

	MoveL Offs(p0,13.666666666666666,285.3333333333333,20), v10, z10, tool0;
	MoveL Offs(p0,13.666666666666666,285.3333333333333,0), v10, z10, tool0;
	MoveL Offs(p0,13.666666666666666,285.3333333333333,20), v10, z10, tool0;

	MoveL Offs(p0,13.666666666666666,290.6666666666667,20), v10, z10, tool0;
	MoveL Offs(p0,13.666666666666666,290.6666666666667,0), v10, z10, tool0;
	MoveL Offs(p0,13.666666666666666,290.6666666666667,20), v10, z10, tool0;

	MoveL Offs(p0,14.0,276.3333333333333,20), v10, z10, tool0;
	MoveL Offs(p0,14.0,276.3333333333333,0), v10, z10, tool0;
	MoveL Offs(p0,14.0,276.3333333333333,20), v10, z10, tool0;

	MoveL Offs(p0,14.0,286.0,20), v10, z10, tool0;
	MoveL Offs(p0,14.0,286.0,0), v10, z10, tool0;
	MoveL Offs(p0,14.0,286.0,20), v10, z10, tool0;

	MoveL Offs(p0,14.333333333333334,243.33333333333334,20), v10, z10, tool0;
	MoveL Offs(p0,14.333333333333334,243.33333333333334,0), v10, z10, tool0;
	MoveL Offs(p0,14.333333333333334,243.33333333333334,20), v10, z10, tool0;

	MoveL Offs(p0,14.333333333333334,276.6666666666667,20), v10, z10, tool0;
	MoveL Offs(p0,14.333333333333334,276.6666666666667,0), v10, z10, tool0;
	MoveL Offs(p0,14.333333333333334,276.6666666666667,20), v10, z10, tool0;

	MoveL Offs(p0,14.333333333333334,285.6666666666667,20), v10, z10, tool0;
	MoveL Offs(p0,14.333333333333334,285.6666666666667,0), v10, z10, tool0;
	MoveL Offs(p0,14.333333333333334,285.6666666666667,20), v10, z10, tool0;

	MoveL Offs(p0,14.333333333333334,288.0,20), v10, z10, tool0;
	MoveL Offs(p0,14.333333333333334,288.0,0), v10, z10, tool0;
	MoveL Offs(p0,14.333333333333334,288.0,20), v10, z10, tool0;

	MoveL Offs(p0,14.666666666666666,243.0,20), v10, z10, tool0;
	MoveL Offs(p0,14.666666666666666,243.0,0), v10, z10, tool0;
	MoveL Offs(p0,14.666666666666666,243.0,20), v10, z10, tool0;

	MoveL Offs(p0,14.666666666666666,276.0,20), v10, z10, tool0;
	MoveL Offs(p0,14.666666666666666,276.0,0), v10, z10, tool0;
	MoveL Offs(p0,14.666666666666666,276.0,20), v10, z10, tool0;

	MoveL Offs(p0,14.666666666666666,276.3333333333333,20), v10, z10, tool0;
	MoveL Offs(p0,14.666666666666666,276.3333333333333,0), v10, z10, tool0;
	MoveL Offs(p0,14.666666666666666,276.3333333333333,20), v10, z10, tool0;

	MoveL Offs(p0,14.666666666666666,291.6666666666667,20), v10, z10, tool0;
	MoveL Offs(p0,14.666666666666666,291.6666666666667,0), v10, z10, tool0;
	MoveL Offs(p0,14.666666666666666,291.6666666666667,20), v10, z10, tool0;

	MoveL Offs(p0,15.0,273.3333333333333,20), v10, z10, tool0;
	MoveL Offs(p0,15.0,273.3333333333333,0), v10, z10, tool0;
	MoveL Offs(p0,15.0,273.3333333333333,20), v10, z10, tool0;

	MoveL Offs(p0,15.0,286.3333333333333,20), v10, z10, tool0;
	MoveL Offs(p0,15.0,286.3333333333333,0), v10, z10, tool0;
	MoveL Offs(p0,15.0,286.3333333333333,20), v10, z10, tool0;

	MoveL Offs(p0,15.0,286.6666666666667,20), v10, z10, tool0;
	MoveL Offs(p0,15.0,286.6666666666667,0), v10, z10, tool0;
	MoveL Offs(p0,15.0,286.6666666666667,20), v10, z10, tool0;

	MoveL Offs(p0,15.0,288.6666666666667,20), v10, z10, tool0;
	MoveL Offs(p0,15.0,288.6666666666667,0), v10, z10, tool0;
	MoveL Offs(p0,15.0,288.6666666666667,20), v10, z10, tool0;

	MoveL Offs(p0,15.333333333333334,275.6666666666667,20), v10, z10, tool0;
	MoveL Offs(p0,15.333333333333334,275.6666666666667,0), v10, z10, tool0;
	MoveL Offs(p0,15.333333333333334,275.6666666666667,20), v10, z10, tool0;

	MoveL Offs(p0,15.333333333333334,287.0,20), v10, z10, tool0;
	MoveL Offs(p0,15.333333333333334,287.0,0), v10, z10, tool0;
	MoveL Offs(p0,15.333333333333334,287.0,20), v10, z10, tool0;

	MoveL Offs(p0,15.333333333333334,289.0,20), v10, z10, tool0;
	MoveL Offs(p0,15.333333333333334,289.0,0), v10, z10, tool0;
	MoveL Offs(p0,15.333333333333334,289.0,20), v10, z10, tool0;

	MoveL Offs(p0,15.333333333333334,291.6666666666667,20), v10, z10, tool0;
	MoveL Offs(p0,15.333333333333334,291.6666666666667,0), v10, z10, tool0;
	MoveL Offs(p0,15.333333333333334,291.6666666666667,20), v10, z10, tool0;

	MoveL Offs(p0,15.333333333333334,292.0,20), v10, z10, tool0;
	MoveL Offs(p0,15.333333333333334,292.0,0), v10, z10, tool0;
	MoveL Offs(p0,15.333333333333334,292.0,20), v10, z10, tool0;

	MoveL Offs(p0,15.666666666666666,242.66666666666666,20), v10, z10, tool0;
	MoveL Offs(p0,15.666666666666666,242.66666666666666,0), v10, z10, tool0;
	MoveL Offs(p0,15.666666666666666,242.66666666666666,20), v10, z10, tool0;

	MoveL Offs(p0,15.666666666666666,273.0,20), v10, z10, tool0;
	MoveL Offs(p0,15.666666666666666,273.0,0), v10, z10, tool0;
	MoveL Offs(p0,15.666666666666666,273.0,20), v10, z10, tool0;

	MoveL Offs(p0,15.666666666666666,286.6666666666667,20), v10, z10, tool0;
	MoveL Offs(p0,15.666666666666666,286.6666666666667,0), v10, z10, tool0;
	MoveL Offs(p0,15.666666666666666,286.6666666666667,20), v10, z10, tool0;

	MoveL Offs(p0,15.666666666666666,292.6666666666667,20), v10, z10, tool0;
	MoveL Offs(p0,15.666666666666666,292.6666666666667,0), v10, z10, tool0;
	MoveL Offs(p0,15.666666666666666,292.6666666666667,20), v10, z10, tool0;

	MoveL Offs(p0,16.0,273.0,20), v10, z10, tool0;
	MoveL Offs(p0,16.0,273.0,0), v10, z10, tool0;
	MoveL Offs(p0,16.0,273.0,20), v10, z10, tool0;

	MoveL Offs(p0,16.0,275.3333333333333,20), v10, z10, tool0;
	MoveL Offs(p0,16.0,275.3333333333333,0), v10, z10, tool0;
	MoveL Offs(p0,16.0,275.3333333333333,20), v10, z10, tool0;

	MoveL Offs(p0,16.0,283.0,20), v10, z10, tool0;
	MoveL Offs(p0,16.0,283.0,0), v10, z10, tool0;
	MoveL Offs(p0,16.0,283.0,20), v10, z10, tool0;

	MoveL Offs(p0,16.0,287.0,20), v10, z10, tool0;
	MoveL Offs(p0,16.0,287.0,0), v10, z10, tool0;
	MoveL Offs(p0,16.0,287.0,20), v10, z10, tool0;

	MoveL Offs(p0,16.0,287.6666666666667,20), v10, z10, tool0;
	MoveL Offs(p0,16.0,287.6666666666667,0), v10, z10, tool0;
	MoveL Offs(p0,16.0,287.6666666666667,20), v10, z10, tool0;

	MoveL Offs(p0,16.0,292.6666666666667,20), v10, z10, tool0;
	MoveL Offs(p0,16.0,292.6666666666667,0), v10, z10, tool0;
	MoveL Offs(p0,16.0,292.6666666666667,20), v10, z10, tool0;

	MoveL Offs(p0,16.333333333333332,273.0,20), v10, z10, tool0;
	MoveL Offs(p0,16.333333333333332,273.0,0), v10, z10, tool0;
	MoveL Offs(p0,16.333333333333332,273.0,20), v10, z10, tool0;

	MoveL Offs(p0,16.333333333333332,275.6666666666667,20), v10, z10, tool0;
	MoveL Offs(p0,16.333333333333332,275.6666666666667,0), v10, z10, tool0;
	MoveL Offs(p0,16.333333333333332,275.6666666666667,20), v10, z10, tool0;

	MoveL Offs(p0,16.333333333333332,282.6666666666667,20), v10, z10, tool0;
	MoveL Offs(p0,16.333333333333332,282.6666666666667,0), v10, z10, tool0;
	MoveL Offs(p0,16.333333333333332,282.6666666666667,20), v10, z10, tool0;

	MoveL Offs(p0,16.333333333333332,283.0,20), v10, z10, tool0;
	MoveL Offs(p0,16.333333333333332,283.0,0), v10, z10, tool0;
	MoveL Offs(p0,16.333333333333332,283.0,20), v10, z10, tool0;

	MoveL Offs(p0,16.333333333333332,289.3333333333333,20), v10, z10, tool0;
	MoveL Offs(p0,16.333333333333332,289.3333333333333,0), v10, z10, tool0;
	MoveL Offs(p0,16.333333333333332,289.3333333333333,20), v10, z10, tool0;

	MoveL Offs(p0,16.333333333333332,292.3333333333333,20), v10, z10, tool0;
	MoveL Offs(p0,16.333333333333332,292.3333333333333,0), v10, z10, tool0;
	MoveL Offs(p0,16.333333333333332,292.3333333333333,20), v10, z10, tool0;

	MoveL Offs(p0,16.333333333333332,293.0,20), v10, z10, tool0;
	MoveL Offs(p0,16.333333333333332,293.0,0), v10, z10, tool0;
	MoveL Offs(p0,16.333333333333332,293.0,20), v10, z10, tool0;

	MoveL Offs(p0,16.666666666666668,275.0,20), v10, z10, tool0;
	MoveL Offs(p0,16.666666666666668,275.0,0), v10, z10, tool0;
	MoveL Offs(p0,16.666666666666668,275.0,20), v10, z10, tool0;

	MoveL Offs(p0,16.666666666666668,288.0,20), v10, z10, tool0;
	MoveL Offs(p0,16.666666666666668,288.0,0), v10, z10, tool0;
	MoveL Offs(p0,16.666666666666668,288.0,20), v10, z10, tool0;

	MoveL Offs(p0,16.666666666666668,289.3333333333333,20), v10, z10, tool0;
	MoveL Offs(p0,16.666666666666668,289.3333333333333,0), v10, z10, tool0;
	MoveL Offs(p0,16.666666666666668,289.3333333333333,20), v10, z10, tool0;

	MoveL Offs(p0,16.666666666666668,292.6666666666667,20), v10, z10, tool0;
	MoveL Offs(p0,16.666666666666668,292.6666666666667,0), v10, z10, tool0;
	MoveL Offs(p0,16.666666666666668,292.6666666666667,20), v10, z10, tool0;

	MoveL Offs(p0,16.666666666666668,293.3333333333333,20), v10, z10, tool0;
	MoveL Offs(p0,16.666666666666668,293.3333333333333,0), v10, z10, tool0;
	MoveL Offs(p0,16.666666666666668,293.3333333333333,20), v10, z10, tool0;

	MoveL Offs(p0,17.0,272.6666666666667,20), v10, z10, tool0;
	MoveL Offs(p0,17.0,272.6666666666667,0), v10, z10, tool0;
	MoveL Offs(p0,17.0,272.6666666666667,20), v10, z10, tool0;

	MoveL Offs(p0,17.0,280.6666666666667,20), v10, z10, tool0;
	MoveL Offs(p0,17.0,280.6666666666667,0), v10, z10, tool0;
	MoveL Offs(p0,17.0,280.6666666666667,20), v10, z10, tool0;

	MoveL Offs(p0,17.0,288.3333333333333,20), v10, z10, tool0;
	MoveL Offs(p0,17.0,288.3333333333333,0), v10, z10, tool0;
	MoveL Offs(p0,17.0,288.3333333333333,20), v10, z10, tool0;

	MoveL Offs(p0,17.0,292.6666666666667,20), v10, z10, tool0;
	MoveL Offs(p0,17.0,292.6666666666667,0), v10, z10, tool0;
	MoveL Offs(p0,17.0,292.6666666666667,20), v10, z10, tool0;

	MoveL Offs(p0,17.333333333333332,241.33333333333334,20), v10, z10, tool0;
	MoveL Offs(p0,17.333333333333332,241.33333333333334,0), v10, z10, tool0;
	MoveL Offs(p0,17.333333333333332,241.33333333333334,20), v10, z10, tool0;

	MoveL Offs(p0,17.333333333333332,280.6666666666667,20), v10, z10, tool0;
	MoveL Offs(p0,17.333333333333332,280.6666666666667,0), v10, z10, tool0;
	MoveL Offs(p0,17.333333333333332,280.6666666666667,20), v10, z10, tool0;

	MoveL Offs(p0,17.333333333333332,293.0,20), v10, z10, tool0;
	MoveL Offs(p0,17.333333333333332,293.0,0), v10, z10, tool0;
	MoveL Offs(p0,17.333333333333332,293.0,20), v10, z10, tool0;

	MoveL Offs(p0,17.666666666666668,241.33333333333334,20), v10, z10, tool0;
	MoveL Offs(p0,17.666666666666668,241.33333333333334,0), v10, z10, tool0;
	MoveL Offs(p0,17.666666666666668,241.33333333333334,20), v10, z10, tool0;

	MoveL Offs(p0,17.666666666666668,282.0,20), v10, z10, tool0;
	MoveL Offs(p0,17.666666666666668,282.0,0), v10, z10, tool0;
	MoveL Offs(p0,17.666666666666668,282.0,20), v10, z10, tool0;

	MoveL Offs(p0,17.666666666666668,284.6666666666667,20), v10, z10, tool0;
	MoveL Offs(p0,17.666666666666668,284.6666666666667,0), v10, z10, tool0;
	MoveL Offs(p0,17.666666666666668,284.6666666666667,20), v10, z10, tool0;

	MoveL Offs(p0,17.666666666666668,288.3333333333333,20), v10, z10, tool0;
	MoveL Offs(p0,17.666666666666668,288.3333333333333,0), v10, z10, tool0;
	MoveL Offs(p0,17.666666666666668,288.3333333333333,20), v10, z10, tool0;

	MoveL Offs(p0,17.666666666666668,293.3333333333333,20), v10, z10, tool0;
	MoveL Offs(p0,17.666666666666668,293.3333333333333,0), v10, z10, tool0;
	MoveL Offs(p0,17.666666666666668,293.3333333333333,20), v10, z10, tool0;

	MoveL Offs(p0,18.0,241.33333333333334,20), v10, z10, tool0;
	MoveL Offs(p0,18.0,241.33333333333334,0), v10, z10, tool0;
	MoveL Offs(p0,18.0,241.33333333333334,20), v10, z10, tool0;

	MoveL Offs(p0,18.0,274.6666666666667,20), v10, z10, tool0;
	MoveL Offs(p0,18.0,274.6666666666667,0), v10, z10, tool0;
	MoveL Offs(p0,18.0,274.6666666666667,20), v10, z10, tool0;

	MoveL Offs(p0,18.0,285.0,20), v10, z10, tool0;
	MoveL Offs(p0,18.0,285.0,0), v10, z10, tool0;
	MoveL Offs(p0,18.0,285.0,20), v10, z10, tool0;

	MoveL Offs(p0,18.0,290.0,20), v10, z10, tool0;
	MoveL Offs(p0,18.0,290.0,0), v10, z10, tool0;
	MoveL Offs(p0,18.0,290.0,20), v10, z10, tool0;

	MoveL Offs(p0,18.0,293.0,20), v10, z10, tool0;
	MoveL Offs(p0,18.0,293.0,0), v10, z10, tool0;
	MoveL Offs(p0,18.0,293.0,20), v10, z10, tool0;

	MoveL Offs(p0,18.0,293.3333333333333,20), v10, z10, tool0;
	MoveL Offs(p0,18.0,293.3333333333333,0), v10, z10, tool0;
	MoveL Offs(p0,18.0,293.3333333333333,20), v10, z10, tool0;

	MoveL Offs(p0,18.333333333333332,241.0,20), v10, z10, tool0;
	MoveL Offs(p0,18.333333333333332,241.0,0), v10, z10, tool0;
	MoveL Offs(p0,18.333333333333332,241.0,20), v10, z10, tool0;

	MoveL Offs(p0,18.333333333333332,275.0,20), v10, z10, tool0;
	MoveL Offs(p0,18.333333333333332,275.0,0), v10, z10, tool0;
	MoveL Offs(p0,18.333333333333332,275.0,20), v10, z10, tool0;

	MoveL Offs(p0,18.333333333333332,282.6666666666667,20), v10, z10, tool0;
	MoveL Offs(p0,18.333333333333332,282.6666666666667,0), v10, z10, tool0;
	MoveL Offs(p0,18.333333333333332,282.6666666666667,20), v10, z10, tool0;

	MoveL Offs(p0,18.333333333333332,283.3333333333333,20), v10, z10, tool0;
	MoveL Offs(p0,18.333333333333332,283.3333333333333,0), v10, z10, tool0;
	MoveL Offs(p0,18.333333333333332,283.3333333333333,20), v10, z10, tool0;

	MoveL Offs(p0,18.333333333333332,288.6666666666667,20), v10, z10, tool0;
	MoveL Offs(p0,18.333333333333332,288.6666666666667,0), v10, z10, tool0;
	MoveL Offs(p0,18.333333333333332,288.6666666666667,20), v10, z10, tool0;

	MoveL Offs(p0,18.333333333333332,290.6666666666667,20), v10, z10, tool0;
	MoveL Offs(p0,18.333333333333332,290.6666666666667,0), v10, z10, tool0;
	MoveL Offs(p0,18.333333333333332,290.6666666666667,20), v10, z10, tool0;

	MoveL Offs(p0,18.666666666666668,289.3333333333333,20), v10, z10, tool0;
	MoveL Offs(p0,18.666666666666668,289.3333333333333,0), v10, z10, tool0;
	MoveL Offs(p0,18.666666666666668,289.3333333333333,20), v10, z10, tool0;

	MoveL Offs(p0,18.666666666666668,293.6666666666667,20), v10, z10, tool0;
	MoveL Offs(p0,18.666666666666668,293.6666666666667,0), v10, z10, tool0;
	MoveL Offs(p0,18.666666666666668,293.6666666666667,20), v10, z10, tool0;

	MoveL Offs(p0,19.0,274.3333333333333,20), v10, z10, tool0;
	MoveL Offs(p0,19.0,274.3333333333333,0), v10, z10, tool0;
	MoveL Offs(p0,19.0,274.3333333333333,20), v10, z10, tool0;

	MoveL Offs(p0,19.0,278.0,20), v10, z10, tool0;
	MoveL Offs(p0,19.0,278.0,0), v10, z10, tool0;
	MoveL Offs(p0,19.0,278.0,20), v10, z10, tool0;

	MoveL Offs(p0,19.0,284.0,20), v10, z10, tool0;
	MoveL Offs(p0,19.0,284.0,0), v10, z10, tool0;
	MoveL Offs(p0,19.0,284.0,20), v10, z10, tool0;

	MoveL Offs(p0,19.0,289.3333333333333,20), v10, z10, tool0;
	MoveL Offs(p0,19.0,289.3333333333333,0), v10, z10, tool0;
	MoveL Offs(p0,19.0,289.3333333333333,20), v10, z10, tool0;

	MoveL Offs(p0,19.0,290.6666666666667,20), v10, z10, tool0;
	MoveL Offs(p0,19.0,290.6666666666667,0), v10, z10, tool0;
	MoveL Offs(p0,19.0,290.6666666666667,20), v10, z10, tool0;

	MoveL Offs(p0,19.0,293.6666666666667,20), v10, z10, tool0;
	MoveL Offs(p0,19.0,293.6666666666667,0), v10, z10, tool0;
	MoveL Offs(p0,19.0,293.6666666666667,20), v10, z10, tool0;

	MoveL Offs(p0,19.333333333333332,240.66666666666666,20), v10, z10, tool0;
	MoveL Offs(p0,19.333333333333332,240.66666666666666,0), v10, z10, tool0;
	MoveL Offs(p0,19.333333333333332,240.66666666666666,20), v10, z10, tool0;

	MoveL Offs(p0,19.333333333333332,272.3333333333333,20), v10, z10, tool0;
	MoveL Offs(p0,19.333333333333332,272.3333333333333,0), v10, z10, tool0;
	MoveL Offs(p0,19.333333333333332,272.3333333333333,20), v10, z10, tool0;

	MoveL Offs(p0,19.333333333333332,274.3333333333333,20), v10, z10, tool0;
	MoveL Offs(p0,19.333333333333332,274.3333333333333,0), v10, z10, tool0;
	MoveL Offs(p0,19.333333333333332,274.3333333333333,20), v10, z10, tool0;

	MoveL Offs(p0,19.333333333333332,274.6666666666667,20), v10, z10, tool0;
	MoveL Offs(p0,19.333333333333332,274.6666666666667,0), v10, z10, tool0;
	MoveL Offs(p0,19.333333333333332,274.6666666666667,20), v10, z10, tool0;

	MoveL Offs(p0,19.666666666666668,277.3333333333333,20), v10, z10, tool0;
	MoveL Offs(p0,19.666666666666668,277.3333333333333,0), v10, z10, tool0;
	MoveL Offs(p0,19.666666666666668,277.3333333333333,20), v10, z10, tool0;

	MoveL Offs(p0,19.666666666666668,278.0,20), v10, z10, tool0;
	MoveL Offs(p0,19.666666666666668,278.0,0), v10, z10, tool0;
	MoveL Offs(p0,19.666666666666668,278.0,20), v10, z10, tool0;

	MoveL Offs(p0,19.666666666666668,294.0,20), v10, z10, tool0;
	MoveL Offs(p0,19.666666666666668,294.0,0), v10, z10, tool0;
	MoveL Offs(p0,19.666666666666668,294.0,20), v10, z10, tool0;

	MoveL Offs(p0,20.0,240.33333333333334,20), v10, z10, tool0;
	MoveL Offs(p0,20.0,240.33333333333334,0), v10, z10, tool0;
	MoveL Offs(p0,20.0,240.33333333333334,20), v10, z10, tool0;

	MoveL Offs(p0,20.0,272.0,20), v10, z10, tool0;
	MoveL Offs(p0,20.0,272.0,0), v10, z10, tool0;
	MoveL Offs(p0,20.0,272.0,20), v10, z10, tool0;

	MoveL Offs(p0,20.0,277.6666666666667,20), v10, z10, tool0;
	MoveL Offs(p0,20.0,277.6666666666667,0), v10, z10, tool0;
	MoveL Offs(p0,20.0,277.6666666666667,20), v10, z10, tool0;

	MoveL Offs(p0,20.0,284.6666666666667,20), v10, z10, tool0;
	MoveL Offs(p0,20.0,284.6666666666667,0), v10, z10, tool0;
	MoveL Offs(p0,20.0,284.6666666666667,20), v10, z10, tool0;

	MoveL Offs(p0,20.0,289.6666666666667,20), v10, z10, tool0;
	MoveL Offs(p0,20.0,289.6666666666667,0), v10, z10, tool0;
	MoveL Offs(p0,20.0,289.6666666666667,20), v10, z10, tool0;

	MoveL Offs(p0,20.0,291.0,20), v10, z10, tool0;
	MoveL Offs(p0,20.0,291.0,0), v10, z10, tool0;
	MoveL Offs(p0,20.0,291.0,20), v10, z10, tool0;

	MoveL Offs(p0,20.0,294.0,20), v10, z10, tool0;
	MoveL Offs(p0,20.0,294.0,0), v10, z10, tool0;
	MoveL Offs(p0,20.0,294.0,20), v10, z10, tool0;

	MoveL Offs(p0,20.333333333333332,274.0,20), v10, z10, tool0;
	MoveL Offs(p0,20.333333333333332,274.0,0), v10, z10, tool0;
	MoveL Offs(p0,20.333333333333332,274.0,20), v10, z10, tool0;

	MoveL Offs(p0,20.333333333333332,287.0,20), v10, z10, tool0;
	MoveL Offs(p0,20.333333333333332,287.0,0), v10, z10, tool0;
	MoveL Offs(p0,20.333333333333332,287.0,20), v10, z10, tool0;

	MoveL Offs(p0,20.333333333333332,289.6666666666667,20), v10, z10, tool0;
	MoveL Offs(p0,20.333333333333332,289.6666666666667,0), v10, z10, tool0;
	MoveL Offs(p0,20.333333333333332,289.6666666666667,20), v10, z10, tool0;

	MoveL Offs(p0,20.333333333333332,294.3333333333333,20), v10, z10, tool0;
	MoveL Offs(p0,20.333333333333332,294.3333333333333,0), v10, z10, tool0;
	MoveL Offs(p0,20.333333333333332,294.3333333333333,20), v10, z10, tool0;

	MoveL Offs(p0,20.666666666666668,277.0,20), v10, z10, tool0;
	MoveL Offs(p0,20.666666666666668,277.0,0), v10, z10, tool0;
	MoveL Offs(p0,20.666666666666668,277.0,20), v10, z10, tool0;

	MoveL Offs(p0,20.666666666666668,285.3333333333333,20), v10, z10, tool0;
	MoveL Offs(p0,20.666666666666668,285.3333333333333,0), v10, z10, tool0;
	MoveL Offs(p0,20.666666666666668,285.3333333333333,20), v10, z10, tool0;

	MoveL Offs(p0,20.666666666666668,285.6666666666667,20), v10, z10, tool0;
	MoveL Offs(p0,20.666666666666668,285.6666666666667,0), v10, z10, tool0;
	MoveL Offs(p0,20.666666666666668,285.6666666666667,20), v10, z10, tool0;

	MoveL Offs(p0,20.666666666666668,287.6666666666667,20), v10, z10, tool0;
	MoveL Offs(p0,20.666666666666668,287.6666666666667,0), v10, z10, tool0;
	MoveL Offs(p0,20.666666666666668,287.6666666666667,20), v10, z10, tool0;

	MoveL Offs(p0,20.666666666666668,290.3333333333333,20), v10, z10, tool0;
	MoveL Offs(p0,20.666666666666668,290.3333333333333,0), v10, z10, tool0;
	MoveL Offs(p0,20.666666666666668,290.3333333333333,20), v10, z10, tool0;

	MoveL Offs(p0,20.666666666666668,291.6666666666667,20), v10, z10, tool0;
	MoveL Offs(p0,20.666666666666668,291.6666666666667,0), v10, z10, tool0;
	MoveL Offs(p0,20.666666666666668,291.6666666666667,20), v10, z10, tool0;

	MoveL Offs(p0,20.666666666666668,294.0,20), v10, z10, tool0;
	MoveL Offs(p0,20.666666666666668,294.0,0), v10, z10, tool0;
	MoveL Offs(p0,20.666666666666668,294.0,20), v10, z10, tool0;

	MoveL Offs(p0,20.666666666666668,294.6666666666667,20), v10, z10, tool0;
	MoveL Offs(p0,20.666666666666668,294.6666666666667,0), v10, z10, tool0;
	MoveL Offs(p0,20.666666666666668,294.6666666666667,20), v10, z10, tool0;

	MoveL Offs(p0,21.0,280.0,20), v10, z10, tool0;
	MoveL Offs(p0,21.0,280.0,0), v10, z10, tool0;
	MoveL Offs(p0,21.0,280.0,20), v10, z10, tool0;

	MoveL Offs(p0,21.0,294.6666666666667,20), v10, z10, tool0;
	MoveL Offs(p0,21.0,294.6666666666667,0), v10, z10, tool0;
	MoveL Offs(p0,21.0,294.6666666666667,20), v10, z10, tool0;

	MoveL Offs(p0,21.333333333333332,274.3333333333333,20), v10, z10, tool0;
	MoveL Offs(p0,21.333333333333332,274.3333333333333,0), v10, z10, tool0;
	MoveL Offs(p0,21.333333333333332,274.3333333333333,20), v10, z10, tool0;

	MoveL Offs(p0,21.333333333333332,277.0,20), v10, z10, tool0;
	MoveL Offs(p0,21.333333333333332,277.0,0), v10, z10, tool0;
	MoveL Offs(p0,21.333333333333332,277.0,20), v10, z10, tool0;

	MoveL Offs(p0,21.333333333333332,286.0,20), v10, z10, tool0;
	MoveL Offs(p0,21.333333333333332,286.0,0), v10, z10, tool0;
	MoveL Offs(p0,21.333333333333332,286.0,20), v10, z10, tool0;

	MoveL Offs(p0,21.333333333333332,290.3333333333333,20), v10, z10, tool0;
	MoveL Offs(p0,21.333333333333332,290.3333333333333,0), v10, z10, tool0;
	MoveL Offs(p0,21.333333333333332,290.3333333333333,20), v10, z10, tool0;

	MoveL Offs(p0,21.333333333333332,290.6666666666667,20), v10, z10, tool0;
	MoveL Offs(p0,21.333333333333332,290.6666666666667,0), v10, z10, tool0;
	MoveL Offs(p0,21.333333333333332,290.6666666666667,20), v10, z10, tool0;

	MoveL Offs(p0,21.333333333333332,292.0,20), v10, z10, tool0;
	MoveL Offs(p0,21.333333333333332,292.0,0), v10, z10, tool0;
	MoveL Offs(p0,21.333333333333332,292.0,20), v10, z10, tool0;

	MoveL Offs(p0,21.666666666666668,274.0,20), v10, z10, tool0;
	MoveL Offs(p0,21.666666666666668,274.0,0), v10, z10, tool0;
	MoveL Offs(p0,21.666666666666668,274.0,20), v10, z10, tool0;

	MoveL Offs(p0,21.666666666666668,276.6666666666667,20), v10, z10, tool0;
	MoveL Offs(p0,21.666666666666668,276.6666666666667,0), v10, z10, tool0;
	MoveL Offs(p0,21.666666666666668,276.6666666666667,20), v10, z10, tool0;

	MoveL Offs(p0,21.666666666666668,285.6666666666667,20), v10, z10, tool0;
	MoveL Offs(p0,21.666666666666668,285.6666666666667,0), v10, z10, tool0;
	MoveL Offs(p0,21.666666666666668,285.6666666666667,20), v10, z10, tool0;

	MoveL Offs(p0,21.666666666666668,292.0,20), v10, z10, tool0;
	MoveL Offs(p0,21.666666666666668,292.0,0), v10, z10, tool0;
	MoveL Offs(p0,21.666666666666668,292.0,20), v10, z10, tool0;

	MoveL Offs(p0,21.666666666666668,294.3333333333333,20), v10, z10, tool0;
	MoveL Offs(p0,21.666666666666668,294.3333333333333,0), v10, z10, tool0;
	MoveL Offs(p0,21.666666666666668,294.3333333333333,20), v10, z10, tool0;

	MoveL Offs(p0,22.0,274.0,20), v10, z10, tool0;
	MoveL Offs(p0,22.0,274.0,0), v10, z10, tool0;
	MoveL Offs(p0,22.0,274.0,20), v10, z10, tool0;

	MoveL Offs(p0,22.0,276.3333333333333,20), v10, z10, tool0;
	MoveL Offs(p0,22.0,276.3333333333333,0), v10, z10, tool0;
	MoveL Offs(p0,22.0,276.3333333333333,20), v10, z10, tool0;

	MoveL Offs(p0,22.0,281.0,20), v10, z10, tool0;
	MoveL Offs(p0,22.0,281.0,0), v10, z10, tool0;
	MoveL Offs(p0,22.0,281.0,20), v10, z10, tool0;

	MoveL Offs(p0,22.0,286.0,20), v10, z10, tool0;
	MoveL Offs(p0,22.0,286.0,0), v10, z10, tool0;
	MoveL Offs(p0,22.0,286.0,20), v10, z10, tool0;

	MoveL Offs(p0,22.0,295.0,20), v10, z10, tool0;
	MoveL Offs(p0,22.0,295.0,0), v10, z10, tool0;
	MoveL Offs(p0,22.0,295.0,20), v10, z10, tool0;

	MoveL Offs(p0,22.333333333333332,271.6666666666667,20), v10, z10, tool0;
	MoveL Offs(p0,22.333333333333332,271.6666666666667,0), v10, z10, tool0;
	MoveL Offs(p0,22.333333333333332,271.6666666666667,20), v10, z10, tool0;

	MoveL Offs(p0,22.333333333333332,286.6666666666667,20), v10, z10, tool0;
	MoveL Offs(p0,22.333333333333332,286.6666666666667,0), v10, z10, tool0;
	MoveL Offs(p0,22.333333333333332,286.6666666666667,20), v10, z10, tool0;

	MoveL Offs(p0,22.333333333333332,292.3333333333333,20), v10, z10, tool0;
	MoveL Offs(p0,22.333333333333332,292.3333333333333,0), v10, z10, tool0;
	MoveL Offs(p0,22.333333333333332,292.3333333333333,20), v10, z10, tool0;

	MoveL Offs(p0,22.333333333333332,295.0,20), v10, z10, tool0;
	MoveL Offs(p0,22.333333333333332,295.0,0), v10, z10, tool0;
	MoveL Offs(p0,22.333333333333332,295.0,20), v10, z10, tool0;

	MoveL Offs(p0,22.666666666666668,271.6666666666667,20), v10, z10, tool0;
	MoveL Offs(p0,22.666666666666668,271.6666666666667,0), v10, z10, tool0;
	MoveL Offs(p0,22.666666666666668,271.6666666666667,20), v10, z10, tool0;

	MoveL Offs(p0,22.666666666666668,276.3333333333333,20), v10, z10, tool0;
	MoveL Offs(p0,22.666666666666668,276.3333333333333,0), v10, z10, tool0;
	MoveL Offs(p0,22.666666666666668,276.3333333333333,20), v10, z10, tool0;

	MoveL Offs(p0,22.666666666666668,291.0,20), v10, z10, tool0;
	MoveL Offs(p0,22.666666666666668,291.0,0), v10, z10, tool0;
	MoveL Offs(p0,22.666666666666668,291.0,20), v10, z10, tool0;

	MoveL Offs(p0,22.666666666666668,295.0,20), v10, z10, tool0;
	MoveL Offs(p0,22.666666666666668,295.0,0), v10, z10, tool0;
	MoveL Offs(p0,22.666666666666668,295.0,20), v10, z10, tool0;

	MoveL Offs(p0,23.0,273.6666666666667,20), v10, z10, tool0;
	MoveL Offs(p0,23.0,273.6666666666667,0), v10, z10, tool0;
	MoveL Offs(p0,23.0,273.6666666666667,20), v10, z10, tool0;

	MoveL Offs(p0,23.0,281.6666666666667,20), v10, z10, tool0;
	MoveL Offs(p0,23.0,281.6666666666667,0), v10, z10, tool0;
	MoveL Offs(p0,23.0,281.6666666666667,20), v10, z10, tool0;

	MoveL Offs(p0,23.0,287.0,20), v10, z10, tool0;
	MoveL Offs(p0,23.0,287.0,0), v10, z10, tool0;
	MoveL Offs(p0,23.0,287.0,20), v10, z10, tool0;

	MoveL Offs(p0,23.0,291.0,20), v10, z10, tool0;
	MoveL Offs(p0,23.0,291.0,0), v10, z10, tool0;
	MoveL Offs(p0,23.0,291.0,20), v10, z10, tool0;

	MoveL Offs(p0,23.0,292.3333333333333,20), v10, z10, tool0;
	MoveL Offs(p0,23.0,292.3333333333333,0), v10, z10, tool0;
	MoveL Offs(p0,23.0,292.3333333333333,20), v10, z10, tool0;

	MoveL Offs(p0,23.0,292.6666666666667,20), v10, z10, tool0;
	MoveL Offs(p0,23.0,292.6666666666667,0), v10, z10, tool0;
	MoveL Offs(p0,23.0,292.6666666666667,20), v10, z10, tool0;

	MoveL Offs(p0,23.333333333333332,182.33333333333334,20), v10, z10, tool0;
	MoveL Offs(p0,23.333333333333332,182.33333333333334,0), v10, z10, tool0;
	MoveL Offs(p0,23.333333333333332,182.33333333333334,20), v10, z10, tool0;

	MoveL Offs(p0,23.333333333333332,186.66666666666666,20), v10, z10, tool0;
	MoveL Offs(p0,23.333333333333332,186.66666666666666,0), v10, z10, tool0;
	MoveL Offs(p0,23.333333333333332,186.66666666666666,20), v10, z10, tool0;

	MoveL Offs(p0,23.333333333333332,273.6666666666667,20), v10, z10, tool0;
	MoveL Offs(p0,23.333333333333332,273.6666666666667,0), v10, z10, tool0;
	MoveL Offs(p0,23.333333333333332,273.6666666666667,20), v10, z10, tool0;

	MoveL Offs(p0,23.333333333333332,276.0,20), v10, z10, tool0;
	MoveL Offs(p0,23.333333333333332,276.0,0), v10, z10, tool0;
	MoveL Offs(p0,23.333333333333332,276.0,20), v10, z10, tool0;

	MoveL Offs(p0,23.333333333333332,278.6666666666667,20), v10, z10, tool0;
	MoveL Offs(p0,23.333333333333332,278.6666666666667,0), v10, z10, tool0;
	MoveL Offs(p0,23.333333333333332,278.6666666666667,20), v10, z10, tool0;

	MoveL Offs(p0,23.333333333333332,287.0,20), v10, z10, tool0;
	MoveL Offs(p0,23.333333333333332,287.0,0), v10, z10, tool0;
	MoveL Offs(p0,23.333333333333332,287.0,20), v10, z10, tool0;

	MoveL Offs(p0,23.333333333333332,291.6666666666667,20), v10, z10, tool0;
	MoveL Offs(p0,23.333333333333332,291.6666666666667,0), v10, z10, tool0;
	MoveL Offs(p0,23.333333333333332,291.6666666666667,20), v10, z10, tool0;

	MoveL Offs(p0,23.333333333333332,295.0,20), v10, z10, tool0;
	MoveL Offs(p0,23.333333333333332,295.0,0), v10, z10, tool0;
	MoveL Offs(p0,23.333333333333332,295.0,20), v10, z10, tool0;

	MoveL Offs(p0,23.333333333333332,295.6666666666667,20), v10, z10, tool0;
	MoveL Offs(p0,23.333333333333332,295.6666666666667,0), v10, z10, tool0;
	MoveL Offs(p0,23.333333333333332,295.6666666666667,20), v10, z10, tool0;

	MoveL Offs(p0,23.666666666666668,180.66666666666666,20), v10, z10, tool0;
	MoveL Offs(p0,23.666666666666668,180.66666666666666,0), v10, z10, tool0;
	MoveL Offs(p0,23.666666666666668,180.66666666666666,20), v10, z10, tool0;

	MoveL Offs(p0,23.666666666666668,184.0,20), v10, z10, tool0;
	MoveL Offs(p0,23.666666666666668,184.0,0), v10, z10, tool0;
	MoveL Offs(p0,23.666666666666668,184.0,20), v10, z10, tool0;

	MoveL Offs(p0,23.666666666666668,184.33333333333334,20), v10, z10, tool0;
	MoveL Offs(p0,23.666666666666668,184.33333333333334,0), v10, z10, tool0;
	MoveL Offs(p0,23.666666666666668,184.33333333333334,20), v10, z10, tool0;

	MoveL Offs(p0,23.666666666666668,184.66666666666666,20), v10, z10, tool0;
	MoveL Offs(p0,23.666666666666668,184.66666666666666,0), v10, z10, tool0;
	MoveL Offs(p0,23.666666666666668,184.66666666666666,20), v10, z10, tool0;

	MoveL Offs(p0,23.666666666666668,185.0,20), v10, z10, tool0;
	MoveL Offs(p0,23.666666666666668,185.0,0), v10, z10, tool0;
	MoveL Offs(p0,23.666666666666668,185.0,20), v10, z10, tool0;

	MoveL Offs(p0,23.666666666666668,185.33333333333334,20), v10, z10, tool0;
	MoveL Offs(p0,23.666666666666668,185.33333333333334,0), v10, z10, tool0;
	MoveL Offs(p0,23.666666666666668,185.33333333333334,20), v10, z10, tool0;

	MoveL Offs(p0,23.666666666666668,187.66666666666666,20), v10, z10, tool0;
	MoveL Offs(p0,23.666666666666668,187.66666666666666,0), v10, z10, tool0;
	MoveL Offs(p0,23.666666666666668,187.66666666666666,20), v10, z10, tool0;

	MoveL Offs(p0,23.666666666666668,188.0,20), v10, z10, tool0;
	MoveL Offs(p0,23.666666666666668,188.0,0), v10, z10, tool0;
	MoveL Offs(p0,23.666666666666668,188.0,20), v10, z10, tool0;

	MoveL Offs(p0,23.666666666666668,188.33333333333334,20), v10, z10, tool0;
	MoveL Offs(p0,23.666666666666668,188.33333333333334,0), v10, z10, tool0;
	MoveL Offs(p0,23.666666666666668,188.33333333333334,20), v10, z10, tool0;

	MoveL Offs(p0,23.666666666666668,273.6666666666667,20), v10, z10, tool0;
	MoveL Offs(p0,23.666666666666668,273.6666666666667,0), v10, z10, tool0;
	MoveL Offs(p0,23.666666666666668,273.6666666666667,20), v10, z10, tool0;

	MoveL Offs(p0,23.666666666666668,292.6666666666667,20), v10, z10, tool0;
	MoveL Offs(p0,23.666666666666668,292.6666666666667,0), v10, z10, tool0;
	MoveL Offs(p0,23.666666666666668,292.6666666666667,20), v10, z10, tool0;

	MoveL Offs(p0,24.0,179.33333333333334,20), v10, z10, tool0;
	MoveL Offs(p0,24.0,179.33333333333334,0), v10, z10, tool0;
	MoveL Offs(p0,24.0,179.33333333333334,20), v10, z10, tool0;

	MoveL Offs(p0,24.0,180.66666666666666,20), v10, z10, tool0;
	MoveL Offs(p0,24.0,180.66666666666666,0), v10, z10, tool0;
	MoveL Offs(p0,24.0,180.66666666666666,20), v10, z10, tool0;

	MoveL Offs(p0,24.0,181.33333333333334,20), v10, z10, tool0;
	MoveL Offs(p0,24.0,181.33333333333334,0), v10, z10, tool0;
	MoveL Offs(p0,24.0,181.33333333333334,20), v10, z10, tool0;

	MoveL Offs(p0,24.0,186.66666666666666,20), v10, z10, tool0;
	MoveL Offs(p0,24.0,186.66666666666666,0), v10, z10, tool0;
	MoveL Offs(p0,24.0,186.66666666666666,20), v10, z10, tool0;

	MoveL Offs(p0,24.0,187.0,20), v10, z10, tool0;
	MoveL Offs(p0,24.0,187.0,0), v10, z10, tool0;
	MoveL Offs(p0,24.0,187.0,20), v10, z10, tool0;

	MoveL Offs(p0,24.0,187.33333333333334,20), v10, z10, tool0;
	MoveL Offs(p0,24.0,187.33333333333334,0), v10, z10, tool0;
	MoveL Offs(p0,24.0,187.33333333333334,20), v10, z10, tool0;

	MoveL Offs(p0,24.0,189.0,20), v10, z10, tool0;
	MoveL Offs(p0,24.0,189.0,0), v10, z10, tool0;
	MoveL Offs(p0,24.0,189.0,20), v10, z10, tool0;

	MoveL Offs(p0,24.0,190.66666666666666,20), v10, z10, tool0;
	MoveL Offs(p0,24.0,190.66666666666666,0), v10, z10, tool0;
	MoveL Offs(p0,24.0,190.66666666666666,20), v10, z10, tool0;

	MoveL Offs(p0,24.0,273.6666666666667,20), v10, z10, tool0;
	MoveL Offs(p0,24.0,273.6666666666667,0), v10, z10, tool0;
	MoveL Offs(p0,24.0,273.6666666666667,20), v10, z10, tool0;

	MoveL Offs(p0,24.0,275.6666666666667,20), v10, z10, tool0;
	MoveL Offs(p0,24.0,275.6666666666667,0), v10, z10, tool0;
	MoveL Offs(p0,24.0,275.6666666666667,20), v10, z10, tool0;

	MoveL Offs(p0,24.0,292.0,20), v10, z10, tool0;
	MoveL Offs(p0,24.0,292.0,0), v10, z10, tool0;
	MoveL Offs(p0,24.0,292.0,20), v10, z10, tool0;

	MoveL Offs(p0,24.0,295.6666666666667,20), v10, z10, tool0;
	MoveL Offs(p0,24.0,295.6666666666667,0), v10, z10, tool0;
	MoveL Offs(p0,24.0,295.6666666666667,20), v10, z10, tool0;

	MoveL Offs(p0,24.333333333333332,178.0,20), v10, z10, tool0;
	MoveL Offs(p0,24.333333333333332,178.0,0), v10, z10, tool0;
	MoveL Offs(p0,24.333333333333332,178.0,20), v10, z10, tool0;

	MoveL Offs(p0,24.333333333333332,178.33333333333334,20), v10, z10, tool0;
	MoveL Offs(p0,24.333333333333332,178.33333333333334,0), v10, z10, tool0;
	MoveL Offs(p0,24.333333333333332,178.33333333333334,20), v10, z10, tool0;

	MoveL Offs(p0,24.333333333333332,178.66666666666666,20), v10, z10, tool0;
	MoveL Offs(p0,24.333333333333332,178.66666666666666,0), v10, z10, tool0;
	MoveL Offs(p0,24.333333333333332,178.66666666666666,20), v10, z10, tool0;

	MoveL Offs(p0,24.333333333333332,180.33333333333334,20), v10, z10, tool0;
	MoveL Offs(p0,24.333333333333332,180.33333333333334,0), v10, z10, tool0;
	MoveL Offs(p0,24.333333333333332,180.33333333333334,20), v10, z10, tool0;

	MoveL Offs(p0,24.333333333333332,189.33333333333334,20), v10, z10, tool0;
	MoveL Offs(p0,24.333333333333332,189.33333333333334,0), v10, z10, tool0;
	MoveL Offs(p0,24.333333333333332,189.33333333333334,20), v10, z10, tool0;

	MoveL Offs(p0,24.333333333333332,191.66666666666666,20), v10, z10, tool0;
	MoveL Offs(p0,24.333333333333332,191.66666666666666,0), v10, z10, tool0;
	MoveL Offs(p0,24.333333333333332,191.66666666666666,20), v10, z10, tool0;

	MoveL Offs(p0,24.333333333333332,192.66666666666666,20), v10, z10, tool0;
	MoveL Offs(p0,24.333333333333332,192.66666666666666,0), v10, z10, tool0;
	MoveL Offs(p0,24.333333333333332,192.66666666666666,20), v10, z10, tool0;

	MoveL Offs(p0,24.333333333333332,239.0,20), v10, z10, tool0;
	MoveL Offs(p0,24.333333333333332,239.0,0), v10, z10, tool0;
	MoveL Offs(p0,24.333333333333332,239.0,20), v10, z10, tool0;

	MoveL Offs(p0,24.333333333333332,276.0,20), v10, z10, tool0;
	MoveL Offs(p0,24.333333333333332,276.0,0), v10, z10, tool0;
	MoveL Offs(p0,24.333333333333332,276.0,20), v10, z10, tool0;

	MoveL Offs(p0,24.333333333333332,287.3333333333333,20), v10, z10, tool0;
	MoveL Offs(p0,24.333333333333332,287.3333333333333,0), v10, z10, tool0;
	MoveL Offs(p0,24.333333333333332,287.3333333333333,20), v10, z10, tool0;

	MoveL Offs(p0,24.333333333333332,291.6666666666667,20), v10, z10, tool0;
	MoveL Offs(p0,24.333333333333332,291.6666666666667,0), v10, z10, tool0;
	MoveL Offs(p0,24.333333333333332,291.6666666666667,20), v10, z10, tool0;

	MoveL Offs(p0,24.333333333333332,295.3333333333333,20), v10, z10, tool0;
	MoveL Offs(p0,24.333333333333332,295.3333333333333,0), v10, z10, tool0;
	MoveL Offs(p0,24.333333333333332,295.3333333333333,20), v10, z10, tool0;

	MoveL Offs(p0,24.666666666666668,190.33333333333334,20), v10, z10, tool0;
	MoveL Offs(p0,24.666666666666668,190.33333333333334,0), v10, z10, tool0;
	MoveL Offs(p0,24.666666666666668,190.33333333333334,20), v10, z10, tool0;

	MoveL Offs(p0,24.666666666666668,191.66666666666666,20), v10, z10, tool0;
	MoveL Offs(p0,24.666666666666668,191.66666666666666,0), v10, z10, tool0;
	MoveL Offs(p0,24.666666666666668,191.66666666666666,20), v10, z10, tool0;

	MoveL Offs(p0,24.666666666666668,280.0,20), v10, z10, tool0;
	MoveL Offs(p0,24.666666666666668,280.0,0), v10, z10, tool0;
	MoveL Offs(p0,24.666666666666668,280.0,20), v10, z10, tool0;

	MoveL Offs(p0,24.666666666666668,283.0,20), v10, z10, tool0;
	MoveL Offs(p0,24.666666666666668,283.0,0), v10, z10, tool0;
	MoveL Offs(p0,24.666666666666668,283.0,20), v10, z10, tool0;

	MoveL Offs(p0,24.666666666666668,291.6666666666667,20), v10, z10, tool0;
	MoveL Offs(p0,24.666666666666668,291.6666666666667,0), v10, z10, tool0;
	MoveL Offs(p0,24.666666666666668,291.6666666666667,20), v10, z10, tool0;

	MoveL Offs(p0,24.666666666666668,296.3333333333333,20), v10, z10, tool0;
	MoveL Offs(p0,24.666666666666668,296.3333333333333,0), v10, z10, tool0;
	MoveL Offs(p0,24.666666666666668,296.3333333333333,20), v10, z10, tool0;

	MoveL Offs(p0,25.0,176.66666666666666,20), v10, z10, tool0;
	MoveL Offs(p0,25.0,176.66666666666666,0), v10, z10, tool0;
	MoveL Offs(p0,25.0,176.66666666666666,20), v10, z10, tool0;

	MoveL Offs(p0,25.0,177.66666666666666,20), v10, z10, tool0;
	MoveL Offs(p0,25.0,177.66666666666666,0), v10, z10, tool0;
	MoveL Offs(p0,25.0,177.66666666666666,20), v10, z10, tool0;

	MoveL Offs(p0,25.0,194.33333333333334,20), v10, z10, tool0;
	MoveL Offs(p0,25.0,194.33333333333334,0), v10, z10, tool0;
	MoveL Offs(p0,25.0,194.33333333333334,20), v10, z10, tool0;

	MoveL Offs(p0,25.0,194.66666666666666,20), v10, z10, tool0;
	MoveL Offs(p0,25.0,194.66666666666666,0), v10, z10, tool0;
	MoveL Offs(p0,25.0,194.66666666666666,20), v10, z10, tool0;

	MoveL Offs(p0,25.0,271.6666666666667,20), v10, z10, tool0;
	MoveL Offs(p0,25.0,271.6666666666667,0), v10, z10, tool0;
	MoveL Offs(p0,25.0,271.6666666666667,20), v10, z10, tool0;

	MoveL Offs(p0,25.0,280.3333333333333,20), v10, z10, tool0;
	MoveL Offs(p0,25.0,280.3333333333333,0), v10, z10, tool0;
	MoveL Offs(p0,25.0,280.3333333333333,20), v10, z10, tool0;

	MoveL Offs(p0,25.0,283.0,20), v10, z10, tool0;
	MoveL Offs(p0,25.0,283.0,0), v10, z10, tool0;
	MoveL Offs(p0,25.0,283.0,20), v10, z10, tool0;

	MoveL Offs(p0,25.0,295.6666666666667,20), v10, z10, tool0;
	MoveL Offs(p0,25.0,295.6666666666667,0), v10, z10, tool0;
	MoveL Offs(p0,25.0,295.6666666666667,20), v10, z10, tool0;

	MoveL Offs(p0,25.0,296.0,20), v10, z10, tool0;
	MoveL Offs(p0,25.0,296.0,0), v10, z10, tool0;
	MoveL Offs(p0,25.0,296.0,20), v10, z10, tool0;

	MoveL Offs(p0,25.333333333333332,176.66666666666666,20), v10, z10, tool0;
	MoveL Offs(p0,25.333333333333332,176.66666666666666,0), v10, z10, tool0;
	MoveL Offs(p0,25.333333333333332,176.66666666666666,20), v10, z10, tool0;

	MoveL Offs(p0,25.333333333333332,238.66666666666666,20), v10, z10, tool0;
	MoveL Offs(p0,25.333333333333332,238.66666666666666,0), v10, z10, tool0;
	MoveL Offs(p0,25.333333333333332,238.66666666666666,20), v10, z10, tool0;

	MoveL Offs(p0,25.666666666666668,175.33333333333334,20), v10, z10, tool0;
	MoveL Offs(p0,25.666666666666668,175.33333333333334,0), v10, z10, tool0;
	MoveL Offs(p0,25.666666666666668,175.33333333333334,20), v10, z10, tool0;

	MoveL Offs(p0,25.666666666666668,176.33333333333334,20), v10, z10, tool0;
	MoveL Offs(p0,25.666666666666668,176.33333333333334,0), v10, z10, tool0;
	MoveL Offs(p0,25.666666666666668,176.33333333333334,20), v10, z10, tool0;

	MoveL Offs(p0,25.666666666666668,195.66666666666666,20), v10, z10, tool0;
	MoveL Offs(p0,25.666666666666668,195.66666666666666,0), v10, z10, tool0;
	MoveL Offs(p0,25.666666666666668,195.66666666666666,20), v10, z10, tool0;

	MoveL Offs(p0,25.666666666666668,197.66666666666666,20), v10, z10, tool0;
	MoveL Offs(p0,25.666666666666668,197.66666666666666,0), v10, z10, tool0;
	MoveL Offs(p0,25.666666666666668,197.66666666666666,20), v10, z10, tool0;

	MoveL Offs(p0,25.666666666666668,238.66666666666666,20), v10, z10, tool0;
	MoveL Offs(p0,25.666666666666668,238.66666666666666,0), v10, z10, tool0;
	MoveL Offs(p0,25.666666666666668,238.66666666666666,20), v10, z10, tool0;

	MoveL Offs(p0,25.666666666666668,271.3333333333333,20), v10, z10, tool0;
	MoveL Offs(p0,25.666666666666668,271.3333333333333,0), v10, z10, tool0;
	MoveL Offs(p0,25.666666666666668,271.3333333333333,20), v10, z10, tool0;

	MoveL Offs(p0,25.666666666666668,273.6666666666667,20), v10, z10, tool0;
	MoveL Offs(p0,25.666666666666668,273.6666666666667,0), v10, z10, tool0;
	MoveL Offs(p0,25.666666666666668,273.6666666666667,20), v10, z10, tool0;

	MoveL Offs(p0,25.666666666666668,296.0,20), v10, z10, tool0;
	MoveL Offs(p0,25.666666666666668,296.0,0), v10, z10, tool0;
	MoveL Offs(p0,25.666666666666668,296.0,20), v10, z10, tool0;

	MoveL Offs(p0,25.666666666666668,296.3333333333333,20), v10, z10, tool0;
	MoveL Offs(p0,25.666666666666668,296.3333333333333,0), v10, z10, tool0;
	MoveL Offs(p0,25.666666666666668,296.3333333333333,20), v10, z10, tool0;

	MoveL Offs(p0,25.666666666666668,296.6666666666667,20), v10, z10, tool0;
	MoveL Offs(p0,25.666666666666668,296.6666666666667,0), v10, z10, tool0;
	MoveL Offs(p0,25.666666666666668,296.6666666666667,20), v10, z10, tool0;

	MoveL Offs(p0,26.0,175.0,20), v10, z10, tool0;
	MoveL Offs(p0,26.0,175.0,0), v10, z10, tool0;
	MoveL Offs(p0,26.0,175.0,20), v10, z10, tool0;

	MoveL Offs(p0,26.0,176.0,20), v10, z10, tool0;
	MoveL Offs(p0,26.0,176.0,0), v10, z10, tool0;
	MoveL Offs(p0,26.0,176.0,20), v10, z10, tool0;

	MoveL Offs(p0,26.0,196.66666666666666,20), v10, z10, tool0;
	MoveL Offs(p0,26.0,196.66666666666666,0), v10, z10, tool0;
	MoveL Offs(p0,26.0,196.66666666666666,20), v10, z10, tool0;

	MoveL Offs(p0,26.0,197.0,20), v10, z10, tool0;
	MoveL Offs(p0,26.0,197.0,0), v10, z10, tool0;
	MoveL Offs(p0,26.0,197.0,20), v10, z10, tool0;

	MoveL Offs(p0,26.0,198.33333333333334,20), v10, z10, tool0;
	MoveL Offs(p0,26.0,198.33333333333334,0), v10, z10, tool0;
	MoveL Offs(p0,26.0,198.33333333333334,20), v10, z10, tool0;

	MoveL Offs(p0,26.0,198.66666666666666,20), v10, z10, tool0;
	MoveL Offs(p0,26.0,198.66666666666666,0), v10, z10, tool0;
	MoveL Offs(p0,26.0,198.66666666666666,20), v10, z10, tool0;

	MoveL Offs(p0,26.0,271.3333333333333,20), v10, z10, tool0;
	MoveL Offs(p0,26.0,271.3333333333333,0), v10, z10, tool0;
	MoveL Offs(p0,26.0,271.3333333333333,20), v10, z10, tool0;

	MoveL Offs(p0,26.0,281.0,20), v10, z10, tool0;
	MoveL Offs(p0,26.0,281.0,0), v10, z10, tool0;
	MoveL Offs(p0,26.0,281.0,20), v10, z10, tool0;

	MoveL Offs(p0,26.0,283.6666666666667,20), v10, z10, tool0;
	MoveL Offs(p0,26.0,283.6666666666667,0), v10, z10, tool0;
	MoveL Offs(p0,26.0,283.6666666666667,20), v10, z10, tool0;

	MoveL Offs(p0,26.0,288.6666666666667,20), v10, z10, tool0;
	MoveL Offs(p0,26.0,288.6666666666667,0), v10, z10, tool0;
	MoveL Offs(p0,26.0,288.6666666666667,20), v10, z10, tool0;

	MoveL Offs(p0,26.0,292.6666666666667,20), v10, z10, tool0;
	MoveL Offs(p0,26.0,292.6666666666667,0), v10, z10, tool0;
	MoveL Offs(p0,26.0,292.6666666666667,20), v10, z10, tool0;

	MoveL Offs(p0,26.333333333333332,199.33333333333334,20), v10, z10, tool0;
	MoveL Offs(p0,26.333333333333332,199.33333333333334,0), v10, z10, tool0;
	MoveL Offs(p0,26.333333333333332,199.33333333333334,20), v10, z10, tool0;

	MoveL Offs(p0,26.333333333333332,275.3333333333333,20), v10, z10, tool0;
	MoveL Offs(p0,26.333333333333332,275.3333333333333,0), v10, z10, tool0;
	MoveL Offs(p0,26.333333333333332,275.3333333333333,20), v10, z10, tool0;

	MoveL Offs(p0,26.333333333333332,292.6666666666667,20), v10, z10, tool0;
	MoveL Offs(p0,26.333333333333332,292.6666666666667,0), v10, z10, tool0;
	MoveL Offs(p0,26.333333333333332,292.6666666666667,20), v10, z10, tool0;

	MoveL Offs(p0,26.333333333333332,294.0,20), v10, z10, tool0;
	MoveL Offs(p0,26.333333333333332,294.0,0), v10, z10, tool0;
	MoveL Offs(p0,26.333333333333332,294.0,20), v10, z10, tool0;

	MoveL Offs(p0,26.333333333333332,297.0,20), v10, z10, tool0;
	MoveL Offs(p0,26.333333333333332,297.0,0), v10, z10, tool0;
	MoveL Offs(p0,26.333333333333332,297.0,20), v10, z10, tool0;

	MoveL Offs(p0,26.666666666666668,198.33333333333334,20), v10, z10, tool0;
	MoveL Offs(p0,26.666666666666668,198.33333333333334,0), v10, z10, tool0;
	MoveL Offs(p0,26.666666666666668,198.33333333333334,20), v10, z10, tool0;

	MoveL Offs(p0,26.666666666666668,199.66666666666666,20), v10, z10, tool0;
	MoveL Offs(p0,26.666666666666668,199.66666666666666,0), v10, z10, tool0;
	MoveL Offs(p0,26.666666666666668,199.66666666666666,20), v10, z10, tool0;

	MoveL Offs(p0,26.666666666666668,238.33333333333334,20), v10, z10, tool0;
	MoveL Offs(p0,26.666666666666668,238.33333333333334,0), v10, z10, tool0;
	MoveL Offs(p0,26.666666666666668,238.33333333333334,20), v10, z10, tool0;

	MoveL Offs(p0,26.666666666666668,275.3333333333333,20), v10, z10, tool0;
	MoveL Offs(p0,26.666666666666668,275.3333333333333,0), v10, z10, tool0;
	MoveL Offs(p0,26.666666666666668,275.3333333333333,20), v10, z10, tool0;

	MoveL Offs(p0,26.666666666666668,281.0,20), v10, z10, tool0;
	MoveL Offs(p0,26.666666666666668,281.0,0), v10, z10, tool0;
	MoveL Offs(p0,26.666666666666668,281.0,20), v10, z10, tool0;

	MoveL Offs(p0,26.666666666666668,283.6666666666667,20), v10, z10, tool0;
	MoveL Offs(p0,26.666666666666668,283.6666666666667,0), v10, z10, tool0;
	MoveL Offs(p0,26.666666666666668,283.6666666666667,20), v10, z10, tool0;

	MoveL Offs(p0,26.666666666666668,293.0,20), v10, z10, tool0;
	MoveL Offs(p0,26.666666666666668,293.0,0), v10, z10, tool0;
	MoveL Offs(p0,26.666666666666668,293.0,20), v10, z10, tool0;

	MoveL Offs(p0,26.666666666666668,294.3333333333333,20), v10, z10, tool0;
	MoveL Offs(p0,26.666666666666668,294.3333333333333,0), v10, z10, tool0;
	MoveL Offs(p0,26.666666666666668,294.3333333333333,20), v10, z10, tool0;

	MoveL Offs(p0,26.666666666666668,296.6666666666667,20), v10, z10, tool0;
	MoveL Offs(p0,26.666666666666668,296.6666666666667,0), v10, z10, tool0;
	MoveL Offs(p0,26.666666666666668,296.6666666666667,20), v10, z10, tool0;

	MoveL Offs(p0,27.0,173.66666666666666,20), v10, z10, tool0;
	MoveL Offs(p0,27.0,173.66666666666666,0), v10, z10, tool0;
	MoveL Offs(p0,27.0,173.66666666666666,20), v10, z10, tool0;

	MoveL Offs(p0,27.0,174.66666666666666,20), v10, z10, tool0;
	MoveL Offs(p0,27.0,174.66666666666666,0), v10, z10, tool0;
	MoveL Offs(p0,27.0,174.66666666666666,20), v10, z10, tool0;

	MoveL Offs(p0,27.0,200.0,20), v10, z10, tool0;
	MoveL Offs(p0,27.0,200.0,0), v10, z10, tool0;
	MoveL Offs(p0,27.0,200.0,20), v10, z10, tool0;

	MoveL Offs(p0,27.0,200.33333333333334,20), v10, z10, tool0;
	MoveL Offs(p0,27.0,200.33333333333334,0), v10, z10, tool0;
	MoveL Offs(p0,27.0,200.33333333333334,20), v10, z10, tool0;

	MoveL Offs(p0,27.0,201.66666666666666,20), v10, z10, tool0;
	MoveL Offs(p0,27.0,201.66666666666666,0), v10, z10, tool0;
	MoveL Offs(p0,27.0,201.66666666666666,20), v10, z10, tool0;

	MoveL Offs(p0,27.0,284.0,20), v10, z10, tool0;
	MoveL Offs(p0,27.0,284.0,0), v10, z10, tool0;
	MoveL Offs(p0,27.0,284.0,20), v10, z10, tool0;

	MoveL Offs(p0,27.0,294.3333333333333,20), v10, z10, tool0;
	MoveL Offs(p0,27.0,294.3333333333333,0), v10, z10, tool0;
	MoveL Offs(p0,27.0,294.3333333333333,20), v10, z10, tool0;

	MoveL Offs(p0,27.0,296.6666666666667,20), v10, z10, tool0;
	MoveL Offs(p0,27.0,296.6666666666667,0), v10, z10, tool0;
	MoveL Offs(p0,27.0,296.6666666666667,20), v10, z10, tool0;

	MoveL Offs(p0,27.333333333333332,200.66666666666666,20), v10, z10, tool0;
	MoveL Offs(p0,27.333333333333332,200.66666666666666,0), v10, z10, tool0;
	MoveL Offs(p0,27.333333333333332,200.66666666666666,20), v10, z10, tool0;

	MoveL Offs(p0,27.333333333333332,201.0,20), v10, z10, tool0;
	MoveL Offs(p0,27.333333333333332,201.0,0), v10, z10, tool0;
	MoveL Offs(p0,27.333333333333332,201.0,20), v10, z10, tool0;

	MoveL Offs(p0,27.333333333333332,271.3333333333333,20), v10, z10, tool0;
	MoveL Offs(p0,27.333333333333332,271.3333333333333,0), v10, z10, tool0;
	MoveL Offs(p0,27.333333333333332,271.3333333333333,20), v10, z10, tool0;

	MoveL Offs(p0,27.333333333333332,273.3333333333333,20), v10, z10, tool0;
	MoveL Offs(p0,27.333333333333332,273.3333333333333,0), v10, z10, tool0;
	MoveL Offs(p0,27.333333333333332,273.3333333333333,20), v10, z10, tool0;

	MoveL Offs(p0,27.333333333333332,275.6666666666667,20), v10, z10, tool0;
	MoveL Offs(p0,27.333333333333332,275.6666666666667,0), v10, z10, tool0;
	MoveL Offs(p0,27.333333333333332,275.6666666666667,20), v10, z10, tool0;

	MoveL Offs(p0,27.666666666666668,173.66666666666666,20), v10, z10, tool0;
	MoveL Offs(p0,27.666666666666668,173.66666666666666,0), v10, z10, tool0;
	MoveL Offs(p0,27.666666666666668,173.66666666666666,20), v10, z10, tool0;

	MoveL Offs(p0,27.666666666666668,174.0,20), v10, z10, tool0;
	MoveL Offs(p0,27.666666666666668,174.0,0), v10, z10, tool0;
	MoveL Offs(p0,27.666666666666668,174.0,20), v10, z10, tool0;

	MoveL Offs(p0,27.666666666666668,202.0,20), v10, z10, tool0;
	MoveL Offs(p0,27.666666666666668,202.0,0), v10, z10, tool0;
	MoveL Offs(p0,27.666666666666668,202.0,20), v10, z10, tool0;

	MoveL Offs(p0,27.666666666666668,202.33333333333334,20), v10, z10, tool0;
	MoveL Offs(p0,27.666666666666668,202.33333333333334,0), v10, z10, tool0;
	MoveL Offs(p0,27.666666666666668,202.33333333333334,20), v10, z10, tool0;

	MoveL Offs(p0,27.666666666666668,202.66666666666666,20), v10, z10, tool0;
	MoveL Offs(p0,27.666666666666668,202.66666666666666,0), v10, z10, tool0;
	MoveL Offs(p0,27.666666666666668,202.66666666666666,20), v10, z10, tool0;

	MoveL Offs(p0,27.666666666666668,203.66666666666666,20), v10, z10, tool0;
	MoveL Offs(p0,27.666666666666668,203.66666666666666,0), v10, z10, tool0;
	MoveL Offs(p0,27.666666666666668,203.66666666666666,20), v10, z10, tool0;

	MoveL Offs(p0,27.666666666666668,271.3333333333333,20), v10, z10, tool0;
	MoveL Offs(p0,27.666666666666668,271.3333333333333,0), v10, z10, tool0;
	MoveL Offs(p0,27.666666666666668,271.3333333333333,20), v10, z10, tool0;

	MoveL Offs(p0,27.666666666666668,273.3333333333333,20), v10, z10, tool0;
	MoveL Offs(p0,27.666666666666668,273.3333333333333,0), v10, z10, tool0;
	MoveL Offs(p0,27.666666666666668,273.3333333333333,20), v10, z10, tool0;

	MoveL Offs(p0,27.666666666666668,275.0,20), v10, z10, tool0;
	MoveL Offs(p0,27.666666666666668,275.0,0), v10, z10, tool0;
	MoveL Offs(p0,27.666666666666668,275.0,20), v10, z10, tool0;

	MoveL Offs(p0,27.666666666666668,275.6666666666667,20), v10, z10, tool0;
	MoveL Offs(p0,27.666666666666668,275.6666666666667,0), v10, z10, tool0;
	MoveL Offs(p0,27.666666666666668,275.6666666666667,20), v10, z10, tool0;

	MoveL Offs(p0,27.666666666666668,284.3333333333333,20), v10, z10, tool0;
	MoveL Offs(p0,27.666666666666668,284.3333333333333,0), v10, z10, tool0;
	MoveL Offs(p0,27.666666666666668,284.3333333333333,20), v10, z10, tool0;

	MoveL Offs(p0,27.666666666666668,293.0,20), v10, z10, tool0;
	MoveL Offs(p0,27.666666666666668,293.0,0), v10, z10, tool0;
	MoveL Offs(p0,27.666666666666668,293.0,20), v10, z10, tool0;

	MoveL Offs(p0,28.0,203.33333333333334,20), v10, z10, tool0;
	MoveL Offs(p0,28.0,203.33333333333334,0), v10, z10, tool0;
	MoveL Offs(p0,28.0,203.33333333333334,20), v10, z10, tool0;

	MoveL Offs(p0,28.0,204.0,20), v10, z10, tool0;
	MoveL Offs(p0,28.0,204.0,0), v10, z10, tool0;
	MoveL Offs(p0,28.0,204.0,20), v10, z10, tool0;

	MoveL Offs(p0,28.0,204.33333333333334,20), v10, z10, tool0;
	MoveL Offs(p0,28.0,204.33333333333334,0), v10, z10, tool0;
	MoveL Offs(p0,28.0,204.33333333333334,20), v10, z10, tool0;

	MoveL Offs(p0,28.0,275.0,20), v10, z10, tool0;
	MoveL Offs(p0,28.0,275.0,0), v10, z10, tool0;
	MoveL Offs(p0,28.0,275.0,20), v10, z10, tool0;

	MoveL Offs(p0,28.0,276.3333333333333,20), v10, z10, tool0;
	MoveL Offs(p0,28.0,276.3333333333333,0), v10, z10, tool0;
	MoveL Offs(p0,28.0,276.3333333333333,20), v10, z10, tool0;

	MoveL Offs(p0,28.0,284.6666666666667,20), v10, z10, tool0;
	MoveL Offs(p0,28.0,284.6666666666667,0), v10, z10, tool0;
	MoveL Offs(p0,28.0,284.6666666666667,20), v10, z10, tool0;

	MoveL Offs(p0,28.0,293.3333333333333,20), v10, z10, tool0;
	MoveL Offs(p0,28.0,293.3333333333333,0), v10, z10, tool0;
	MoveL Offs(p0,28.0,293.3333333333333,20), v10, z10, tool0;

	MoveL Offs(p0,28.0,294.3333333333333,20), v10, z10, tool0;
	MoveL Offs(p0,28.0,294.3333333333333,0), v10, z10, tool0;
	MoveL Offs(p0,28.0,294.3333333333333,20), v10, z10, tool0;

	MoveL Offs(p0,28.0,297.0,20), v10, z10, tool0;
	MoveL Offs(p0,28.0,297.0,0), v10, z10, tool0;
	MoveL Offs(p0,28.0,297.0,20), v10, z10, tool0;

	MoveL Offs(p0,28.0,297.3333333333333,20), v10, z10, tool0;
	MoveL Offs(p0,28.0,297.3333333333333,0), v10, z10, tool0;
	MoveL Offs(p0,28.0,297.3333333333333,20), v10, z10, tool0;

	MoveL Offs(p0,28.333333333333332,173.33333333333334,20), v10, z10, tool0;
	MoveL Offs(p0,28.333333333333332,173.33333333333334,0), v10, z10, tool0;
	MoveL Offs(p0,28.333333333333332,173.33333333333334,20), v10, z10, tool0;

	MoveL Offs(p0,28.333333333333332,238.0,20), v10, z10, tool0;
	MoveL Offs(p0,28.333333333333332,238.0,0), v10, z10, tool0;
	MoveL Offs(p0,28.333333333333332,238.0,20), v10, z10, tool0;

	MoveL Offs(p0,28.333333333333332,275.3333333333333,20), v10, z10, tool0;
	MoveL Offs(p0,28.333333333333332,275.3333333333333,0), v10, z10, tool0;
	MoveL Offs(p0,28.333333333333332,275.3333333333333,20), v10, z10, tool0;

	MoveL Offs(p0,28.333333333333332,293.0,20), v10, z10, tool0;
	MoveL Offs(p0,28.333333333333332,293.0,0), v10, z10, tool0;
	MoveL Offs(p0,28.333333333333332,293.0,20), v10, z10, tool0;

	MoveL Offs(p0,28.666666666666668,206.0,20), v10, z10, tool0;
	MoveL Offs(p0,28.666666666666668,206.0,0), v10, z10, tool0;
	MoveL Offs(p0,28.666666666666668,206.0,20), v10, z10, tool0;

	MoveL Offs(p0,28.666666666666668,277.0,20), v10, z10, tool0;
	MoveL Offs(p0,28.666666666666668,277.0,0), v10, z10, tool0;
	MoveL Offs(p0,28.666666666666668,277.0,20), v10, z10, tool0;

	MoveL Offs(p0,28.666666666666668,282.6666666666667,20), v10, z10, tool0;
	MoveL Offs(p0,28.666666666666668,282.6666666666667,0), v10, z10, tool0;
	MoveL Offs(p0,28.666666666666668,282.6666666666667,20), v10, z10, tool0;

	MoveL Offs(p0,28.666666666666668,295.0,20), v10, z10, tool0;
	MoveL Offs(p0,28.666666666666668,295.0,0), v10, z10, tool0;
	MoveL Offs(p0,28.666666666666668,295.0,20), v10, z10, tool0;

	MoveL Offs(p0,29.0,172.33333333333334,20), v10, z10, tool0;
	MoveL Offs(p0,29.0,172.33333333333334,0), v10, z10, tool0;
	MoveL Offs(p0,29.0,172.33333333333334,20), v10, z10, tool0;

	MoveL Offs(p0,29.0,173.0,20), v10, z10, tool0;
	MoveL Offs(p0,29.0,173.0,0), v10, z10, tool0;
	MoveL Offs(p0,29.0,173.0,20), v10, z10, tool0;

	MoveL Offs(p0,29.0,205.33333333333334,20), v10, z10, tool0;
	MoveL Offs(p0,29.0,205.33333333333334,0), v10, z10, tool0;
	MoveL Offs(p0,29.0,205.33333333333334,20), v10, z10, tool0;

	MoveL Offs(p0,29.0,206.66666666666666,20), v10, z10, tool0;
	MoveL Offs(p0,29.0,206.66666666666666,0), v10, z10, tool0;
	MoveL Offs(p0,29.0,206.66666666666666,20), v10, z10, tool0;

	MoveL Offs(p0,29.0,271.3333333333333,20), v10, z10, tool0;
	MoveL Offs(p0,29.0,271.3333333333333,0), v10, z10, tool0;
	MoveL Offs(p0,29.0,271.3333333333333,20), v10, z10, tool0;

	MoveL Offs(p0,29.0,273.0,20), v10, z10, tool0;
	MoveL Offs(p0,29.0,273.0,0), v10, z10, tool0;
	MoveL Offs(p0,29.0,273.0,20), v10, z10, tool0;

	MoveL Offs(p0,29.0,282.6666666666667,20), v10, z10, tool0;
	MoveL Offs(p0,29.0,282.6666666666667,0), v10, z10, tool0;
	MoveL Offs(p0,29.0,282.6666666666667,20), v10, z10, tool0;

	MoveL Offs(p0,29.0,285.0,20), v10, z10, tool0;
	MoveL Offs(p0,29.0,285.0,0), v10, z10, tool0;
	MoveL Offs(p0,29.0,285.0,20), v10, z10, tool0;

	MoveL Offs(p0,29.0,293.6666666666667,20), v10, z10, tool0;
	MoveL Offs(p0,29.0,293.6666666666667,0), v10, z10, tool0;
	MoveL Offs(p0,29.0,293.6666666666667,20), v10, z10, tool0;

	MoveL Offs(p0,29.333333333333332,172.33333333333334,20), v10, z10, tool0;
	MoveL Offs(p0,29.333333333333332,172.33333333333334,0), v10, z10, tool0;
	MoveL Offs(p0,29.333333333333332,172.33333333333334,20), v10, z10, tool0;

	MoveL Offs(p0,29.333333333333332,172.66666666666666,20), v10, z10, tool0;
	MoveL Offs(p0,29.333333333333332,172.66666666666666,0), v10, z10, tool0;
	MoveL Offs(p0,29.333333333333332,172.66666666666666,20), v10, z10, tool0;

	MoveL Offs(p0,29.333333333333332,206.0,20), v10, z10, tool0;
	MoveL Offs(p0,29.333333333333332,206.0,0), v10, z10, tool0;
	MoveL Offs(p0,29.333333333333332,206.0,20), v10, z10, tool0;

	MoveL Offs(p0,29.333333333333332,207.66666666666666,20), v10, z10, tool0;
	MoveL Offs(p0,29.333333333333332,207.66666666666666,0), v10, z10, tool0;
	MoveL Offs(p0,29.333333333333332,207.66666666666666,20), v10, z10, tool0;

	MoveL Offs(p0,29.333333333333332,271.3333333333333,20), v10, z10, tool0;
	MoveL Offs(p0,29.333333333333332,271.3333333333333,0), v10, z10, tool0;
	MoveL Offs(p0,29.333333333333332,271.3333333333333,20), v10, z10, tool0;

	MoveL Offs(p0,29.333333333333332,273.3333333333333,20), v10, z10, tool0;
	MoveL Offs(p0,29.333333333333332,273.3333333333333,0), v10, z10, tool0;
	MoveL Offs(p0,29.333333333333332,273.3333333333333,20), v10, z10, tool0;

	MoveL Offs(p0,29.333333333333332,275.0,20), v10, z10, tool0;
	MoveL Offs(p0,29.333333333333332,275.0,0), v10, z10, tool0;
	MoveL Offs(p0,29.333333333333332,275.0,20), v10, z10, tool0;

	MoveL Offs(p0,29.333333333333332,277.3333333333333,20), v10, z10, tool0;
	MoveL Offs(p0,29.333333333333332,277.3333333333333,0), v10, z10, tool0;
	MoveL Offs(p0,29.333333333333332,277.3333333333333,20), v10, z10, tool0;

	MoveL Offs(p0,29.333333333333332,282.6666666666667,20), v10, z10, tool0;
	MoveL Offs(p0,29.333333333333332,282.6666666666667,0), v10, z10, tool0;
	MoveL Offs(p0,29.333333333333332,282.6666666666667,20), v10, z10, tool0;

	MoveL Offs(p0,29.333333333333332,293.3333333333333,20), v10, z10, tool0;
	MoveL Offs(p0,29.333333333333332,293.3333333333333,0), v10, z10, tool0;
	MoveL Offs(p0,29.333333333333332,293.3333333333333,20), v10, z10, tool0;

	MoveL Offs(p0,29.333333333333332,294.0,20), v10, z10, tool0;
	MoveL Offs(p0,29.333333333333332,294.0,0), v10, z10, tool0;
	MoveL Offs(p0,29.333333333333332,294.0,20), v10, z10, tool0;

	MoveL Offs(p0,29.333333333333332,297.3333333333333,20), v10, z10, tool0;
	MoveL Offs(p0,29.333333333333332,297.3333333333333,0), v10, z10, tool0;
	MoveL Offs(p0,29.333333333333332,297.3333333333333,20), v10, z10, tool0;

	MoveL Offs(p0,29.333333333333332,298.0,20), v10, z10, tool0;
	MoveL Offs(p0,29.333333333333332,298.0,0), v10, z10, tool0;
	MoveL Offs(p0,29.333333333333332,298.0,20), v10, z10, tool0;

	MoveL Offs(p0,29.666666666666668,171.66666666666666,20), v10, z10, tool0;
	MoveL Offs(p0,29.666666666666668,171.66666666666666,0), v10, z10, tool0;
	MoveL Offs(p0,29.666666666666668,171.66666666666666,20), v10, z10, tool0;

	MoveL Offs(p0,29.666666666666668,206.66666666666666,20), v10, z10, tool0;
	MoveL Offs(p0,29.666666666666668,206.66666666666666,0), v10, z10, tool0;
	MoveL Offs(p0,29.666666666666668,206.66666666666666,20), v10, z10, tool0;

	MoveL Offs(p0,29.666666666666668,207.0,20), v10, z10, tool0;
	MoveL Offs(p0,29.666666666666668,207.0,0), v10, z10, tool0;
	MoveL Offs(p0,29.666666666666668,207.0,20), v10, z10, tool0;

	MoveL Offs(p0,29.666666666666668,271.3333333333333,20), v10, z10, tool0;
	MoveL Offs(p0,29.666666666666668,271.3333333333333,0), v10, z10, tool0;
	MoveL Offs(p0,29.666666666666668,271.3333333333333,20), v10, z10, tool0;

	MoveL Offs(p0,29.666666666666668,273.0,20), v10, z10, tool0;
	MoveL Offs(p0,29.666666666666668,273.0,0), v10, z10, tool0;
	MoveL Offs(p0,29.666666666666668,273.0,20), v10, z10, tool0;

	MoveL Offs(p0,29.666666666666668,283.0,20), v10, z10, tool0;
	MoveL Offs(p0,29.666666666666668,283.0,0), v10, z10, tool0;
	MoveL Offs(p0,29.666666666666668,283.0,20), v10, z10, tool0;

	MoveL Offs(p0,29.666666666666668,294.0,20), v10, z10, tool0;
	MoveL Offs(p0,29.666666666666668,294.0,0), v10, z10, tool0;
	MoveL Offs(p0,29.666666666666668,294.0,20), v10, z10, tool0;

	MoveL Offs(p0,29.666666666666668,295.0,20), v10, z10, tool0;
	MoveL Offs(p0,29.666666666666668,295.0,0), v10, z10, tool0;
	MoveL Offs(p0,29.666666666666668,295.0,20), v10, z10, tool0;

	MoveL Offs(p0,29.666666666666668,297.6666666666667,20), v10, z10, tool0;
	MoveL Offs(p0,29.666666666666668,297.6666666666667,0), v10, z10, tool0;
	MoveL Offs(p0,29.666666666666668,297.6666666666667,20), v10, z10, tool0;

	MoveL Offs(p0,30.0,171.66666666666666,20), v10, z10, tool0;
	MoveL Offs(p0,30.0,171.66666666666666,0), v10, z10, tool0;
	MoveL Offs(p0,30.0,171.66666666666666,20), v10, z10, tool0;

	MoveL Offs(p0,30.0,172.33333333333334,20), v10, z10, tool0;
	MoveL Offs(p0,30.0,172.33333333333334,0), v10, z10, tool0;
	MoveL Offs(p0,30.0,172.33333333333334,20), v10, z10, tool0;

	MoveL Offs(p0,30.0,208.0,20), v10, z10, tool0;
	MoveL Offs(p0,30.0,208.0,0), v10, z10, tool0;
	MoveL Offs(p0,30.0,208.0,20), v10, z10, tool0;

	MoveL Offs(p0,30.0,271.3333333333333,20), v10, z10, tool0;
	MoveL Offs(p0,30.0,271.3333333333333,0), v10, z10, tool0;
	MoveL Offs(p0,30.0,271.3333333333333,20), v10, z10, tool0;

	MoveL Offs(p0,30.0,278.0,20), v10, z10, tool0;
	MoveL Offs(p0,30.0,278.0,0), v10, z10, tool0;
	MoveL Offs(p0,30.0,278.0,20), v10, z10, tool0;

	MoveL Offs(p0,30.0,286.0,20), v10, z10, tool0;
	MoveL Offs(p0,30.0,286.0,0), v10, z10, tool0;
	MoveL Offs(p0,30.0,286.0,20), v10, z10, tool0;

	MoveL Offs(p0,30.0,293.6666666666667,20), v10, z10, tool0;
	MoveL Offs(p0,30.0,293.6666666666667,0), v10, z10, tool0;
	MoveL Offs(p0,30.0,293.6666666666667,20), v10, z10, tool0;

	MoveL Offs(p0,30.333333333333332,171.66666666666666,20), v10, z10, tool0;
	MoveL Offs(p0,30.333333333333332,171.66666666666666,0), v10, z10, tool0;
	MoveL Offs(p0,30.333333333333332,171.66666666666666,20), v10, z10, tool0;

	MoveL Offs(p0,30.333333333333332,172.33333333333334,20), v10, z10, tool0;
	MoveL Offs(p0,30.333333333333332,172.33333333333334,0), v10, z10, tool0;
	MoveL Offs(p0,30.333333333333332,172.33333333333334,20), v10, z10, tool0;

	MoveL Offs(p0,30.666666666666668,170.33333333333334,20), v10, z10, tool0;
	MoveL Offs(p0,30.666666666666668,170.33333333333334,0), v10, z10, tool0;
	MoveL Offs(p0,30.666666666666668,170.33333333333334,20), v10, z10, tool0;

	MoveL Offs(p0,30.666666666666668,172.33333333333334,20), v10, z10, tool0;
	MoveL Offs(p0,30.666666666666668,172.33333333333334,0), v10, z10, tool0;
	MoveL Offs(p0,30.666666666666668,172.33333333333334,20), v10, z10, tool0;

	MoveL Offs(p0,30.666666666666668,208.33333333333334,20), v10, z10, tool0;
	MoveL Offs(p0,30.666666666666668,208.33333333333334,0), v10, z10, tool0;
	MoveL Offs(p0,30.666666666666668,208.33333333333334,20), v10, z10, tool0;

	MoveL Offs(p0,30.666666666666668,209.33333333333334,20), v10, z10, tool0;
	MoveL Offs(p0,30.666666666666668,209.33333333333334,0), v10, z10, tool0;
	MoveL Offs(p0,30.666666666666668,209.33333333333334,20), v10, z10, tool0;

	MoveL Offs(p0,30.666666666666668,210.0,20), v10, z10, tool0;
	MoveL Offs(p0,30.666666666666668,210.0,0), v10, z10, tool0;
	MoveL Offs(p0,30.666666666666668,210.0,20), v10, z10, tool0;

	MoveL Offs(p0,30.666666666666668,278.0,20), v10, z10, tool0;
	MoveL Offs(p0,30.666666666666668,278.0,0), v10, z10, tool0;
	MoveL Offs(p0,30.666666666666668,278.0,20), v10, z10, tool0;

	MoveL Offs(p0,30.666666666666668,283.6666666666667,20), v10, z10, tool0;
	MoveL Offs(p0,30.666666666666668,283.6666666666667,0), v10, z10, tool0;
	MoveL Offs(p0,30.666666666666668,283.6666666666667,20), v10, z10, tool0;

	MoveL Offs(p0,30.666666666666668,297.6666666666667,20), v10, z10, tool0;
	MoveL Offs(p0,30.666666666666668,297.6666666666667,0), v10, z10, tool0;
	MoveL Offs(p0,30.666666666666668,297.6666666666667,20), v10, z10, tool0;

	MoveL Offs(p0,30.666666666666668,298.0,20), v10, z10, tool0;
	MoveL Offs(p0,30.666666666666668,298.0,0), v10, z10, tool0;
	MoveL Offs(p0,30.666666666666668,298.0,20), v10, z10, tool0;

	MoveL Offs(p0,31.0,169.66666666666666,20), v10, z10, tool0;
	MoveL Offs(p0,31.0,169.66666666666666,0), v10, z10, tool0;
	MoveL Offs(p0,31.0,169.66666666666666,20), v10, z10, tool0;

	MoveL Offs(p0,31.0,170.0,20), v10, z10, tool0;
	MoveL Offs(p0,31.0,170.0,0), v10, z10, tool0;
	MoveL Offs(p0,31.0,170.0,20), v10, z10, tool0;

	MoveL Offs(p0,31.0,170.66666666666666,20), v10, z10, tool0;
	MoveL Offs(p0,31.0,170.66666666666666,0), v10, z10, tool0;
	MoveL Offs(p0,31.0,170.66666666666666,20), v10, z10, tool0;

	MoveL Offs(p0,31.0,171.66666666666666,20), v10, z10, tool0;
	MoveL Offs(p0,31.0,171.66666666666666,0), v10, z10, tool0;
	MoveL Offs(p0,31.0,171.66666666666666,20), v10, z10, tool0;

	MoveL Offs(p0,31.0,208.33333333333334,20), v10, z10, tool0;
	MoveL Offs(p0,31.0,208.33333333333334,0), v10, z10, tool0;
	MoveL Offs(p0,31.0,208.33333333333334,20), v10, z10, tool0;

	MoveL Offs(p0,31.0,208.66666666666666,20), v10, z10, tool0;
	MoveL Offs(p0,31.0,208.66666666666666,0), v10, z10, tool0;
	MoveL Offs(p0,31.0,208.66666666666666,20), v10, z10, tool0;

	MoveL Offs(p0,31.0,209.66666666666666,20), v10, z10, tool0;
	MoveL Offs(p0,31.0,209.66666666666666,0), v10, z10, tool0;
	MoveL Offs(p0,31.0,209.66666666666666,20), v10, z10, tool0;

	MoveL Offs(p0,31.0,211.0,20), v10, z10, tool0;
	MoveL Offs(p0,31.0,211.0,0), v10, z10, tool0;
	MoveL Offs(p0,31.0,211.0,20), v10, z10, tool0;

	MoveL Offs(p0,31.0,211.66666666666666,20), v10, z10, tool0;
	MoveL Offs(p0,31.0,211.66666666666666,0), v10, z10, tool0;
	MoveL Offs(p0,31.0,211.66666666666666,20), v10, z10, tool0;

	MoveL Offs(p0,31.0,212.33333333333334,20), v10, z10, tool0;
	MoveL Offs(p0,31.0,212.33333333333334,0), v10, z10, tool0;
	MoveL Offs(p0,31.0,212.33333333333334,20), v10, z10, tool0;

	MoveL Offs(p0,31.0,212.66666666666666,20), v10, z10, tool0;
	MoveL Offs(p0,31.0,212.66666666666666,0), v10, z10, tool0;
	MoveL Offs(p0,31.0,212.66666666666666,20), v10, z10, tool0;

	MoveL Offs(p0,31.0,213.33333333333334,20), v10, z10, tool0;
	MoveL Offs(p0,31.0,213.33333333333334,0), v10, z10, tool0;
	MoveL Offs(p0,31.0,213.33333333333334,20), v10, z10, tool0;

	MoveL Offs(p0,31.0,273.3333333333333,20), v10, z10, tool0;
	MoveL Offs(p0,31.0,273.3333333333333,0), v10, z10, tool0;
	MoveL Offs(p0,31.0,273.3333333333333,20), v10, z10, tool0;

	MoveL Offs(p0,31.0,275.0,20), v10, z10, tool0;
	MoveL Offs(p0,31.0,275.0,0), v10, z10, tool0;
	MoveL Offs(p0,31.0,275.0,20), v10, z10, tool0;

	MoveL Offs(p0,31.0,278.6666666666667,20), v10, z10, tool0;
	MoveL Offs(p0,31.0,278.6666666666667,0), v10, z10, tool0;
	MoveL Offs(p0,31.0,278.6666666666667,20), v10, z10, tool0;

	MoveL Offs(p0,31.0,294.3333333333333,20), v10, z10, tool0;
	MoveL Offs(p0,31.0,294.3333333333333,0), v10, z10, tool0;
	MoveL Offs(p0,31.0,294.3333333333333,20), v10, z10, tool0;

	MoveL Offs(p0,31.0,295.6666666666667,20), v10, z10, tool0;
	MoveL Offs(p0,31.0,295.6666666666667,0), v10, z10, tool0;
	MoveL Offs(p0,31.0,295.6666666666667,20), v10, z10, tool0;

	MoveL Offs(p0,31.333333333333332,169.0,20), v10, z10, tool0;
	MoveL Offs(p0,31.333333333333332,169.0,0), v10, z10, tool0;
	MoveL Offs(p0,31.333333333333332,169.0,20), v10, z10, tool0;

	MoveL Offs(p0,31.333333333333332,208.66666666666666,20), v10, z10, tool0;
	MoveL Offs(p0,31.333333333333332,208.66666666666666,0), v10, z10, tool0;
	MoveL Offs(p0,31.333333333333332,208.66666666666666,20), v10, z10, tool0;

	MoveL Offs(p0,31.333333333333332,213.0,20), v10, z10, tool0;
	MoveL Offs(p0,31.333333333333332,213.0,0), v10, z10, tool0;
	MoveL Offs(p0,31.333333333333332,213.0,20), v10, z10, tool0;

	MoveL Offs(p0,31.333333333333332,214.66666666666666,20), v10, z10, tool0;
	MoveL Offs(p0,31.333333333333332,214.66666666666666,0), v10, z10, tool0;
	MoveL Offs(p0,31.333333333333332,214.66666666666666,20), v10, z10, tool0;

	MoveL Offs(p0,31.333333333333332,273.0,20), v10, z10, tool0;
	MoveL Offs(p0,31.333333333333332,273.0,0), v10, z10, tool0;
	MoveL Offs(p0,31.333333333333332,273.0,20), v10, z10, tool0;

	MoveL Offs(p0,31.333333333333332,275.0,20), v10, z10, tool0;
	MoveL Offs(p0,31.333333333333332,275.0,0), v10, z10, tool0;
	MoveL Offs(p0,31.333333333333332,275.0,20), v10, z10, tool0;

	MoveL Offs(p0,31.333333333333332,278.3333333333333,20), v10, z10, tool0;
	MoveL Offs(p0,31.333333333333332,278.3333333333333,0), v10, z10, tool0;
	MoveL Offs(p0,31.333333333333332,278.3333333333333,20), v10, z10, tool0;

	MoveL Offs(p0,31.333333333333332,286.3333333333333,20), v10, z10, tool0;
	MoveL Offs(p0,31.333333333333332,286.3333333333333,0), v10, z10, tool0;
	MoveL Offs(p0,31.333333333333332,286.3333333333333,20), v10, z10, tool0;

	MoveL Offs(p0,31.333333333333332,294.3333333333333,20), v10, z10, tool0;
	MoveL Offs(p0,31.333333333333332,294.3333333333333,0), v10, z10, tool0;
	MoveL Offs(p0,31.333333333333332,294.3333333333333,20), v10, z10, tool0;

	MoveL Offs(p0,31.666666666666668,168.33333333333334,20), v10, z10, tool0;
	MoveL Offs(p0,31.666666666666668,168.33333333333334,0), v10, z10, tool0;
	MoveL Offs(p0,31.666666666666668,168.33333333333334,20), v10, z10, tool0;

	MoveL Offs(p0,31.666666666666668,213.0,20), v10, z10, tool0;
	MoveL Offs(p0,31.666666666666668,213.0,0), v10, z10, tool0;
	MoveL Offs(p0,31.666666666666668,213.0,20), v10, z10, tool0;

	MoveL Offs(p0,31.666666666666668,214.33333333333334,20), v10, z10, tool0;
	MoveL Offs(p0,31.666666666666668,214.33333333333334,0), v10, z10, tool0;
	MoveL Offs(p0,31.666666666666668,214.33333333333334,20), v10, z10, tool0;

	MoveL Offs(p0,31.666666666666668,215.33333333333334,20), v10, z10, tool0;
	MoveL Offs(p0,31.666666666666668,215.33333333333334,0), v10, z10, tool0;
	MoveL Offs(p0,31.666666666666668,215.33333333333334,20), v10, z10, tool0;

